P3
400 225
255
204 226 255
204 226 255
204 226 255
204 226 255
204 226 255
204 226 255
204 226 255
204 226 255
204 226 255
204 226 255
204 226 255
204 226 255
204 226 255
204 226 255
204 226 255
203 226 255
203 226 255
203 226 255
203 226 255
203 226 255
203 226 255
203 226 255
203 226 255
203 225 255
203 225 255
203 225 255
203 225 255
203 225 255
203 225 255
203 225 255
203 225 255
203 225 255
202 225 255
202 225 255
202 225 255
202 225 255
202 225 255
202 225 255
202 225 255
202 225 255
202 225 255
202 225 255
202 225 255
202 225 255
202 225 255
202 225 255
202 225 255
202 225 255
201 225 255
201 225 255
201 225 255
201 225 255
201 225 255
201 224 255
201 224 255
201 224 255
201 224 255
201 224 255
201 224 255
201 224 255
201 224 255
201 224 255
201 224 255
200 224 255
200 224 255
200 224 255
200 224 255
200 224 255
200 224 255
200 224 255
200 224 255
200 224 255
200 224 255
200 224 255
200 224 255
200 224 255
200 224 255
199 224 255
199 224 255
199 224 255
199 223 255
199 223 255
199 223 255
199 223 255
199 223 255
199 223 255
199 223 255
199 223 255
199 223 255
199 223 255
199 223 255
199 223 255
198 223 255
198 223 255
198 223 255
198 223 255
198 223 255
198 223 255
198 223 255
198 223 255
198 223 255
198 223 255
198 223 255
198 223 255
198 223 255
198 223 255
197 223 255
197 222 255
197 222 255
197 222 255
197 222 255
197 222 255
197 222 255
197 222 255
197 222 255
197 222 255
197 222 255
197 222 255
197 222 255
197 222 255
197 222 255
196 222 255
196 222 255
196 222 255
196 222 255
196 222 255
196 222 255
196 222 255
196 222 255
196 222 255
196 222 255
196 222 255
196 222 255
196 222 255
196 222 255
196 221 255
196 221 255
195 221 255
195 221 255
195 221 255
195 221 255
195 221 255
195 221 255
195 221 255
195 221 255
195 221 255
195 221 255
195 221 255
195 221 255
195 221 255
195 221 255
195 221 255
195 221 255
195 221 255
195 221 255
194 221 255
194 221 255
194 221 255
194 221 255
194 221 255
194 221 255
194 221 255
194 221 255
194 221 255
194 221 255
194 221 255
194 221 255
194 221 255
194 221 255
194 221 255
194 221 255
194 221 255
194 221 255
194 221 255
194 221 255
194 221 255
194 221 255
194 220 255
194 220 255
194 220 255
194 220 255
194 220 255
194 220 255
194 220 255
194 220 255
194 220 255
194 220 255
193 220 255
193 220 255
193 220 255
193 220 255
193 220 255
193 220 255
193 220 255
193 220 255
193 220 255
193 220 255
193 220 255
193 220 255
193 220 255
193 220 255
193 220 255
193 220 255
193 220 255
193 220 255
193 220 255
193 220 255
193 220 255
193 220 255
193 220 255
193 220 255
193 220 255
193 220 255
194 220 255
194 220 255
194 220 255
194 220 255
194 220 255
194 220 255
194 220 255
194 220 255
194 220 255
194 220 255
194 221 255
194 221 255
194 221 255
194 221 255
194 221 255
194 221 255
194 221 255
194 221 255
194 221 255
194 221 255
194 221 255
194 221 255
194 221 255
194 221 255
194 221 255
194 221 255
194 221 255
194 221 255
194 221 255
194 221 255
194 221 255
194 221 255
195 221 255
195 221 255
195 221 255
195 221 255
195 221 255
195 221 255
195 221 255
195 221 255
195 221 255
195 221 255
195 221 255
195 221 255
195 221 255
195 221 255
195 221 255
195 221 255
195 221 255
195 221 255
196 221 255
196 221 255
196 222 255
196 222 255
196 222 255
196 222 255
196 222 255
196 222 255
196 222 255
196 222 255
196 222 255
196 222 255
196 222 255
196 222 255
196 222 255
196 222 255
197 222 255
197 222 255
197 222 255
197 222 255
197 222 255
197 222 255
197 222 255
197 222 255
197 222 255
197 222 255
197 222 255
197 222 255
197 222 255
197 222 255
197 222 255
198 223 255
198 223 255
198 223 255
198 223 255
198 223 255
198 223 255
198 223 255
198 223 255
198 223 255
198 223 255
198 223 255
198 223 255
198 223 255
198 223 255
199 223 255
199 223 255
199 223 255
199 223 255
199 223 255
199 223 255
199 223 255
199 223 255
199 223 255
199 223 255
199 223 255
199 223 255
199 224 255
199 224 255
199 224 255
200 224 255
200 224 255
200 224 255
200 224 255
200 224 255
200 224 255
200 224 255
200 224 255
200 224 255
200 224 255
200 224 255
200 224 255
200 224 255
200 224 255
201 224 255
201 224 255
201 224 255
201 224 255
201 224 255
201 224 255
201 224 255
201 224 255
201 224 255
201 224 255
201 224 255
201 225 255
201 225 255
201 225 255
201 225 255
202 225 255
202 225 255
202 225 255
202 225 255
202 225 255
202 225 255
202 225 255
202 225 255
202 225 255
202 225 255
202 225 255
202 225 255
202 225 255
202 225 255
202 225 255
202 225 255
203 225 255
203 225 255
203 225 255
203 225 255
203 225 255
203 225 255
203 225 255
203 225 255
203 225 255
203 226 255
203 226 255
203 226 255
203 226 255
203 226 255
203 226 255
203 226 255
203 226 255
204 226 255
204 226 255
204 226 255
204 226 255
204 226 255
204 226 255
204 226 255
204 226 255
204 226 255
204 226 255
204 226 255
204 226 255
204 226 255
204 226 255
204 226 255
204 226 255
204 226 255
204 226 255
204 226 255
204 226 255
204 226 255
204 226 255
204 226 255
204 226 255
204 226 255
204 226 255
204 226 255
204 226 255
204 226 255
204 226 255
204 226 255
204 226 255
204 226 255
203 226 255
203 226 255
203 226 255
203 226 255
203 226 255
203 226 255
203 226 255
203 225 255
203 225 255
203 225 255
203 225 255
203 225 255
203 225 255
203 225 255
203 225 255
203 225 255
202 225 255
202 225 255
202 225 255
202 225 255
202 225 255
202 225 255
202 225 255
202 225 255
202 225 255
202 225 255
202 225 255
202 225 255
202 225 255
202 225 255
202 225 255
202 225 255
201 225 255
201 225 255
201 225 255
201 225 255
201 225 255
201 224 255
201 224 255
201 224 255
201 224 255
201 224 255
201 224 255
201 224 255
201 224 255
201 224 255
201 224 255
200 224 255
200 224 255
200 224 255
200 224 255
200 224 255
200 224 255
200 224 255
200 224 255
200 224 255
200 224 255
200 224 255
200 224 255
200 224 255
200 224 255
199 224 255
199 224 255
199 224 255
199 223 255
199 223 255
199 223 255
199 223 255
199 223 255
199 223 255
199 223 255
199 223 255
199 223 255
199 223 255
199 223 255
199 223 255
198 223 255
198 223 255
198 223 255
198 223 255
198 223 255
198 223 255
198 223 255
198 223 255
198 223 255
198 223 255
198 223 255
198 223 255
198 223 255
198 223 255
197 223 255
197 222 255
197 222 255
197 222 255
197 222 255
197 222 255
197 222 255
197 222 255
197 222 255
197 222 255
197 222 255
197 222 255
197 222 255
197 222 255
197 222 255
196 222 255
196 222 255
196 222 255
196 222 255
196 222 255
196 222 255
196 222 255
196 222 255
196 222 255
196 222 255
196 222 255
196 222 255
196 222 255
196 222 255
196 222 255
196 221 255
195 221 255
195 221 255
195 221 255
195 221 255
195 221 255
195 221 255
195 221 255
195 221 255
195 221 255
195 221 255
195 221 255
195 221 255
195 221 255
195 221 255
195 221 255
195 221 255
195 221 255
195 221 255
195 221 255
194 221 255
194 221 255
194 221 255
194 221 255
194 221 255
194 221 255
194 221 255
194 221 255
194 221 255
194 221 255
194 221 255
194 221 255
194 221 255
194 221 255
194 221 255
194 221 255
194 221 255
194 221 255
194 221 255
194 221 255
194 221 255
194 221 255
194 221 255
194 221 255
194 221 255
194 220 255
194 220 255
194 220 255
194 220 255
194 220 255
194 220 255
194 220 255
194 220 255
194 220 255
194 220 255
194 220 255
194 220 255
194 220 255
194 220 255
194 220 255
194 220 255
194 220 255
194 220 255
194 220 255
194 220 255
194 220 255
194 220 255
194 220 255
194 220 255
194 220 255
194 220 255
194 220 255
194 220 255
194 220 255
194 220 255
194 220 255
194 220 255
194 220 255
194 220 255
194 221 255
194 221 255
194 221 255
194 221 255
194 221 255
194 221 255
194 221 255
194 221 255
194 221 255
194 221 255
194 221 255
194 221 255
194 221 255
194 221 255
194 221 255
194 221 255
194 221 255
194 221 255
194 221 255
194 221 255
194 221 255
194 221 255
194 221 255
194 221 255
194 221 255
195 221 255
195 221 255
195 221 255
195 221 255
195 221 255
195 221 255
195 221 255
195 221 255
195 221 255
195 221 255
195 221 255
195 221 255
195 221 255
195 221 255
195 221 255
195 221 255
195 221 255
195 221 255
195 221 255
196 221 255
196 222 255
196 222 255
196 222 255
196 222 255
196 222 255
196 222 255
196 222 255
196 222 255
196 222 255
196 222 255
196 222 255
196 222 255
196 222 255
196 222 255
196 222 255
197 222 255
197 222 255
197 222 255
197 222 255
197 222 255
197 222 255
197 222 255
197 222 255
197 222 255
197 222 255
197 222 255
197 222 255
197 222 255
197 222 255
197 222 255
198 223 255
198 223 255
198 223 255
198 223 255
198 223 255
198 223 255
198 223 255
198 223 255
198 223 255
198 223 255
198 223 255
198 223 255
198 223 255
198 223 255
199 223 255
199 223 255
199 223 255
199 223 255
199 223 255
199 223 255
199 223 255
199 223 255
199 223 255
199 223 255
199 223 255
199 223 255
199 224 255
199 224 255
200 224 255
200 224 255
200 224 255
200 224 255
200 224 255
200 224 255
200 224 255
200 224 255
200 224 255
200 224 255
200 224 255
200 224 255
200 224 255
200 224 255
200 224 255
201 224 255
201 224 255
201 224 255
201 224 255
201 224 255
201 224 255
201 224 255
201 224 255
201 224 255
201 224 255
201 225 255
201 225 255
201 225 255
201 225 255
201 225 255
202 225 255
202 225 255
202 225 255
202 225 255
202 225 255
202 225 255
202 225 255
202 225 255
202 225 255
202 225 255
202 225 255
202 225 255
202 225 255
202 225 255
202 225 255
202 225 255
203 225 255
203 225 255
203 225 255
203 225 255
203 225 255
203 225 255
203 225 255
203 225 255
203 225 255
203 226 255
203 226 255
203 226 255
203 226 255
203 226 255
203 226 255
203 226 255
204 226 255
204 226 255
204 226 255
204 226 255
204 226 255
204 226 255
204 226 255
204 226 255
204 226 255
204 226 255
204 226 255
204 226 255
204 226 255
204 226 255
204 226 255
204 226 255
204 226 255
204 226 255
205 226 255
205 226 255
204 226 255
204 226 255
204 226 255
204 226 255
204 226 255
204 226 255
204 226 255
204 226 255
204 226 255
204 226 255
204 226 255
204 226 255
204 226 255
204 226 255
204 226 255
204 226 255
204 226 255
204 226 255
203 226 255
203 226 255
203 226 255
203 226 255
203 226 255
203 226 255
203 226 255
203 225 255
203 225 255
203 225 255
203 225 255
203 225 255
203 225 255
203 225 255
203 225 255
203 225 255
203 225 255
202 225 255
202 225 255
202 225 255
202 225 255
202 225 255
202 225 255
202 225 255
202 225 255
202 225 255
202 225 255
202 225 255
202 225 255
202 225 255
202 225 255
202 225 255
201 225 255
201 225 255
201 225 255
201 225 255
201 225 255
201 224 255
201 224 255
201 224 255
201 224 255
201 224 255
201 224 255
201 224 255
201 224 255
201 224 255
201 224 255
200 224 255
200 224 255
200 224 255
200 224 255
200 224 255
200 224 255
200 224 255
200 224 255
200 224 255
200 224 255
200 224 255
200 224 255
200 224 255
200 224 255
200 224 255
199 224 255
199 224 255
199 223 255
199 223 255
199 223 255
199 223 255
199 223 255
199 223 255
199 223 255
199 223 255
199 223 255
199 223 255
199 223 255
199 223 255
198 223 255
198 223 255
198 223 255
198 223 255
198 223 255
198 223 255
198 223 255
198 223 255
198 223 255
198 223 255
198 223 255
198 223 255
198 223 255
198 223 255
197 223 255
197 222 255
197 222 255
197 222 255
197 222 255
197 222 255
197 222 255
197 222 255
197 222 255
197 222 255
197 222 255
197 222 255
197 222 255
197 222 255
197 222 255
196 222 255
196 222 255
196 222 255
196 222 255
196 222 255
196 222 255
196 222 255
196 222 255
196 222 255
196 222 255
196 222 255
196 222 255
196 222 255
196 222 255
196 222 255
196 221 255
195 221 255
195 221 255
195 221 255
195 221 255
195 221 255
195 221 255
195 221 255
195 221 255
195 221 255
195 221 255
195 221 255
195 221 255
195 221 255
195 221 255
195 221 255
195 221 255
195 221 255
195 221 255
195 221 255
195 221 255
195 221 255
194 221 255
194 221 255
194 221 255
194 221 255
194 221 255
194 221 255
194 221 255
194 221 255
194 221 255
194 221 255
194 221 255
194 221 255
194 221 255
194 221 255
194 221 255
194 221 255
194 221 255
194 221 255
194 221 255
194 221 255
194 221 255
194 221 255
194 221 255
194 221 255
194 221 255
194 221 255
194 221 255
194 221 255
194 221 255
194 221 255
194 220 255
194 220 255
194 220 255
194 220 255
194 220 255
194 220 255
194 220 255
194 220 255
194 220 255
194 220 255
194 220 255
194 220 255
194 220 255
194 220 255
194 220 255
194 220 255
194 221 255
194 221 255
194 221 255
194 221 255
194 221 255
194 221 255
194 221 255
194 221 255
194 221 255
194 221 255
194 221 255
194 221 255
194 221 255
194 221 255
194 221 255
194 221 255
194 221 255
194 221 255
194 221 255
194 221 255
194 221 255
194 221 255
194 221 255
194 221 255
194 221 255
194 221 255
194 221 255
194 221 255
194 221 255
194 221 255
195 221 255
195 221 255
195 221 255
195 221 255
195 221 255
195 221 255
195 221 255
195 221 255
195 221 255
195 221 255
195 221 255
195 221 255
195 221 255
195 221 255
195 221 255
195 221 255
195 221 255
195 221 255
195 221 255
195 221 255
195 221 255
196 221 255
196 222 255
196 222 255
196 222 255
196 222 255
196 222 255
196 222 255
196 222 255
196 222 255
196 222 255
196 222 255
196 222 255
196 222 255
196 222 255
196 222 255
196 222 255
197 222 255
197 222 255
197 222 255
197 222 255
197 222 255
197 222 255
197 222 255
197 222 255
197 222 255
197 222 255
197 222 255
197 222 255
197 222 255
197 222 255
197 223 255
198 223 255
198 223 255
198 223 255
198 223 255
198 223 255
198 223 255
198 223 255
198 223 255
198 223 255
198 223 255
198 223 255
198 223 255
198 223 255
198 223 255
199 223 255
199 223 255
199 223 255
199 223 255
199 223 255
199 223 255
199 223 255
199 223 255
199 223 255
199 223 255
199 223 255
199 223 255
199 224 255
199 224 255
200 224 255
200 224 255
200 224 255
200 224 255
200 224 255
200 224 255
200 224 255
200 224 255
200 224 255
200 224 255
200 224 255
200 224 255
200 224 255
200 224 255
200 224 255
201 224 255
201 224 255
201 224 255
201 224 255
201 224 255
201 224 255
201 224 255
201 224 255
201 224 255
201 224 255
201 225 255
201 225 255
201 225 255
201 225 255
201 225 255
202 225 255
202 225 255
202 225 255
202 225 255
202 225 255
202 225 255
202 225 255
202 225 255
202 225 255
202 225 255
202 225 255
202 225 255
202 225 255
202 225 255
202 225 255
203 225 255
203 225 255
203 225 255
203 225 255
203 225 255
203 225 255
203 225 255
203 225 255
203 225 255
203 225 255
203 226 255
203 226 255
203 226 255
203 226 255
203 226 255
203 226 255
203 226 255
204 226 255
204 226 255
204 226 255
204 226 255
204 226 255
204 226 255
204 226 255
204 226 255
204 226 255
204 226 255
204 226 255
204 226 255
204 226 255
204 226 255
204 226 255
204 226 255
204 226 255
204 226 255
205 226 255
205 226 255
205 226 255
205 226 255
205 226 255
205 226 255
204 226 255
204 226 255
204 226 255
204 226 255
204 226 255
204 226 255
204 226 255
204 226 255
204 226 255
204 226 255
204 226 255
204 226 255
204 226 255
204 226 255
204 226 255
204 226 255
204 226 255
204 226 255
203 226 255
203 226 255
203 226 255
203 226 255
203 226 255
203 226 255
203 226 255
203 226 255
203 225 255
203 225 255
203 225 255
203 225 255
203 225 255
203 225 255
203 225 255
203 225 255
203 225 255
202 225 255
202 225 255
202 225 255
202 225 255
202 225 255
202 225 255
202 225 255
202 225 255
202 225 255
202 225 255
202 225 255
202 225 255
202 225 255
202 225 255
202 225 255
201 225 255
201 225 255
201 225 255
201 225 255
201 225 255
201 224 255
201 224 255
201 224 255
201 224 255
201 224 255
201 224 255
201 224 255
201 224 255
201 224 255
201 224 255
200 224 255
200 224 255
200 224 255
200 224 255
200 224 255
200 224 255
200 224 255
200 224 255
200 224 255
200 224 255
200 224 255
200 224 255
200 224 255
200 224 255
200 224 255
199 224 255
199 224 255
199 223 255
199 223 255
199 223 255
199 223 255
199 223 255
199 223 255
199 223 255
199 223 255
199 223 255
199 223 255
199 223 255
199 223 255
198 223 255
198 223 255
198 223 255
198 223 255
198 223 255
198 223 255
198 223 255
198 223 255
198 223 255
198 223 255
198 223 255
198 223 255
198 223 255
198 223 255
197 223 255
197 222 255
197 222 255
197 222 255
197 222 255
197 222 255
197 222 255
197 222 255
197 222 255
197 222 255
197 222 255
197 222 255
197 222 255
197 222 255
197 222 255
196 222 255
196 222 255
196 222 255
196 222 255
196 222 255
196 222 255
196 222 255
196 222 255
196 222 255
196 222 255
196 222 255
196 222 255
196 222 255
196 222 255
196 222 255
196 221 255
196 221 255
195 221 255
195 221 255
195 221 255
195 221 255
195 221 255
195 221 255
195 221 255
195 221 255
195 221 255
195 221 255
195 221 255
195 221 255
195 221 255
195 221 255
195 221 255
195 221 255
195 221 255
195 221 255
195 221 255
195 221 255
195 221 255
194 221 255
194 221 255
194 221 255
194 221 255
194 221 255
194 221 255
194 221 255
194 221 255
194 221 255
194 221 255
194 221 255
194 221 255
194 221 255
194 221 255
194 221 255
194 221 255
194 221 255
194 221 255
194 221 255
194 221 255
194 221 255
194 221 255
194 221 255
194 221 255
194 221 255
194 221 255
194 221 255
194 221 255
194 221 255
194 221 255
194 221 255
194 221 255
194 221 255
194 221 255
194 221 255
194 221 255
194 221 255
194 221 255
194 221 255
194 221 255
194 221 255
194 221 255
194 221 255
194 221 255
194 221 255
194 221 255
194 221 255
194 221 255
194 221 255
194 221 255
194 221 255
194 221 255
194 221 255
194 221 255
194 221 255
194 221 255
194 221 255
194 221 255
194 221 255
194 221 255
194 221 255
194 221 255
194 221 255
194 221 255
194 221 255
194 221 255
194 221 255
194 221 255
194 221 255
194 221 255
195 221 255
195 221 255
195 221 255
195 221 255
195 221 255
195 221 255
195 221 255
195 221 255
195 221 255
195 221 255
195 221 255
195 221 255
195 221 255
195 221 255
195 221 255
195 221 255
195 221 255
195 221 255
195 221 255
195 221 255
195 221 255
196 221 255
196 221 255
196 222 255
196 222 255
196 222 255
196 222 255
196 222 255
196 222 255
196 222 255
196 222 255
196 222 255
196 222 255
196 222 255
196 222 255
196 222 255
196 222 255
196 222 255
197 222 255
197 222 255
197 222 255
197 222 255
197 222 255
197 222 255
197 222 255
197 222 255
197 222 255
197 222 255
197 222 255
197 222 255
197 222 255
197 222 255
197 223 255
198 223 255
198 223 255
198 223 255
198 223 255
198 223 255
198 223 255
198 223 255
198 223 255
198 223 255
198 223 255
198 223 255
198 223 255
198 223 255
198 223 255
199 223 255
199 223 255
199 223 255
199 223 255
199 223 255
199 223 255
199 223 255
199 223 255
199 223 255
199 223 255
199 223 255
199 223 255
199 224 255
199 224 255
200 224 255
200 224 255
200 224 255
200 224 255
200 224 255
200 224 255
200 224 255
200 224 255
200 224 255
200 224 255
200 224 255
200 224 255
200 224 255
200 224 255
200 224 255
201 224 255
201 224 255
201 224 255
201 224 255
201 224 255
201 224 255
201 224 255
201 224 255
201 224 255
201 224 255
201 225 255
201 225 255
201 225 255
201 225 255
201 225 255
202 225 255
202 225 255
202 225 255
202 225 255
202 225 255
202 225 255
202 225 255
202 225 255
202 225 255
202 225 255
202 225 255
202 225 255
202 225 255
202 225 255
202 225 255
203 225 255
203 225 255
203 225 255
203 225 255
203 225 255
203 225 255
203 225 255
203 225 255
203 225 255
203 226 255
203 226 255
203 226 255
203 226 255
203 226 255
203 226 255
203 226 255
203 226 255
204 226 255
204 226 255
204 226 255
204 226 255
204 226 255
204 226 255
204 226 255
204 226 255
204 226 255
204 226 255
204 226 255
204 226 255
204 226 255
204 226 255
204 226 255
204 226 255
204 226 255
204 226 255
205 226 255
205 226 255
205 226 255
205 226 255
205 226 255
205 226 255
205 226 255
205 226 255
205 226 255
205 226 255
205 226 255
204 226 255
204 226 255
204 226 255
204 226 255
204 226 255
204 226 255
204 226 255
204 226 255
204 226 255
204 226 255
204 226 255
204 226 255
204 226 255
204 226 255
204 226 255
204 226 255
204 226 255
203 226 255
203 226 255
203 226 255
203 226 255
203 226 255
203 226 255
203 226 255
203 226 255
203 225 255
203 225 255
203 225 255
203 225 255
203 225 255
203 225 255
203 225 255
203 225 255
203 225 255
202 225 255
202 225 255
202 225 255
202 225 255
202 225 255
202 225 255
202 225 255
202 225 255
202 225 255
202 225 255
202 225 255
202 225 255
202 225 255
202 225 255
202 225 255
201 225 255
201 225 255
201 225 255
201 225 255
201 225 255
201 224 255
201 224 255
201 224 255
201 224 255
201 224 255
201 224 255
201 224 255
201 224 255
201 224 255
201 224 255
200 224 255
200 224 255
200 224 255
200 224 255
200 224 255
200 224 255
200 224 255
200 224 255
200 224 255
200 224 255
200 224 255
200 224 255
200 224 255
200 224 255
200 224 255
199 224 255
199 224 255
199 223 255
199 223 255
199 223 255
199 223 255
199 223 255
199 223 255
199 223 255
199 223 255
199 223 255
199 223 255
199 223 255
199 223 255
198 223 255
198 223 255
198 223 255
198 223 255
198 223 255
198 223 255
198 223 255
198 223 255
198 223 255
198 223 255
198 223 255
198 223 255
198 223 255
198 223 255
197 223 255
197 222 255
197 222 255
197 222 255
197 222 255
197 222 255
197 222 255
197 222 255
197 222 255
197 222 255
197 222 255
197 222 255
197 222 255
197 222 255
197 222 255
197 222 255
196 222 255
196 222 255
196 222 255
196 222 255
196 222 255
196 222 255
196 222 255
196 222 255
196 222 255
196 222 255
196 222 255
196 222 255
196 222 255
196 222 255
196 222 255
196 221 255
196 221 255
195 221 255
195 221 255
195 221 255
195 221 255
195 221 255
195 221 255
195 221 255
195 221 255
195 221 255
195 221 255
195 221 255
195 221 255
195 221 255
195 221 255
195 221 255
195 221 255
195 221 255
195 221 255
195 221 255
195 221 255
195 221 255
195 221 255
194 221 255
194 221 255
194 221 255
194 221 255
194 221 255
194 221 255
194 221 255
194 221 255
194 221 255
194 221 255
194 221 255
194 221 255
194 221 255
194 221 255
194 221 255
194 221 255
194 221 255
194 221 255
194 221 255
194 221 255
194 221 255
194 221 255
194 221 255
194 221 255
194 221 255
194 221 255
194 221 255
194 221 255
194 221 255
194 221 255
194 221 255
194 221 255
194 221 255
194 221 255
194 221 255
194 221 255
194 221 255
194 221 255
194 221 255
194 221 255
194 221 255
194 221 255
194 221 255
194 221 255
194 221 255
194 221 255
194 221 255
194 221 255
194 221 255
194 221 255
194 221 255
194 221 255
194 221 255
194 221 255
194 221 255
194 221 255
194 221 255
194 221 255
194 221 255
194 221 255
194 221 255
194 221 255
195 221 255
195 221 255
195 221 255
195 221 255
195 221 255
195 221 255
195 221 255
195 221 255
195 221 255
195 221 255
195 221 255
195 221 255
195 221 255
195 221 255
195 221 255
195 221 255
195 221 255
195 221 255
195 221 255
195 221 255
195 221 255
195 221 255
196 221 255
196 221 255
196 222 255
196 222 255
196 222 255
196 222 255
196 222 255
196 222 255
196 222 255
196 222 255
196 222 255
196 222 255
196 222 255
196 222 255
196 222 255
196 222 255
196 222 255
197 222 255
197 222 255
197 222 255
197 222 255
197 222 255
197 222 255
197 222 255
197 222 255
197 222 255
197 222 255
197 222 255
197 222 255
197 222 255
197 222 255
197 222 255
197 223 255
198 223 255
198 223 255
198 223 255
198 223 255
198 223 255
198 223 255
198 223 255
198 223 255
198 223 255
198 223 255
198 223 255
198 223 255
198 223 255
198 223 255
199 223 255
199 223 255
199 223 255
199 223 255
199 223 255
199 223 255
199 223 255
199 223 255
199 223 255
199 223 255
199 223 255
199 223 255
199 224 255
199 224 255
200 224 255
200 224 255
200 224 255
200 224 255
200 224 255
200 224 255
200 224 255
200 224 255
200 224 255
200 224 255
200 224 255
200 224 255
200 224 255
200 224 255
200 224 255
201 224 255
201 224 255
201 224 255
201 224 255
201 224 255
201 224 255
201 224 255
201 224 255
201 224 255
201 224 255
201 225 255
201 225 255
201 225 255
201 225 255
201 225 255
202 225 255
202 225 255
202 225 255
202 225 255
202 225 255
202 225 255
202 225 255
202 225 255
202 225 255
202 225 255
202 225 255
202 225 255
202 225 255
202 225 255
202 225 255
203 225 255
203 225 255
203 225 255
203 225 255
203 225 255
203 225 255
203 225 255
203 225 255
203 225 255
203 226 255
203 226 255
203 226 255
203 226 255
203 226 255
203 226 255
203 226 255
204 226 255
204 226 255
204 226 255
204 226 255
204 226 255
204 226 255
204 226 255
204 226 255
204 226 255
204 226 255
204 226 255
204 226 255
204 226 255
204 226 255
204 226 255
204 226 255
204 226 255
204 226 255
205 226 255
205 226 255
205 226 255
205 226 255
205 226 255
205 226 255
205 226 255
205 227 255
205 227 255
205 226 255
205 226 255
205 226 255
205 226 255
205 226 255
205 226 255
205 226 255
204 226 255
204 226 255
204 226 255
204 226 255
204 226 255
204 226 255
204 226 255
204 226 255
204 226 255
204 226 255
204 226 255
204 226 255
204 226 255
204 226 255
204 226 255
204 226 255
204 226 255
204 226 255
203 226 255
203 226 255
203 226 255
203 226 255
203 226 255
203 226 255
203 226 255
203 225 255
203 225 255
203 225 255
203 225 255
203 225 255
203 225 255
203 225 255
203 225 255
203 225 255
202 225 255
202 225 255
202 225 255
202 225 255
202 225 255
202 225 255
202 225 255
202 225 255
202 225 255
202 225 255
202 225 255
202 225 255
202 225 255
202 225 255
202 225 255
202 225 255
201 225 255
201 225 255
201 225 255
201 225 255
201 224 255
201 224 255
201 224 255
201 224 255
201 224 255
201 224 255
201 224 255
201 224 255
201 224 255
201 224 255
200 224 255
200 224 255
200 224 255
200 224 255
200 224 255
200 224 255
200 224 255
200 224 255
200 224 255
200 224 255
200 224 255
200 224 255
200 224 255
200 224 255
200 224 255
199 224 255
199 224 255
199 223 255
199 223 255
199 223 255
199 223 255
199 223 255
199 223 255
199 223 255
199 223 255
199 223 255
199 223 255
199 223 255
199 223 255
198 223 255
198 223 255
198 223 255
198 223 255
198 223 255
198 223 255
198 223 255
198 223 255
198 223 255
198 223 255
198 223 255
198 223 255
198 223 255
198 223 255
198 223 255
197 222 255
197 222 255
197 222 255
197 222 255
197 222 255
197 222 255
197 222 255
197 222 255
197 222 255
197 222 255
197 222 255
197 222 255
197 222 255
197 222 255
197 222 255
196 222 255
196 222 255
196 222 255
196 222 255
196 222 255
196 222 255
196 222 255
196 222 255
196 222 255
196 222 255
196 222 255
196 222 255
196 222 255
196 222 255
196 222 255
196 222 255
196 221 255
196 221 255
195 221 255
195 221 255
195 221 255
195 221 255
195 221 255
195 221 255
195 221 255
195 221 255
195 221 255
195 221 255
195 221 255
195 221 255
195 221 255
195 221 255
195 221 255
195 221 255
195 221 255
195 221 255
195 221 255
195 221 255
195 221 255
195 221 255
195 221 255
194 221 255
194 221 255
194 221 255
194 221 255
194 221 255
194 221 255
194 221 255
194 221 255
194 221 255
194 221 255
194 221 255
194 221 255
194 221 255
194 221 255
194 221 255
194 221 255
194 221 255
194 221 255
194 221 255
194 221 255
194 221 255
194 221 255
194 221 255
194 221 255
194 221 255
194 221 255
194 221 255
194 221 255
194 221 255
194 221 255
194 221 255
194 221 255
194 221 255
194 221 255
194 221 255
194 221 255
194 221 255
194 221 255
194 221 255
194 221 255
194 221 255
194 221 255
194 221 255
194 221 255
194 221 255
194 221 255
194 221 255
194 221 255
194 221 255
194 221 255
194 221 255
194 221 255
194 221 255
194 221 255
195 221 255
195 221 255
195 221 255
195 221 255
195 221 255
195 221 255
195 221 255
195 221 255
195 221 255
195 221 255
195 221 255
195 221 255
195 221 255
195 221 255
195 221 255
195 221 255
195 221 255
195 221 255
195 221 255
195 221 255
195 221 255
195 221 255
195 221 255
195 221 255
196 221 255
196 222 255
196 222 255
196 222 255
196 222 255
196 222 255
196 222 255
196 222 255
196 222 255
196 222 255
196 222 255
196 222 255
196 222 255
196 222 255
196 222 255
196 222 255
196 222 255
197 222 255
197 222 255
197 222 255
197 222 255
197 222 255
197 222 255
197 222 255
197 222 255
197 222 255
197 222 255
197 222 255
197 222 255
197 222 255
197 222 255
197 222 255
198 223 255
198 223 255
198 223 255
198 223 255
198 223 255
198 223 255
198 223 255
198 223 255
198 223 255
198 223 255
198 223 255
198 223 255
198 223 255
198 223 255
198 223 255
199 223 255
199 223 255
199 223 255
199 223 255
199 223 255
199 223 255
199 223 255
199 223 255
199 223 255
199 223 255
199 223 255
199 223 255
199 224 255
199 224 255
200 224 255
200 224 255
200 224 255
200 224 255
200 224 255
200 224 255
200 224 255
200 224 255
200 224 255
200 224 255
200 224 255
200 224 255
200 224 255
200 224 255
200 224 255
201 224 255
201 224 255
201 224 255
201 224 255
201 224 255
201 224 255
201 224 255
201 224 255
201 224 255
201 224 255
201 225 255
201 225 255
201 225 255
201 225 255
202 225 255
202 225 255
202 225 255
202 225 255
202 225 255
202 225 255
202 225 255
202 225 255
202 225 255
202 225 255
202 225 255
202 225 255
202 225 255
202 225 255
202 225 255
202 225 255
203 225 255
203 225 255
203 225 255
203 225 255
203 225 255
203 225 255
203 225 255
203 225 255
203 225 255
203 226 255
203 226 255
203 226 255
203 226 255
203 226 255
203 226 255
203 226 255
204 226 255
204 226 255
204 226 255
204 226 255
204 226 255
204 226 255
204 226 255
204 226 255
204 226 255
204 226 255
204 226 255
204 226 255
204 226 255
204 226 255
204 226 255
204 226 255
204 226 255
204 226 255
205 226 255
205 226 255
205 226 255
205 226 255
205 226 255
205 226 255
205 226 255
205 227 255
205 227 255
205 227 255
205 227 255
205 227 255
205 227 255
205 226 255
205 226 255
205 226 255
205 226 255
205 226 255
205 226 255
205 226 255
205 226 255
204 226 255
204 226 255
204 226 255
204 226 255
204 226 255
204 226 255
204 226 255
204 226 255
204 226 255
204 226 255
204 226 255
204 226 255
204 226 255
204 226 255
204 226 255
204 226 255
204 226 255
203 226 255
203 226 255
203 226 255
203 226 255
203 226 255
203 226 255
203 226 255
203 225 255
203 225 255
203 225 255
203 225 255
203 225 255
203 225 255
203 225 255
203 225 255
203 225 255
202 225 255
202 225 255
202 225 255
202 225 255
202 225 255
202 225 255
202 225 255
202 225 255
202 225 255
202 225 255
202 225 255
202 225 255
202 225 255
202 225 255
202 225 255
202 225 255
201 225 255
201 225 255
201 225 255
201 225 255
201 224 255
201 224 255
201 224 255
201 224 255
201 224 255
201 224 255
201 224 255
201 224 255
201 224 255
201 224 255
201 224 255
200 224 255
200 224 255
200 224 255
200 224 255
200 224 255
200 224 255
200 224 255
200 224 255
200 224 255
200 224 255
200 224 255
200 224 255
200 224 255
200 224 255
199 224 255
199 224 255
199 223 255
199 223 255
199 223 255
199 223 255
199 223 255
199 223 255
199 223 255
199 223 255
199 223 255
199 223 255
199 223 255
199 223 255
198 223 255
198 223 255
198 223 255
198 223 255
198 223 255
198 223 255
198 223 255
198 223 255
198 223 255
198 223 255
198 223 255
198 223 255
198 223 255
198 223 255
198 223 255
197 222 255
197 222 255
197 222 255
197 222 255
197 222 255
197 222 255
197 222 255
197 222 255
197 222 255
197 222 255
197 222 255
197 222 255
197 222 255
197 222 255
197 222 255
196 222 255
196 222 255
196 222 255
196 222 255
196 222 255
196 222 255
196 222 255
196 222 255
196 222 255
196 222 255
196 222 255
196 222 255
196 222 255
196 222 255
196 222 255
196 222 255
196 222 255
196 221 255
195 221 255
195 221 255
195 221 255
195 221 255
195 221 255
195 221 255
195 221 255
195 221 255
195 221 255
195 221 255
195 221 255
195 221 255
195 221 255
195 221 255
195 221 255
195 221 255
195 221 255
195 221 255
195 221 255
195 221 255
195 221 255
195 221 255
195 221 255
195 221 255
195 221 255
195 221 255
194 221 255
194 221 255
194 221 255
194 221 255
194 221 255
194 221 255
194 221 255
194 221 255
194 221 255
194 221 255
194 221 255
194 221 255
194 221 255
194 221 255
194 221 255
194 221 255
194 221 255
194 221 255
194 221 255
194 221 255
194 221 255
194 221 255
194 221 255
194 221 255
194 221 255
194 221 255
194 221 255
194 221 255
194 221 255
194 221 255
194 221 255
194 221 255
194 221 255
194 221 255
194 221 255
194 221 255
194 221 255
194 221 255
194 221 255
194 221 255
194 221 255
194 221 255
194 221 255
194 221 255
195 221 255
195 221 255
195 221 255
195 221 255
195 221 255
195 221 255
195 221 255
195 221 255
195 221 255
195 221 255
195 221 255
195 221 255
195 221 255
195 221 255
195 221 255
195 221 255
195 221 255
195 221 255
195 221 255
195 221 255
195 221 255
195 221 255
195 221 255
195 221 255
195 221 255
195 221 255
196 221 255
196 222 255
196 222 255
196 222 255
196 222 255
196 222 255
196 222 255
196 222 255
196 222 255
196 222 255
196 222 255
196 222 255
196 222 255
196 222 255
196 222 255
196 222 255
196 222 255
196 222 255
197 222 255
197 222 255
197 222 255
197 222 255
197 222 255
197 222 255
197 222 255
197 222 255
197 222 255
197 222 255
197 222 255
197 222 255
197 222 255
197 222 255
197 222 255
198 223 255
198 223 255
198 223 255
198 223 255
198 223 255
198 223 255
198 223 255
198 223 255
198 223 255
198 223 255
198 223 255
198 223 255
198 223 255
198 223 255
198 223 255
199 223 255
199 223 255
199 223 255
199 223 255
199 223 255
199 223 255
199 223 255
199 223 255
199 223 255
199 223 255
199 223 255
199 223 255
199 224 255
199 224 255
200 224 255
200 224 255
200 224 255
200 224 255
200 224 255
200 224 255
200 224 255
200 224 255
200 224 255
200 224 255
200 224 255
200 224 255
200 224 255
200 224 255
201 224 255
201 224 255
201 224 255
201 224 255
201 224 255
201 224 255
201 224 255
201 224 255
201 224 255
201 224 255
201 224 255
201 225 255
201 225 255
201 225 255
201 225 255
202 225 255
202 225 255
202 225 255
202 225 255
202 225 255
202 225 255
202 225 255
202 225 255
202 225 255
202 225 255
202 225 255
202 225 255
202 225 255
202 225 255
202 225 255
202 225 255
203 225 255
203 225 255
203 225 255
203 225 255
203 225 255
203 225 255
203 225 255
203 225 255
203 225 255
203 226 255
203 226 255
203 226 255
203 226 255
203 226 255
203 226 255
203 226 255
204 226 255
204 226 255
204 226 255
204 226 255
204 226 255
204 226 255
204 226 255
204 226 255
204 226 255
204 226 255
204 226 255
204 226 255
204 226 255
204 226 255
204 226 255
204 226 255
204 226 255
205 226 255
205 226 255
205 226 255
205 226 255
205 226 255
205 226 255
205 226 255
205 226 255
205 227 255
205 227 255
205 227 255
205 227 255
205 227 255
205 227 255
205 227 255
205 227 255
205 227 255
205 227 255
205 227 255
205 226 255
205 226 255
205 226 255
205 226 255
205 226 255
205 226 255
205 226 255
204 226 255
204 226 255
204 226 255
204 226 255
204 226 255
204 226 255
204 226 255
204 226 255
204 226 255
204 226 255
204 226 255
204 226 255
204 226 255
204 226 255
204 226 255
204 226 255
204 226 255
204 226 255
203 226 255
203 226 255
203 226 255
203 226 255
203 226 255
203 226 255
203 226 255
203 225 255
203 225 255
203 225 255
203 225 255
203 225 255
203 225 255
203 225 255
203 225 255
203 225 255
202 225 255
202 225 255
202 225 255
202 225 255
202 225 255
202 225 255
202 225 255
202 225 255
202 225 255
202 225 255
202 225 255
202 225 255
202 225 255
202 225 255
202 225 255
201 225 255
201 225 255
201 225 255
201 225 255
201 224 255
201 224 255
201 224 255
201 224 255
201 224 255
201 224 255
201 224 255
201 224 255
201 224 255
201 224 255
201 224 255
200 224 255
200 224 255
200 224 255
200 224 255
200 224 255
200 224 255
200 224 255
200 224 255
200 224 255
200 224 255
200 224 255
200 224 255
200 224 255
200 224 255
199 224 255
199 224 255
199 223 255
199 223 255
199 223 255
199 223 255
199 223 255
199 223 255
199 223 255
199 223 255
199 223 255
199 223 255
199 223 255
199 223 255
198 223 255
198 223 255
198 223 255
198 223 255
198 223 255
198 223 255
198 223 255
198 223 255
198 223 255
198 223 255
198 223 255
198 223 255
198 223 255
198 223 255
198 223 255
197 223 255
197 222 255
197 222 255
197 222 255
197 222 255
197 222 255
197 222 255
197 222 255
197 222 255
197 222 255
197 222 255
197 222 255
197 222 255
197 222 255
197 222 255
197 222 255
196 222 255
196 222 255
196 222 255
196 222 255
196 222 255
196 222 255
196 222 255
196 222 255
196 222 255
196 222 255
196 222 255
196 222 255
196 222 255
196 222 255
196 222 255
196 222 255
196 222 255
196 221 255
195 221 255
195 221 255
195 221 255
195 221 255
195 221 255
195 221 255
195 221 255
195 221 255
195 221 255
195 221 255
195 221 255
195 221 255
195 221 255
195 221 255
195 221 255
195 221 255
195 221 255
195 221 255
195 221 255
195 221 255
195 221 255
195 221 255
195 221 255
195 221 255
195 221 255
195 221 255
195 221 255
195 221 255
195 221 255
195 221 255
194 221 255
194 221 255
194 221 255
194 221 255
194 221 255
194 221 255
194 221 255
194 221 255
194 221 255
194 221 255
194 221 255
194 221 255
194 221 255
194 221 255
194 221 255
194 221 255
194 221 255
194 221 255
194 221 255
194 221 255
194 221 255
194 221 255
194 221 255
194 221 255
194 221 255
194 221 255
194 221 255
194 221 255
194 221 255
194 221 255
195 221 255
195 221 255
195 221 255
195 221 255
195 221 255
195 221 255
195 221 255
195 221 255
195 221 255
195 221 255
195 221 255
195 221 255
195 221 255
195 221 255
195 221 255
195 221 255
195 221 255
195 221 255
195 221 255
195 221 255
195 221 255
195 221 255
195 221 255
195 221 255
195 221 255
195 221 255
195 221 255
195 221 255
195 221 255
195 221 255
196 221 255
196 222 255
196 222 255
196 222 255
196 222 255
196 222 255
196 222 255
196 222 255
196 222 255
196 222 255
196 222 255
196 222 255
196 222 255
196 222 255
196 222 255
196 222 255
196 222 255
196 222 255
197 222 255
197 222 255
197 222 255
197 222 255
197 222 255
197 222 255
197 222 255
197 222 255
197 222 255
197 222 255
197 222 255
197 222 255
197 222 255
197 222 255
197 222 255
197 223 255
198 223 255
198 223 255
198 223 255
198 223 255
198 223 255
198 223 255
198 223 255
198 223 255
198 223 255
198 223 255
198 223 255
198 223 255
198 223 255
198 223 255
198 223 255
199 223 255
199 223 255
199 223 255
199 223 255
199 223 255
199 223 255
199 223 255
199 223 255
199 223 255
199 223 255
199 223 255
199 223 255
199 224 255
199 224 255
200 224 255
200 224 255
200 224 255
200 224 255
200 224 255
200 224 255
200 224 255
200 224 255
200 224 255
200 224 255
200 224 255
200 224 255
200 224 255
200 224 255
201 224 255
201 224 255
201 224 255
201 224 255
201 224 255
201 224 255
201 224 255
201 224 255
201 224 255
201 224 255
201 224 255
201 225 255
201 225 255
201 225 255
201 225 255
202 225 255
202 225 255
202 225 255
202 225 255
202 225 255
202 225 255
202 225 255
202 225 255
202 225 255
202 225 255
202 225 255
202 225 255
202 225 255
202 225 255
202 225 255
203 225 255
203 225 255
203 225 255
203 225 255
203 225 255
203 225 255
203 225 255
203 225 255
203 225 255
203 226 255
203 226 255
203 226 255
203 226 255
203 226 255
203 226 255
203 226 255
203 226 255
204 226 255
204 226 255
204 226 255
204 226 255
204 226 255
204 226 255
204 226 255
204 226 255
204 226 255
204 226 255
204 226 255
204 226 255
204 226 255
204 226 255
204 226 255
204 226 255
204 226 255
205 226 255
205 226 255
205 226 255
205 226 255
205 226 255
205 226 255
205 226 255
205 227 255
205 227 255
205 227 255
205 227 255
205 227 255
205 227 255
205 227 255
205 227 255
205 227 255
205 227 255
205 227 255
205 227 255
205 227 255
205 227 255
205 227 255
205 227 255
205 226 255
205 226 255
205 226 255
205 226 255
205 226 255
205 226 255
205 226 255
204 226 255
204 226 255
204 226 255
204 226 255
204 226 255
204 226 255
204 226 255
204 226 255
204 226 255
204 226 255
204 226 255
204 226 255
204 226 255
204 226 255
204 226 255
204 226 255
204 226 255
204 226 255
203 226 255
203 226 255
203 226 255
203 226 255
203 226 255
203 226 255
203 226 255
203 225 255
203 225 255
203 225 255
203 225 255
203 225 255
203 225 255
203 225 255
203 225 255
203 225 255
202 225 255
202 225 255
202 225 255
202 225 255
202 225 255
202 225 255
202 225 255
202 225 255
202 225 255
202 225 255
202 225 255
202 225 255
202 225 255
202 225 255
202 225 255
201 225 255
201 225 255
201 225 255
201 225 255
201 225 255
201 224 255
201 224 255
201 224 255
201 224 255
201 224 255
201 224 255
201 224 255
201 224 255
201 224 255
201 224 255
200 224 255
200 224 255
200 224 255
200 224 255
200 224 255
200 224 255
200 224 255
200 224 255
200 224 255
200 224 255
200 224 255
200 224 255
200 224 255
200 224 255
199 224 255
199 224 255
199 223 255
199 223 255
199 223 255
199 223 255
199 223 255
199 223 255
199 223 255
199 223 255
199 223 255
199 223 255
199 223 255
199 223 255
199 223 255
198 223 255
198 223 255
198 223 255
198 223 255
198 223 255
198 223 255
198 223 255
198 223 255
198 223 255
198 223 255
198 223 255
198 223 255
198 223 255
198 223 255
197 223 255
197 222 255
197 222 255
197 222 255
197 222 255
197 222 255
197 222 255
197 222 255
197 222 255
197 222 255
197 222 255
197 222 255
197 222 255
197 222 255
197 222 255
197 222 255
196 222 255
196 222 255
196 222 255
196 222 255
196 222 255
196 222 255
196 222 255
196 222 255
196 222 255
196 222 255
196 222 255
196 222 255
196 222 255
196 222 255
196 222 255
196 222 255
196 222 255
196 222 255
196 221 255
196 221 255
195 221 255
195 221 255
195 221 255
195 221 255
195 221 255
195 221 255
195 221 255
195 221 255
195 221 255
195 221 255
195 221 255
195 221 255
195 221 255
195 221 255
195 221 255
195 221 255
195 221 255
195 221 255
195 221 255
195 221 255
195 221 255
195 221 255
195 221 255
195 221 255
195 221 255
195 221 255
195 221 255
195 221 255
195 221 255
195 221 255
195 221 255
195 221 255
195 221 255
195 221 255
195 221 255
195 221 255
195 221 255
195 221 255
195 221 255
195 221 255
195 221 255
195 221 255
195 221 255
195 221 255
195 221 255
195 221 255
195 221 255
195 221 255
195 221 255
195 221 255
195 221 255
195 221 255
195 221 255
195 221 255
195 221 255
195 221 255
195 221 255
195 221 255
195 221 255
195 221 255
195 221 255
195 221 255
195 221 255
195 221 255
195 221 255
195 221 255
195 221 255
195 221 255
195 221 255
195 221 255
195 221 255
195 221 255
195 221 255
195 221 255
195 221 255
195 221 255
195 221 255
195 221 255
195 221 255
195 221 255
195 221 255
195 221 255
196 221 255
196 221 255
196 222 255
196 222 255
196 222 255
196 222 255
196 222 255
196 222 255
196 222 255
196 222 255
196 222 255
196 222 255
196 222 255
196 222 255
196 222 255
196 222 255
196 222 255
196 222 255
196 222 255
196 222 255
197 222 255
197 222 255
197 222 255
197 222 255
197 222 255
197 222 255
197 222 255
197 222 255
197 222 255
197 222 255
197 222 255
197 222 255
197 222 255
197 222 255
197 222 255
197 223 255
198 223 255
198 223 255
198 223 255
198 223 255
198 223 255
198 223 255
198 223 255
198 223 255
198 223 255
198 223 255
198 223 255
198 223 255
198 223 255
198 223 255
199 223 255
199 223 255
199 223 255
199 223 255
199 223 255
199 223 255
199 223 255
199 223 255
199 223 255
199 223 255
199 223 255
199 223 255
199 224 255
199 224 255
199 224 255
200 224 255
200 224 255
200 224 255
200 224 255
200 224 255
200 224 255
200 224 255
200 224 255
200 224 255
200 224 255
200 224 255
200 224 255
200 224 255
200 224 255
201 224 255
201 224 255
201 224 255
201 224 255
201 224 255
201 224 255
201 224 255
201 224 255
201 224 255
201 224 255
201 225 255
201 225 255
201 225 255
201 225 255
201 225 255
202 225 255
202 225 255
202 225 255
202 225 255
202 225 255
202 225 255
202 225 255
202 225 255
202 225 255
202 225 255
202 225 255
202 225 255
202 225 255
202 225 255
202 225 255
203 225 255
203 225 255
203 225 255
203 225 255
203 225 255
203 225 255
203 225 255
203 225 255
203 225 255
203 226 255
203 226 255
203 226 255
203 226 255
203 226 255
203 226 255
203 226 255
204 226 255
204 226 255
204 226 255
204 226 255
204 226 255
204 226 255
204 226 255
204 226 255
204 226 255
204 226 255
204 226 255
204 226 255
204 226 255
204 226 255
204 226 255
204 226 255
204 226 255
205 226 255
205 226 255
205 226 255
205 226 255
205 226 255
205 226 255
205 226 255
205 226 255
205 227 255
205 227 255
205 227 255
205 227 255
205 227 255
205 227 255
205 227 255
205 227 255
205 227 255
205 227 255
205 227 255
205 227 255
205 227 255
205 227 255
205 227 255
205 227 255
205 227 255
205 227 255
205 227 255
205 227 255
205 227 255
205 226 255
205 226 255
205 226 255
205 226 255
205 226 255
205 226 255
205 226 255
204 226 255
204 226 255
204 226 255
204 226 255
204 226 255
204 226 255
204 226 255
204 226 255
204 226 255
204 226 255
204 226 255
204 226 255
204 226 255
204 226 255
204 226 255
204 226 255
204 226 255
203 226 255
203 226 255
203 226 255
203 226 255
203 226 255
203 226 255
203 226 255
203 225 255
203 225 255
203 225 255
203 225 255
203 225 255
203 225 255
203 225 255
203 225 255
203 225 255
202 225 255
202 225 255
202 225 255
202 225 255
202 225 255
202 225 255
202 225 255
202 225 255
202 225 255
202 225 255
202 225 255
202 225 255
202 225 255
202 225 255
202 225 255
201 225 255
201 225 255
201 225 255
201 225 255
201 225 255
201 224 255
201 224 255
201 224 255
201 224 255
201 224 255
201 224 255
201 224 255
201 224 255
201 224 255
201 224 255
200 224 255
200 224 255
200 224 255
200 224 255
200 224 255
200 224 255
200 224 255
200 224 255
200 224 255
200 224 255
200 224 255
200 224 255
200 224 255
200 224 255
199 224 255
199 224 255
199 224 255
199 223 255
199 223 255
199 223 255
199 223 255
199 223 255
199 223 255
199 223 255
199 223 255
199 223 255
199 223 255
199 223 255
199 223 255
198 223 255
198 223 255
198 223 255
198 223 255
198 223 255
198 223 255
198 223 255
198 223 255
198 223 255
198 223 255
198 223 255
198 223 255
198 223 255
198 223 255
198 223 255
197 222 255
197 222 255
197 222 255
197 222 255
197 222 255
197 222 255
197 222 255
197 222 255
197 222 255
197 222 255
197 222 255
197 222 255
197 222 255
197 222 255
197 222 255
197 222 255
196 222 255
196 222 255
196 222 255
196 222 255
196 222 255
196 222 255
196 222 255
196 222 255
196 222 255
196 222 255
196 222 255
196 222 255
196 222 255
196 222 255
196 222 255
196 222 255
196 222 255
196 222 255
196 221 255
196 221 255
195 221 255
195 221 255
195 221 255
195 221 255
195 221 255
195 221 255
195 221 255
195 221 255
195 221 255
195 221 255
195 221 255
195 221 255
195 221 255
195 221 255
195 221 255
195 221 255
195 221 255
195 221 255
195 221 255
195 221 255
195 221 255
195 221 255
195 221 255
195 221 255
195 221 255
195 221 255
195 221 255
195 221 255
195 221 255
195 221 255
195 221 255
195 221 255
195 221 255
195 221 255
195 221 255
195 221 255
195 221 255
195 221 255
195 221 255
195 221 255
195 221 255
195 221 255
195 221 255
195 221 255
195 221 255
195 221 255
195 221 255
195 221 255
195 221 255
195 221 255
195 221 255
195 221 255
195 221 255
195 221 255
195 221 255
195 221 255
195 221 255
195 221 255
195 221 255
195 221 255
195 221 255
195 221 255
195 221 255
195 221 255
195 221 255
195 221 255
195 221 255
195 221 255
195 221 255
195 221 255
195 221 255
195 221 255
195 221 255
195 221 255
195 221 255
195 221 255
196 221 255
196 221 255
196 222 255
196 222 255
196 222 255
196 222 255
196 222 255
196 222 255
196 222 255
196 222 255
196 222 255
196 222 255
196 222 255
196 222 255
196 222 255
196 222 255
196 222 255
196 222 255
196 222 255
196 222 255
197 222 255
197 222 255
197 222 255
197 222 255
197 222 255
197 222 255
197 222 255
197 222 255
197 222 255
197 222 255
197 222 255
197 222 255
197 222 255
197 222 255
197 222 255
197 222 255
198 223 255
198 223 255
198 223 255
198 223 255
198 223 255
198 223 255
198 223 255
198 223 255
198 223 255
198 223 255
198 223 255
198 223 255
198 223 255
198 223 255
198 223 255
199 223 255
199 223 255
199 223 255
199 223 255
199 223 255
199 223 255
199 223 255
199 223 255
199 223 255
199 223 255
199 223 255
199 223 255
199 224 255
199 224 255
199 224 255
200 224 255
200 224 255
200 224 255
200 224 255
200 224 255
200 224 255
200 224 255
200 224 255
200 224 255
200 224 255
200 224 255
200 224 255
200 224 255
200 224 255
201 224 255
201 224 255
201 224 255
201 224 255
201 224 255
201 224 255
201 224 255
201 224 255
201 224 255
201 224 255
201 225 255
201 225 255
201 225 255
201 225 255
201 225 255
202 225 255
202 225 255
202 225 255
202 225 255
202 225 255
202 225 255
202 225 255
202 225 255
202 225 255
202 225 255
202 225 255
202 225 255
202 225 255
202 225 255
202 225 255
203 225 255
203 225 255
203 225 255
203 225 255
203 225 255
203 225 255
203 225 255
203 225 255
203 225 255
203 226 255
203 226 255
203 226 255
203 226 255
203 226 255
203 226 255
203 226 255
204 226 255
204 226 255
204 226 255
204 226 255
204 226 255
204 226 255
204 226 255
204 226 255
204 226 255
204 226 255
204 226 255
204 226 255
204 226 255
204 226 255
204 226 255
204 226 255
204 226 255
205 226 255
205 226 255
205 226 255
205 226 255
205 226 255
205 226 255
205 226 255
205 226 255
205 227 255
205 227 255
205 227 255
205 227 255
205 227 255
205 227 255
205 227 255
205 227 255
205 227 255
205 227 255
205 227 255
206 227 255
206 227 255
206 227 255
205 227 255
205 227 255
205 227 255
205 227 255
205 227 255
205 227 255
205 227 255
205 227 255
205 227 255
205 227 255
205 227 255
205 226 255
205 226 255
205 226 255
205 226 255
205 226 255
205 226 255
205 226 255
204 226 255
204 226 255
204 226 255
204 226 255
204 226 255
204 226 255
204 226 255
204 226 255
204 226 255
204 226 255
204 226 255
204 226 255
204 226 255
204 226 255
204 226 255
204 226 255
204 226 255
203 226 255
203 226 255
203 226 255
203 226 255
203 226 255
203 226 255
203 226 255
203 226 255
203 225 255
203 225 255
203 225 255
203 225 255
203 225 255
203 225 255
203 225 255
203 225 255
202 225 255
202 225 255
202 225 255
202 225 255
202 225 255
202 225 255
202 225 255
202 225 255
202 225 255
202 225 255
202 225 255
202 225 255
202 225 255
202 225 255
202 225 255
202 225 255
201 225 255
201 225 255
201 225 255
201 225 255
201 224 255
201 224 255
201 224 255
201 224 255
201 224 255
201 224 255
201 224 255
201 224 255
201 224 255
201 224 255
200 224 255
200 224 255
200 224 255
200 224 255
200 224 255
200 224 255
200 224 255
200 224 255
200 224 255
200 224 255
200 224 255
200 224 255
200 224 255
200 224 255
199 224 255
199 224 255
199 224 255
199 223 255
199 223 255
199 223 255
199 223 255
199 223 255
199 223 255
199 223 255
199 223 255
199 223 255
199 223 255
199 223 255
199 223 255
198 223 255
198 223 255
198 223 255
198 223 255
198 223 255
198 223 255
198 223 255
198 223 255
198 223 255
198 223 255
198 223 255
198 223 255
198 223 255
198 223 255
198 223 255
197 223 255
197 222 255
197 222 255
197 222 255
197 222 255
197 222 255
197 222 255
197 222 255
197 222 255
197 222 255
197 222 255
197 222 255
197 222 255
197 222 255
197 222 255
197 222 255
197 222 255
196 222 255
196 222 255
196 222 255
196 222 255
196 222 255
196 222 255
196 222 255
196 222 255
196 222 255
196 222 255
196 222 255
196 222 255
196 222 255
196 222 255
196 222 255
196 222 255
196 222 255
196 222 255
196 222 255
196 221 255
196 221 255
195 221 255
195 221 255
195 221 255
195 221 255
195 221 255
195 221 255
195 221 255
195 221 255
195 221 255
195 221 255
195 221 255
195 221 255
195 221 255
195 221 255
195 221 255
195 221 255
195 221 255
195 221 255
195 221 255
195 221 255
195 221 255
195 221 255
195 221 255
195 221 255
195 221 255
195 221 255
195 221 255
195 221 255
195 221 255
195 221 255
195 221 255
195 221 255
195 221 255
195 221 255
195 221 255
195 221 255
195 221 255
195 221 255
195 221 255
195 221 255
195 221 255
195 221 255
195 221 255
195 221 255
195 221 255
195 221 255
195 221 255
195 221 255
195 221 255
195 221 255
195 221 255
195 221 255
195 221 255
195 221 255
195 221 255
195 221 255
195 221 255
195 221 255
195 221 255
195 221 255
195 221 255
195 221 255
195 221 255
195 221 255
195 221 255
195 221 255
195 221 255
195 221 255
196 221 255
196 221 255
196 222 255
196 222 255
196 222 255
196 222 255
196 222 255
196 222 255
196 222 255
196 222 255
196 222 255
196 222 255
196 222 255
196 222 255
196 222 255
196 222 255
196 222 255
196 222 255
196 222 255
196 222 255
196 222 255
197 222 255
197 222 255
197 222 255
197 222 255
197 222 255
197 222 255
197 222 255
197 222 255
197 222 255
197 222 255
197 222 255
197 222 255
197 222 255
197 222 255
197 222 255
197 222 255
197 223 255
198 223 255
198 223 255
198 223 255
198 223 255
198 223 255
198 223 255
198 223 255
198 223 255
198 223 255
198 223 255
198 223 255
198 223 255
198 223 255
198 223 255
198 223 255
199 223 255
199 223 255
199 223 255
199 223 255
199 223 255
199 223 255
199 223 255
199 223 255
199 223 255
199 223 255
199 223 255
199 223 255
199 224 255
199 224 255
200 224 255
200 224 255
200 224 255
200 224 255
200 224 255
200 224 255
200 224 255
200 224 255
200 224 255
200 224 255
200 224 255
200 224 255
200 224 255
200 224 255
200 224 255
201 224 255
201 224 255
201 224 255
201 224 255
201 224 255
201 224 255
201 224 255
201 224 255
201 224 255
201 224 255
201 225 255
201 225 255
201 225 255
201 225 255
202 225 255
202 225 255
202 225 255
202 225 255
202 225 255
202 225 255
202 225 255
202 225 255
202 225 255
202 225 255
202 225 255
202 225 255
202 225 255
202 225 255
202 225 255
202 225 255
203 225 255
203 225 255
203 225 255
203 225 255
203 225 255
203 225 255
203 225 255
203 225 255
203 226 255
203 226 255
203 226 255
203 226 255
203 226 255
203 226 255
203 226 255
203 226 255
204 226 255
204 226 255
204 226 255
204 226 255
204 226 255
204 226 255
204 226 255
204 226 255
204 226 255
204 226 255
204 226 255
204 226 255
204 226 255
204 226 255
204 226 255
204 226 255
204 226 255
205 226 255
205 226 255
205 226 255
205 226 255
205 226 255
205 226 255
205 226 255
205 227 255
205 227 255
205 227 255
205 227 255
205 227 255
205 227 255
205 227 255
205 227 255
205 227 255
205 227 255
205 227 255
206 227 255
206 227 255
206 227 255
206 227 255
206 227 255
206 227 255
206 227 255
206 227 255
205 227 255
205 227 255
205 227 255
205 227 255
205 227 255
205 227 255
205 227 255
205 227 255
205 227 255
205 227 255
205 227 255
205 227 255
205 226 255
205 226 255
205 226 255
205 226 255
205 226 255
205 226 255
205 226 255
204 226 255
204 226 255
204 226 255
204 226 255
204 226 255
204 226 255
204 226 255
204 226 255
204 226 255
204 226 255
204 226 255
204 226 255
204 226 255
204 226 255
204 226 255
204 226 255
204 226 255
203 226 255
203 226 255
203 226 255
203 226 255
203 226 255
203 226 255
203 226 255
203 225 255
203 225 255
203 225 255
203 225 255
203 225 255
203 225 255
203 225 255
203 225 255
203 225 255
202 225 255
202 225 255
202 225 255
202 225 255
202 225 255
202 225 255
202 225 255
202 225 255
202 225 255
202 225 255
202 225 255
202 225 255
202 225 255
202 225 255
202 225 255
201 225 255
201 225 255
201 225 255
201 225 255
201 224 255
201 224 255
201 224 255
201 224 255
201 224 255
201 224 255
201 224 255
201 224 255
201 224 255
201 224 255
201 224 255
200 224 255
200 224 255
200 224 255
200 224 255
200 224 255
200 224 255
200 224 255
200 224 255
200 224 255
200 224 255
200 224 255
200 224 255
200 224 255
200 224 255
199 224 255
199 224 255
199 223 255
199 223 255
199 223 255
199 223 255
199 223 255
199 223 255
199 223 255
199 223 255
199 223 255
199 223 255
199 223 255
199 223 255
198 223 255
198 223 255
198 223 255
198 223 255
198 223 255
198 223 255
198 223 255
198 223 255
198 223 255
198 223 255
198 223 255
198 223 255
198 223 255
198 223 255
198 223 255
198 223 255
197 222 255
197 222 255
197 222 255
197 222 255
197 222 255
197 222 255
197 222 255
197 222 255
197 222 255
197 222 255
197 222 255
197 222 255
197 222 255
197 222 255
197 222 255
197 222 255
197 222 255
196 222 255
196 222 255
196 222 255
196 222 255
196 222 255
196 222 255
196 222 255
196 222 255
196 222 255
196 222 255
196 222 255
196 222 255
196 222 255
196 222 255
196 222 255
196 222 255
196 222 255
196 222 255
196 222 255
196 222 255
196 221 255
196 221 255
195 221 255
195 221 255
195 221 255
195 221 255
195 221 255
195 221 255
195 221 255
195 221 255
195 221 255
195 221 255
195 221 255
195 221 255
195 221 255
195 221 255
195 221 255
195 221 255
195 221 255
195 221 255
195 221 255
195 221 255
195 221 255
195 221 255
195 221 255
195 221 255
195 221 255
195 221 255
195 221 255
195 221 255
195 221 255
195 221 255
195 221 255
195 221 255
195 221 255
195 221 255
195 221 255
195 221 255
195 221 255
195 221 255
195 221 255
195 221 255
195 221 255
195 221 255
195 221 255
195 221 255
195 221 255
195 221 255
195 221 255
195 221 255
195 221 255
195 221 255
195 221 255
195 221 255
195 221 255
195 221 255
195 221 255
195 221 255
195 221 255
195 221 255
195 221 255
195 221 255
196 221 255
196 221 255
196 222 255
196 222 255
196 222 255
196 222 255
196 222 255
196 222 255
196 222 255
196 222 255
196 222 255
196 222 255
196 222 255
196 222 255
196 222 255
196 222 255
196 222 255
196 222 255
196 222 255
196 222 255
196 222 255
196 222 255
197 222 255
197 222 255
197 222 255
197 222 255
197 222 255
197 222 255
197 222 255
197 222 255
197 222 255
197 222 255
197 222 255
197 222 255
197 222 255
197 222 255
197 222 255
197 222 255
197 222 255
198 223 255
198 223 255
198 223 255
198 223 255
198 223 255
198 223 255
198 223 255
198 223 255
198 223 255
198 223 255
198 223 255
198 223 255
198 223 255
198 223 255
198 223 255
198 223 255
199 223 255
199 223 255
199 223 255
199 223 255
199 223 255
199 223 255
199 223 255
199 223 255
199 223 255
199 223 255
199 223 255
199 223 255
199 224 255
199 224 255
200 224 255
200 224 255
200 224 255
200 224 255
200 224 255
200 224 255
200 224 255
200 224 255
200 224 255
200 224 255
200 224 255
200 224 255
200 224 255
200 224 255
200 224 255
201 224 255
201 224 255
201 224 255
201 224 255
201 224 255
201 224 255
201 224 255
201 224 255
201 224 255
201 224 255
201 225 255
201 225 255
201 225 255
201 225 255
202 225 255
202 225 255
202 225 255
202 225 255
202 225 255
202 225 255
202 225 255
202 225 255
202 225 255
202 225 255
202 225 255
202 225 255
202 225 255
202 225 255
202 225 255
203 225 255
203 225 255
203 225 255
203 225 255
203 225 255
203 225 255
203 225 255
203 225 255
203 225 255
203 226 255
203 226 255
203 226 255
203 226 255
203 226 255
203 226 255
203 226 255
204 226 255
204 226 255
204 226 255
204 226 255
204 226 255
204 226 255
204 226 255
204 226 255
204 226 255
204 226 255
204 226 255
204 226 255
204 226 255
204 226 255
204 226 255
204 226 255
204 226 255
205 226 255
205 226 255
205 226 255
205 226 255
205 226 255
205 226 255
205 226 255
205 226 255
205 227 255
205 227 255
205 227 255
205 227 255
205 227 255
205 227 255
205 227 255
205 227 255
205 227 255
205 227 255
205 227 255
206 227 255
206 227 255
206 227 255
206 227 255
206 227 255
206 227 255
206 227 255
206 227 255
206 227 255
206 227 255
206 227 255
206 227 255
206 227 255
205 227 255
205 227 255
205 227 255
205 227 255
205 227 255
205 227 255
205 227 255
205 227 255
205 227 255
205 227 255
205 227 255
205 226 255
205 226 255
205 226 255
205 226 255
205 226 255
205 226 255
205 226 255
204 226 255
204 226 255
204 226 255
204 226 255
204 226 255
204 226 255
204 226 255
204 226 255
204 226 255
204 226 255
204 226 255
204 226 255
204 226 255
204 226 255
204 226 255
204 226 255
204 226 255
203 226 255
203 226 255
203 226 255
203 226 255
203 226 255
203 226 255
203 226 255
203 225 255
203 225 255
203 225 255
203 225 255
203 225 255
203 225 255
203 225 255
203 225 255
203 225 255
202 225 255
202 225 255
202 225 255
202 225 255
202 225 255
202 225 255
202 225 255
202 225 255
202 225 255
202 225 255
202 225 255
202 225 255
202 225 255
202 225 255
202 225 255
201 225 255
201 225 255
201 225 255
201 225 255
201 224 255
201 224 255
201 224 255
201 224 255
201 224 255
201 224 255
201 224 255
201 224 255
201 224 255
201 224 255
201 224 255
200 224 255
200 224 255
200 224 255
200 224 255
200 224 255
200 224 255
200 224 255
200 224 255
200 224 255
200 224 255
200 224 255
200 224 255
200 224 255
200 224 255
199 224 255
199 224 255
199 223 255
199 223 255
199 223 255
199 223 255
199 223 255
199 223 255
199 223 255
199 223 255
199 223 255
199 223 255
199 223 255
199 223 255
199 223 255
198 223 255
198 223 255
198 223 255
198 223 255
198 223 255
198 223 255
198 223 255
198 223 255
198 223 255
198 223 255
198 223 255
198 223 255
198 223 255
198 223 255
198 223 255
197 223 255
197 222 255
197 222 255
197 222 255
197 222 255
197 222 255
197 222 255
197 222 255
197 222 255
197 222 255
197 222 255
197 222 255
197 222 255
197 222 255
197 222 255
197 222 255
197 222 255
197 222 255
196 222 255
196 222 255
196 222 255
196 222 255
196 222 255
196 222 255
196 222 255
196 222 255
196 222 255
196 222 255
196 222 255
196 222 255
196 222 255
196 222 255
196 222 255
196 222 255
196 222 255
196 222 255
196 222 255
196 222 255
196 222 255
196 221 255
196 221 255
196 221 255
195 221 255
195 221 255
195 221 255
195 221 255
195 221 255
195 221 255
195 221 255
195 221 255
195 221 255
195 221 255
195 221 255
195 221 255
195 221 255
195 221 255
195 221 255
195 221 255
195 221 255
195 221 255
195 221 255
195 221 255
195 221 255
195 221 255
195 221 255
195 221 255
195 221 255
195 221 255
195 221 255
195 221 255
195 221 255
195 221 255
195 221 255
195 221 255
195 221 255
195 221 255
195 221 255
195 221 255
195 221 255
195 221 255
195 221 255
195 221 255
195 221 255
195 221 255
195 221 255
195 221 255
195 221 255
195 221 255
195 221 255
195 221 255
195 221 255
195 221 255
196 221 255
196 221 255
196 221 255
196 222 255
196 222 255
196 222 255
196 222 255
196 222 255
196 222 255
196 222 255
196 222 255
196 222 255
196 222 255
196 222 255
196 222 255
196 222 255
196 222 255
196 222 255
196 222 255
196 222 255
196 222 255
196 222 255
196 222 255
196 222 255
197 222 255
197 222 255
197 222 255
197 222 255
197 222 255
197 222 255
197 222 255
197 222 255
197 222 255
197 222 255
197 222 255
197 222 255
197 222 255
197 222 255
197 222 255
197 222 255
197 222 255
197 222 255
198 223 255
198 223 255
198 223 255
198 223 255
198 223 255
198 223 255
198 223 255
198 223 255
198 223 255
198 223 255
198 223 255
198 223 255
198 223 255
198 223 255
198 223 255
199 223 255
199 223 255
199 223 255
199 223 255
199 223 255
199 223 255
199 223 255
199 223 255
199 223 255
199 223 255
199 223 255
199 223 255
199 224 255
199 224 255
199 224 255
200 224 255
200 224 255
200 224 255
200 224 255
200 224 255
200 224 255
200 224 255
200 224 255
200 224 255
200 224 255
200 224 255
200 224 255
200 224 255
200 224 255
201 224 255
201 224 255
201 224 255
201 224 255
201 224 255
201 224 255
201 224 255
201 224 255
201 224 255
201 224 255
201 224 255
201 225 255
201 225 255
201 225 255
201 225 255
202 225 255
202 225 255
202 225 255
202 225 255
202 225 255
202 225 255
202 225 255
202 225 255
202 225 255
202 225 255
202 225 255
202 225 255
202 225 255
202 225 255
202 225 255
203 225 255
203 225 255
203 225 255
203 225 255
203 225 255
203 225 255
203 225 255
203 225 255
203 225 255
203 226 255
203 226 255
203 226 255
203 226 255
203 226 255
203 226 255
203 226 255
204 226 255
204 226 255
204 226 255
204 226 255
204 226 255
204 226 255
204 226 255
204 226 255
204 226 255
204 226 255
204 226 255
204 226 255
204 226 255
204 226 255
204 226 255
204 226 255
204 226 255
205 226 255
205 226 255
205 226 255
205 226 255
205 226 255
205 226 255
205 226 255
205 227 255
205 227 255
205 227 255
205 227 255
205 227 255
205 227 255
205 227 255
205 227 255
205 227 255
205 227 255
205 227 255
206 227 255
206 227 255
206 227 255
206 227 255
206 227 255
206 227 255
206 227 255
206 227 255
206 227 255
206 227 255
206 227 255
206 227 255
206 227 255
206 227 255
206 227 255
206 227 255
206 227 255
206 227 255
206 227 255
205 227 255
205 227 255
205 227 255
205 227 255
205 227 255
205 227 255
205 227 255
205 227 255
205 227 255
205 227 255
205 227 255
205 226 255
205 226 255
205 226 255
205 226 255
205 226 255
205 226 255
205 226 255
204 226 255
204 226 255
204 226 255
204 226 255
204 226 255
204 226 255
204 226 255
204 226 255
204 226 255
204 226 255
204 226 255
204 226 255
204 226 255
204 226 255
204 226 255
204 226 255
204 226 255
203 226 255
203 226 255
203 226 255
203 226 255
203 226 255
203 226 255
203 226 255
203 225 255
203 225 255
203 225 255
203 225 255
203 225 255
203 225 255
203 225 255
203 225 255
202 225 255
202 225 255
202 225 255
202 225 255
202 225 255
202 225 255
202 225 255
202 225 255
202 225 255
202 225 255
202 225 255
202 225 255
202 225 255
202 225 255
202 225 255
201 225 255
201 225 255
201 225 255
201 225 255
201 225 255
201 224 255
201 224 255
201 224 255
201 224 255
201 224 255
201 224 255
201 224 255
201 224 255
201 224 255
201 224 255
200 224 255
200 224 255
200 224 255
200 224 255
200 224 255
200 224 255
200 224 255
200 224 255
200 224 255
200 224 255
200 224 255
200 224 255
200 224 255
200 224 255
199 224 255
199 224 255
199 224 255
199 223 255
199 223 255
199 223 255
199 223 255
199 223 255
199 223 255
199 223 255
199 223 255
199 223 255
199 223 255
199 223 255
199 223 255
198 223 255
198 223 255
198 223 255
198 223 255
198 223 255
198 223 255
198 223 255
198 223 255
198 223 255
198 223 255
198 223 255
198 223 255
198 223 255
198 223 255
198 223 255
198 223 255
197 222 255
197 222 255
197 222 255
197 222 255
197 222 255
197 222 255
197 222 255
197 222 255
197 222 255
197 222 255
197 222 255
197 222 255
197 222 255
197 222 255
197 222 255
197 222 255
197 222 255
197 222 255
196 222 255
196 222 255
196 222 255
196 222 255
196 222 255
196 222 255
196 222 255
196 222 255
196 222 255
196 222 255
196 222 255
196 222 255
196 222 255
196 222 255
196 222 255
196 222 255
196 222 255
196 222 255
196 222 255
196 222 255
196 222 255
196 222 255
196 222 255
196 221 255
196 221 255
196 221 255
196 221 255
195 221 255
195 221 255
195 221 255
195 221 255
195 221 255
195 221 255
195 221 255
195 221 255
195 221 255
195 221 255
195 221 255
195 221 255
195 221 255
195 221 255
195 221 255
195 221 255
195 221 255
195 221 255
195 221 255
195 221 255
195 221 255
195 221 255
195 221 255
195 221 255
195 221 255
195 221 255
195 221 255
195 221 255
195 221 255
195 221 255
195 221 255
195 221 255
195 221 255
195 221 255
195 221 255
195 221 255
195 221 255
195 221 255
196 221 255
196 221 255
196 221 255
196 221 255
196 222 255
196 222 255
196 222 255
196 222 255
196 222 255
196 222 255
196 222 255
196 222 255
196 222 255
196 222 255
196 222 255
196 222 255
196 222 255
196 222 255
196 222 255
196 222 255
196 222 255
196 222 255
196 222 255
196 222 255
196 222 255
196 222 255
196 222 255
197 222 255
197 222 255
197 222 255
197 222 255
197 222 255
197 222 255
197 222 255
197 222 255
197 222 255
197 222 255
197 222 255
197 222 255
197 222 255
197 222 255
197 222 255
197 222 255
197 222 255
197 222 255
198 223 255
198 223 255
198 223 255
198 223 255
198 223 255
198 223 255
198 223 255
198 223 255
198 223 255
198 223 255
198 223 255
198 223 255
198 223 255
198 223 255
198 223 255
198 223 255
199 223 255
199 223 255
199 223 255
199 223 255
199 223 255
199 223 255
199 223 255
199 223 255
199 223 255
199 223 255
199 223 255
199 223 255
199 224 255
199 224 255
199 224 255
200 224 255
200 224 255
200 224 255
200 224 255
200 224 255
200 224 255
200 224 255
200 224 255
200 224 255
200 224 255
200 224 255
200 224 255
200 224 255
200 224 255
201 224 255
201 224 255
201 224 255
201 224 255
201 224 255
201 224 255
201 224 255
201 224 255
201 224 255
201 224 255
201 225 255
201 225 255
201 225 255
201 225 255
201 225 255
202 225 255
202 225 255
202 225 255
202 225 255
202 225 255
202 225 255
202 225 255
202 225 255
202 225 255
202 225 255
202 225 255
202 225 255
202 225 255
202 225 255
202 225 255
203 225 255
203 225 255
203 225 255
203 225 255
203 225 255
203 225 255
203 225 255
203 225 255
203 226 255
203 226 255
203 226 255
203 226 255
203 226 255
203 226 255
203 226 255
203 226 255
204 226 255
204 226 255
204 226 255
204 226 255
204 226 255
204 226 255
204 226 255
204 226 255
204 226 255
204 226 255
204 226 255
204 226 255
204 226 255
204 226 255
204 226 255
204 226 255
205 226 255
205 226 255
205 226 255
205 226 255
205 226 255
205 226 255
205 226 255
205 226 255
205 227 255
205 227 255
205 227 255
205 227 255
205 227 255
205 227 255
205 227 255
205 227 255
205 227 255
205 227 255
206 227 255
206 227 255
206 227 255
206 227 255
206 227 255
206 227 255
206 227 255
206 227 255
206 227 255
206 227 255
206 227 255
206 227 255
206 227 255
206 227 255
206 227 255
206 227 255
206 227 255
206 227 255
206 227 255
206 227 255
206 227 255
206 227 255
206 227 255
206 227 255
205 227 255
205 227 255
205 227 255
205 227 255
205 227 255
205 227 255
205 227 255
205 227 255
205 227 255
205 227 255
205 227 255
205 226 255
205 226 255
205 226 255
205 226 255
205 226 255
205 226 255
205 226 255
204 226 255
204 226 255
204 226 255
204 226 255
204 226 255
204 226 255
204 226 255
204 226 255
204 226 255
204 226 255
204 226 255
204 226 255
204 226 255
204 226 255
204 226 255
204 226 255
204 226 255
203 226 255
203 226 255
203 226 255
203 226 255
203 226 255
203 226 255
203 226 255
203 225 255
203 225 255
203 225 255
203 225 255
203 225 255
203 225 255
203 225 255
203 225 255
203 225 255
202 225 255
202 225 255
202 225 255
202 225 255
202 225 255
202 225 255
202 225 255
202 225 255
202 225 255
202 225 255
202 225 255
202 225 255
202 225 255
202 225 255
202 225 255
201 225 255
201 225 255
201 225 255
201 225 255
201 224 255
201 224 255
201 224 255
201 224 255
201 224 255
201 224 255
201 224 255
201 224 255
201 224 255
201 224 255
200 224 255
200 224 255
200 224 255
200 224 255
200 224 255
200 224 255
200 224 255
200 224 255
200 224 255
200 224 255
200 224 255
200 224 255
200 224 255
200 224 255
200 224 255
199 224 255
199 224 255
199 223 255
199 223 255
199 223 255
199 223 255
199 223 255
199 223 255
199 223 255
199 223 255
199 223 255
199 223 255
199 223 255
199 223 255
198 223 255
198 223 255
198 223 255
198 223 255
198 223 255
198 223 255
198 223 255
198 223 255
198 223 255
198 223 255
198 223 255
198 223 255
198 223 255
198 223 255
198 223 255
198 223 255
197 223 255
197 222 255
197 222 255
197 222 255
197 222 255
197 222 255
197 222 255
197 222 255
197 222 255
197 222 255
197 222 255
197 222 255
197 222 255
197 222 255
197 222 255
197 222 255
197 222 255
197 222 255
197 222 255
196 222 255
196 222 255
196 222 255
196 222 255
196 222 255
196 222 255
196 222 255
196 222 255
196 222 255
196 222 255
196 222 255
196 222 255
196 222 255
196 222 255
196 222 255
196 222 255
196 222 255
196 222 255
196 222 255
196 222 255
196 222 255
196 222 255
196 222 255
196 222 255
196 222 255
196 222 255
196 222 255
196 222 255
196 221 255
196 221 255
196 221 255
196 221 255
195 221 255
195 221 255
195 221 255
195 221 255
195 221 255
195 221 255
195 221 255
195 221 255
195 221 255
195 221 255
195 221 255
195 221 255
195 221 255
195 221 255
195 221 255
195 221 255
195 221 255
195 221 255
195 221 255
195 221 255
195 221 255
195 221 255
196 221 255
196 221 255
196 221 255
196 221 255
196 221 255
196 222 255
196 222 255
196 222 255
196 222 255
196 222 255
196 222 255
196 222 255
196 222 255
196 222 255
196 222 255
196 222 255
196 222 255
196 222 255
196 222 255
196 222 255
196 222 255
196 222 255
196 222 255
196 222 255
196 222 255
196 222 255
196 222 255
196 222 255
196 222 255
196 222 255
196 222 255
196 222 255
197 222 255
197 222 255
197 222 255
197 222 255
197 222 255
197 222 255
197 222 255
197 222 255
197 222 255
197 222 255
197 222 255
197 222 255
197 222 255
197 222 255
197 222 255
197 222 255
197 222 255
197 222 255
197 223 255
198 223 255
198 223 255
198 223 255
198 223 255
198 223 255
198 223 255
198 223 255
198 223 255
198 223 255
198 223 255
198 223 255
198 223 255
198 223 255
198 223 255
198 223 255
199 223 255
199 223 255
199 223 255
199 223 255
199 223 255
199 223 255
199 223 255
199 223 255
199 223 255
199 223 255
199 223 255
199 223 255
199 223 255
199 224 255
199 224 255
200 224 255
200 224 255
200 224 255
200 224 255
200 224 255
200 224 255
200 224 255
200 224 255
200 224 255
200 224 255
200 224 255
200 224 255
200 224 255
200 224 255
200 224 255
201 224 255
201 224 255
201 224 255
201 224 255
201 224 255
201 224 255
201 224 255
201 224 255
201 224 255
201 224 255
201 225 255
201 225 255
201 225 255
201 225 255
202 225 255
202 225 255
202 225 255
202 225 255
202 225 255
202 225 255
202 225 255
202 225 255
202 225 255
202 225 255
202 225 255
202 225 255
202 225 255
202 225 255
202 225 255
203 225 255
203 225 255
203 225 255
203 225 255
203 225 255
203 225 255
203 225 255
203 225 255
203 225 255
203 226 255
203 226 255
203 226 255
203 226 255
203 226 255
203 226 255
203 226 255
204 226 255
204 226 255
204 226 255
204 226 255
204 226 255
204 226 255
204 226 255
204 226 255
204 226 255
204 226 255
204 226 255
204 226 255
204 226 255
204 226 255
204 226 255
204 226 255
204 226 255
205 226 255
205 226 255
205 226 255
205 226 255
205 226 255
205 226 255
205 226 255
205 227 255
205 227 255
205 227 255
205 227 255
205 227 255
205 227 255
205 227 255
205 227 255
205 227 255
205 227 255
205 227 255
206 227 255
206 227 255
206 227 255
206 227 255
206 227 255
206 227 255
206 227 255
206 227 255
206 227 255
206 227 255
206 227 255
206 227 255
206 227 255
206 227 255
206 227 255
206 227 255
206 227 255
206 227 255
206 227 255
206 227 255
206 227 255
206 227 255
206 227 255
206 227 255
206 227 255
206 227 255
206 227 255
206 227 255
206 227 255
205 227 255
205 227 255
205 227 255
205 227 255
205 227 255
205 227 255
205 227 255
205 227 255
205 227 255
205 227 255
205 227 255
205 226 255
205 226 255
205 226 255
205 226 255
205 226 255
205 226 255
205 226 255
204 226 255
204 226 255
204 226 255
204 226 255
204 226 255
204 226 255
204 226 255
204 226 255
204 226 255
204 226 255
204 226 255
204 226 255
204 226 255
204 226 255
204 226 255
204 226 255
203 226 255
203 226 255
203 226 255
203 226 255
203 226 255
203 226 255
203 226 255
203 225 255
203 225 255
203 225 255
203 225 255
203 225 255
203 225 255
203 225 255
203 225 255
203 225 255
202 225 255
202 225 255
202 225 255
202 225 255
202 225 255
202 225 255
202 225 255
202 225 255
202 225 255
202 225 255
202 225 255
202 225 255
202 225 255
202 225 255
202 225 255
201 225 255
201 225 255
201 225 255
201 225 255
201 224 255
201 224 255
201 224 255
201 224 255
201 224 255
201 224 255
201 224 255
201 224 255
201 224 255
201 224 255
201 224 255
200 224 255
200 224 255
200 224 255
200 224 255
200 224 255
200 224 255
200 224 255
200 224 255
200 224 255
200 224 255
200 224 255
200 224 255
200 224 255
200 224 255
199 224 255
199 224 255
199 223 255
199 223 255
199 223 255
199 223 255
199 223 255
199 223 255
199 223 255
199 223 255
199 223 255
199 223 255
199 223 255
199 223 255
199 223 255
198 223 255
198 223 255
198 223 255
198 223 255
198 223 255
198 223 255
198 223 255
198 223 255
198 223 255
198 223 255
198 223 255
198 223 255
198 223 255
198 223 255
198 223 255
198 223 255
197 223 255
197 222 255
197 222 255
197 222 255
197 222 255
197 222 255
197 222 255
197 222 255
197 222 255
197 222 255
197 222 255
197 222 255
197 222 255
197 222 255
197 222 255
197 222 255
197 222 255
197 222 255
197 222 255
197 222 255
196 222 255
196 222 255
196 222 255
196 222 255
196 222 255
196 222 255
196 222 255
196 222 255
196 222 255
196 222 255
196 222 255
196 222 255
196 222 255
196 222 255
196 222 255
196 222 255
196 222 255
196 222 255
196 222 255
196 222 255
196 222 255
196 222 255
196 222 255
196 222 255
196 222 255
196 222 255
196 222 255
196 222 255
196 222 255
196 222 255
196 222 255
196 222 255
196 222 255
196 222 255
196 222 255
196 222 255
196 222 255
196 222 255
196 222 255
196 222 255
196 222 255
196 222 255
196 222 255
196 222 255
196 222 255
196 222 255
196 222 255
196 222 255
196 222 255
196 222 255
196 222 255
196 222 255
196 222 255
196 222 255
196 222 255
196 222 255
196 222 255
196 222 255
196 222 255
196 222 255
196 222 255
196 222 255
196 222 255
196 222 255
196 222 255
196 222 255
196 222 255
196 222 255
196 222 255
196 222 255
196 222 255
196 222 255
196 222 255
196 222 255
196 222 255
196 222 255
196 222 255
196 222 255
197 222 255
197 222 255
197 222 255
197 222 255
197 222 255
197 222 255
197 222 255
197 222 255
197 222 255
197 222 255
197 222 255
197 222 255
197 222 255
197 222 255
197 222 255
197 222 255
197 222 255
197 222 255
197 222 255
197 223 255
198 223 255
198 223 255
198 223 255
198 223 255
198 223 255
198 223 255
198 223 255
198 223 255
198 223 255
198 223 255
198 223 255
198 223 255
198 223 255
198 223 255
198 223 255
198 223 255
199 223 255
199 223 255
199 223 255
199 223 255
199 223 255
199 223 255
199 223 255
199 223 255
199 223 255
199 223 255
199 223 255
199 223 255
199 223 255
199 224 255
199 224 255
200 224 255
200 224 255
200 224 255
200 224 255
200 224 255
200 224 255
200 224 255
200 224 255
200 224 255
200 224 255
200 224 255
200 224 255
200 224 255
200 224 255
201 224 255
201 224 255
201 224 255
201 224 255
201 224 255
201 224 255
201 224 255
201 224 255
201 224 255
201 224 255
201 224 255
201 225 255
201 225 255
201 225 255
201 225 255
202 225 255
202 225 255
202 225 255
202 225 255
202 225 255
202 225 255
202 225 255
202 225 255
202 225 255
202 225 255
202 225 255
202 225 255
202 225 255
202 225 255
202 225 255
203 225 255
203 225 255
203 225 255
203 225 255
203 225 255
203 225 255
203 225 255
203 225 255
203 225 255
203 226 255
203 226 255
203 226 255
203 226 255
203 226 255
203 226 255
203 226 255
204 226 255
204 226 255
204 226 255
204 226 255
204 226 255
204 226 255
204 226 255
204 226 255
204 226 255
204 226 255
204 226 255
204 226 255
204 226 255
204 226 255
204 226 255
204 226 255
205 226 255
205 226 255
205 226 255
205 226 255
205 226 255
205 226 255
205 226 255
205 227 255
205 227 255
205 227 255
205 227 255
205 227 255
205 227 255
205 227 255
205 227 255
205 227 255
205 227 255
205 227 255
206 227 255
206 227 255
206 227 255
206 227 255
206 227 255
206 227 255
206 227 255
206 227 255
206 227 255
206 227 255
206 227 255
206 227 255
206 227 255
206 227 255
206 227 255
206 227 255
206 227 255
206 227 255
206 227 255
206 227 255
206 227 255
206 227 255
206 227 255
206 227 255
206 227 255
206 227 255
206 227 255
206 227 255
206 227 255
206 227 255
206 227 255
206 227 255
206 227 255
206 227 255
205 227 255
205 227 255
205 227 255
205 227 255
205 227 255
205 227 255
205 227 255
205 227 255
205 227 255
205 227 255
205 227 255
205 226 255
205 226 255
205 226 255
205 226 255
205 226 255
205 226 255
205 226 255
204 226 255
204 226 255
204 226 255
204 226 255
204 226 255
204 226 255
204 226 255
204 226 255
204 226 255
204 226 255
204 226 255
204 226 255
204 226 255
204 226 255
204 226 255
204 226 255
204 226 255
203 226 255
203 226 255
203 226 255
203 226 255
203 226 255
203 226 255
203 226 255
203 225 255
203 225 255
203 225 255
203 225 255
203 225 255
203 225 255
203 225 255
203 225 255
202 225 255
202 225 255
202 225 255
202 225 255
202 225 255
202 225 255
202 225 255
202 225 255
202 225 255
202 225 255
202 225 255
202 225 255
202 225 255
202 225 255
202 225 255
201 225 255
201 225 255
201 225 255
201 225 255
201 225 255
201 224 255
201 224 255
201 224 255
201 224 255
201 224 255
201 224 255
201 224 255
201 224 255
201 224 255
201 224 255
200 224 255
200 224 255
200 224 255
200 224 255
200 224 255
200 224 255
200 224 255
200 224 255
200 224 255
200 224 255
200 224 255
200 224 255
200 224 255
200 224 255
199 224 255
199 224 255
199 224 255
199 223 255
199 223 255
199 223 255
199 223 255
199 223 255
199 223 255
199 223 255
199 223 255
199 223 255
199 223 255
199 223 255
199 223 255
199 223 255
198 223 255
198 223 255
198 223 255
198 223 255
198 223 255
198 223 255
198 223 255
198 223 255
198 223 255
198 223 255
198 223 255
198 223 255
198 223 255
198 223 255
198 223 255
198 223 255
197 223 255
197 222 255
197 222 255
197 222 255
197 222 255
197 222 255
197 222 255
197 222 255
197 222 255
197 222 255
197 222 255
197 222 255
197 222 255
197 222 255
197 222 255
197 222 255
197 222 255
197 222 255
197 222 255
197 222 255
197 222 255
196 222 255
196 222 255
196 222 255
196 222 255
196 222 255
196 222 255
196 222 255
196 222 255
196 222 255
196 222 255
196 222 255
196 222 255
196 222 255
196 222 255
196 222 255
196 222 255
196 222 255
196 222 255
196 222 255
196 222 255
196 222 255
196 222 255
196 222 255
196 222 255
196 222 255
196 222 255
196 222 255
196 222 255
196 222 255
196 222 255
196 222 255
196 222 255
196 222 255
196 222 255
196 222 255
196 222 255
196 222 255
196 222 255
196 222 255
196 222 255
196 222 255
196 222 255
196 222 255
196 222 255
196 222 255
196 222 255
196 222 255
196 222 255
196 222 255
196 222 255
196 222 255
196 222 255
196 222 255
196 222 255
196 222 255
196 222 255
196 222 255
196 222 255
196 222 255
196 222 255
196 222 255
196 222 255
196 222 255
196 222 255
196 222 255
196 222 255
196 222 255
196 222 255
196 222 255
196 222 255
197 222 255
197 222 255
197 222 255
197 222 255
197 222 255
197 222 255
197 222 255
197 222 255
197 222 255
197 222 255
197 222 255
197 222 255
197 222 255
197 222 255
197 222 255
197 222 255
197 222 255
197 222 255
197 222 255
197 222 255
197 223 255
198 223 255
198 223 255
198 223 255
198 223 255
198 223 255
198 223 255
198 223 255
198 223 255
198 223 255
198 223 255
198 223 255
198 223 255
198 223 255
198 223 255
198 223 255
198 223 255
198 223 255
199 223 255
199 223 255
199 223 255
199 223 255
199 223 255
199 223 255
199 223 255
199 223 255
199 223 255
199 223 255
199 223 255
199 223 255
199 224 255
199 224 255
199 224 255
200 224 255
200 224 255
200 224 255
200 224 255
200 224 255
200 224 255
200 224 255
200 224 255
200 224 255
200 224 255
200 224 255
200 224 255
200 224 255
200 224 255
201 224 255
201 224 255
201 224 255
201 224 255
201 224 255
201 224 255
201 224 255
201 224 255
201 224 255
201 224 255
201 225 255
201 225 255
201 225 255
201 225 255
201 225 255
202 225 255
202 225 255
202 225 255
202 225 255
202 225 255
202 225 255
202 225 255
202 225 255
202 225 255
202 225 255
202 225 255
202 225 255
202 225 255
202 225 255
202 225 255
203 225 255
203 225 255
203 225 255
203 225 255
203 225 255
203 225 255
203 225 255
203 225 255
203 226 255
203 226 255
203 226 255
203 226 255
203 226 255
203 226 255
203 226 255
204 226 255
204 226 255
204 226 255
204 226 255
204 226 255
204 226 255
204 226 255
204 226 255
204 226 255
204 226 255
204 226 255
204 226 255
204 226 255
204 226 255
204 226 255
204 226 255
204 226 255
205 226 255
205 226 255
205 226 255
205 226 255
205 226 255
205 226 255
205 226 255
205 227 255
205 227 255
205 227 255
205 227 255
205 227 255
205 227 255
205 227 255
205 227 255
205 227 255
205 227 255
205 227 255
206 227 255
206 227 255
206 227 255
206 227 255
206 227 255
206 227 255
206 227 255
206 227 255
206 227 255
206 227 255
206 227 255
206 227 255
206 227 255
206 227 255
206 227 255
206 227 255
206 227 255
206 227 255
207 227 255
207 227 255
206 227 255
206 227 255
206 227 255
206 227 255
206 227 255
206 227 255
206 227 255
206 227 255
206 227 255
206 227 255
206 227 255
206 227 255
206 227 255
206 227 255
206 227 255
206 227 255
206 227 255
206 227 255
206 227 255
205 227 255
205 227 255
205 227 255
205 227 255
205 227 255
205 227 255
205 227 255
205 227 255
205 227 255
205 227 255
205 227 255
205 226 255
205 226 255
205 226 255
205 226 255
205 226 255
205 226 255
205 226 255
204 226 255
204 226 255
204 226 255
204 226 255
204 226 255
204 226 255
204 226 255
204 226 255
204 226 255
204 226 255
204 226 255
204 226 255
204 226 255
204 226 255
204 226 255
204 226 255
203 226 255
203 226 255
203 226 255
203 226 255
203 226 255
203 226 255
203 226 255
203 225 255
203 225 255
203 225 255
203 225 255
203 225 255
203 225 255
203 225 255
203 225 255
203 225 255
202 225 255
202 225 255
202 225 255
202 225 255
202 225 255
202 225 255
202 225 255
202 225 255
202 225 255
202 225 255
202 225 255
202 225 255
202 225 255
202 225 255
202 225 255
201 225 255
201 225 255
201 225 255
201 225 255
201 224 255
201 224 255
201 224 255
201 224 255
201 224 255
201 224 255
201 224 255
201 224 255
201 224 255
201 224 255
200 224 255
200 224 255
200 224 255
200 224 255
200 224 255
200 224 255
200 224 255
200 224 255
200 224 255
200 224 255
200 224 255
200 224 255
200 224 255
200 224 255
200 224 255
199 224 255
199 224 255
199 223 255
199 223 255
199 223 255
199 223 255
199 223 255
199 223 255
199 223 255
199 223 255
199 223 255
199 223 255
199 223 255
199 223 255
199 223 255
198 223 255
198 223 255
198 223 255
198 223 255
198 223 255
198 223 255
198 223 255
198 223 255
198 223 255
198 223 255
198 223 255
198 223 255
198 223 255
198 223 255
198 223 255
198 223 255
198 223 255
197 223 255
197 222 255
197 222 255
197 222 255
197 222 255
197 222 255
197 222 255
197 222 255
197 222 255
197 222 255
197 222 255
197 222 255
197 222 255
197 222 255
197 222 255
197 222 255
197 222 255
197 222 255
197 222 255
197 222 255
197 222 255
197 222 255
196 222 255
196 222 255
196 222 255
196 222 255
196 222 255
196 222 255
196 222 255
196 222 255
196 222 255
196 222 255
196 222 255
196 222 255
196 222 255
196 222 255
196 222 255
196 222 255
196 222 255
196 222 255
196 222 255
196 222 255
196 222 255
196 222 255
196 222 255
196 222 255
196 222 255
196 222 255
196 222 255
196 222 255
196 222 255
196 222 255
196 222 255
196 222 255
196 222 255
196 222 255
196 222 255
196 222 255
196 222 255
196 222 255
196 222 255
196 222 255
196 222 255
196 222 255
196 222 255
196 222 255
196 222 255
196 222 255
196 222 255
196 222 255
196 222 255
196 222 255
196 222 255
196 222 255
196 222 255
196 222 255
196 222 255
196 222 255
196 222 255
196 222 255
196 222 255
196 222 255
196 222 255
196 222 255
197 222 255
197 222 255
197 222 255
197 222 255
197 222 255
197 222 255
197 222 255
197 222 255
197 222 255
197 222 255
197 222 255
197 222 255
197 222 255
197 222 255
197 222 255
197 222 255
197 222 255
197 222 255
197 222 255
197 222 255
197 222 255
197 223 255
198 223 255
198 223 255
198 223 255
198 223 255
198 223 255
198 223 255
198 223 255
198 223 255
198 223 255
198 223 255
198 223 255
198 223 255
198 223 255
198 223 255
198 223 255
198 223 255
198 223 255
199 223 255
199 223 255
199 223 255
199 223 255
199 223 255
199 223 255
199 223 255
199 223 255
199 223 255
199 223 255
199 223 255
199 223 255
199 223 255
199 224 255
199 224 255
200 224 255
200 224 255
200 224 255
200 224 255
200 224 255
200 224 255
200 224 255
200 224 255
200 224 255
200 224 255
200 224 255
200 224 255
200 224 255
200 224 255
200 224 255
201 224 255
201 224 255
201 224 255
201 224 255
201 224 255
201 224 255
201 224 255
201 224 255
201 224 255
201 224 255
201 225 255
201 225 255
201 225 255
201 225 255
202 225 255
202 225 255
202 225 255
202 225 255
202 225 255
202 225 255
202 225 255
202 225 255
202 225 255
202 225 255
202 225 255
202 225 255
202 225 255
202 225 255
202 225 255
203 225 255
203 225 255
203 225 255
203 225 255
203 225 255
203 225 255
203 225 255
203 225 255
203 225 255
203 226 255
203 226 255
203 226 255
203 226 255
203 226 255
203 226 255
203 226 255
204 226 255
204 226 255
204 226 255
204 226 255
204 226 255
204 226 255
204 226 255
204 226 255
204 226 255
204 226 255
204 226 255
204 226 255
204 226 255
204 226 255
204 226 255
204 226 255
205 226 255
205 226 255
205 226 255
205 226 255
205 226 255
205 226 255
205 226 255
205 227 255
205 227 255
205 227 255
205 227 255
205 227 255
205 227 255
205 227 255
205 227 255
205 227 255
205 227 255
205 227 255
206 227 255
206 227 255
206 227 255
206 227 255
206 227 255
206 227 255
206 227 255
206 227 255
206 227 255
206 227 255
206 227 255
206 227 255
206 227 255
206 227 255
206 227 255
206 227 255
206 227 255
206 227 255
206 227 255
207 227 255
207 227 255
207 227 255
207 227 255
207 227 255
207 227 255
207 227 255
206 227 255
206 227 255
206 227 255
206 227 255
206 227 255
206 227 255
206 227 255
206 227 255
206 227 255
206 227 255
206 227 255
206 227 255
206 227 255
206 227 255
206 227 255
206 227 255
206 227 255
206 227 255
206 227 255
205 227 255
205 227 255
205 227 255
205 227 255
205 227 255
205 227 255
205 227 255
205 227 255
205 227 255
205 227 255
205 226 255
205 226 255
205 226 255
205 226 255
205 226 255
205 226 255
205 226 255
204 226 255
204 226 255
204 226 255
204 226 255
204 226 255
204 226 255
204 226 255
204 226 255
204 226 255
204 226 255
204 226 255
204 226 255
204 226 255
204 226 255
204 226 255
204 226 255
204 226 255
203 226 255
203 226 255
203 226 255
203 226 255
203 226 255
203 226 255
203 225 255
203 225 255
203 225 255
203 225 255
203 225 255
203 225 255
203 225 255
203 225 255
203 225 255
202 225 255
202 225 255
202 225 255
202 225 255
202 225 255
202 225 255
202 225 255
202 225 255
202 225 255
202 225 255
202 225 255
202 225 255
202 225 255
202 225 255
202 225 255
201 225 255
201 225 255
201 225 255
201 225 255
201 224 255
201 224 255
201 224 255
201 224 255
201 224 255
201 224 255
201 224 255
201 224 255
201 224 255
201 224 255
201 224 255
200 224 255
200 224 255
200 224 255
200 224 255
200 224 255
200 224 255
200 224 255
200 224 255
200 224 255
200 224 255
200 224 255
200 224 255
200 224 255
200 224 255
199 224 255
199 224 255
199 224 255
199 223 255
199 223 255
199 223 255
199 223 255
199 223 255
199 223 255
199 223 255
199 223 255
199 223 255
199 223 255
199 223 255
199 223 255
199 223 255
198 223 255
198 223 255
198 223 255
198 223 255
198 223 255
198 223 255
198 223 255
198 223 255
198 223 255
198 223 255
198 223 255
198 223 255
198 223 255
198 223 255
198 223 255
198 223 255
198 223 255
197 223 255
197 222 255
197 222 255
197 222 255
197 222 255
197 222 255
197 222 255
197 222 255
197 222 255
197 222 255
197 222 255
197 222 255
197 222 255
197 222 255
197 222 255
197 222 255
197 222 255
197 222 255
197 222 255
197 222 255
197 222 255
197 222 255
197 222 255
197 222 255
196 222 255
196 222 255
196 222 255
196 222 255
196 222 255
196 222 255
196 222 255
196 222 255
196 222 255
196 222 255
196 222 255
196 222 255
196 222 255
196 222 255
196 222 255
196 222 255
196 222 255
196 222 255
196 222 255
196 222 255
196 222 255
196 222 255
196 222 255
196 222 255
196 222 255
196 222 255
196 222 255
196 222 255
196 222 255
196 222 255
196 222 255
196 222 255
196 222 255
196 222 255
196 222 255
196 222 255
196 222 255
196 222 255
196 222 255
196 222 255
196 222 255
196 222 255
196 222 255
196 222 255
196 222 255
196 222 255
196 222 255
196 222 255
196 222 255
196 222 255
196 222 255
196 222 255
197 222 255
197 222 255
197 222 255
197 222 255
197 222 255
197 222 255
197 222 255
197 222 255
197 222 255
197 222 255
197 222 255
197 222 255
197 222 255
197 222 255
197 222 255
197 222 255
197 222 255
197 222 255
197 222 255
197 222 255
197 222 255
197 222 255
197 222 255
197 223 255
198 223 255
198 223 255
198 223 255
198 223 255
198 223 255
198 223 255
198 223 255
198 223 255
198 223 255
198 223 255
198 223 255
198 223 255
198 223 255
198 223 255
198 223 255
198 223 255
198 223 255
199 223 255
199 223 255
199 223 255
199 223 255
199 223 255
199 223 255
199 223 255
199 223 255
199 223 255
199 223 255
199 223 255
199 223 255
199 223 255
199 224 255
199 224 255
199 224 255
200 224 255
200 224 255
200 224 255
200 224 255
200 224 255
200 224 255
200 224 255
200 224 255
200 224 255
200 224 255
200 224 255
200 224 255
200 224 255
200 224 255
201 224 255
201 224 255
201 224 255
201 224 255
201 224 255
201 224 255
201 224 255
201 224 255
201 224 255
201 224 255
201 224 255
201 225 255
201 225 255
201 225 255
201 225 255
202 225 255
202 225 255
202 225 255
202 225 255
202 225 255
202 225 255
202 225 255
202 225 255
202 225 255
202 225 255
202 225 255
202 225 255
202 225 255
202 225 255
202 225 255
203 225 255
203 225 255
203 225 255
203 225 255
203 225 255
203 225 255
203 225 255
203 225 255
203 226 255
203 226 255
203 226 255
203 226 255
203 226 255
203 226 255
203 226 255
204 226 255
204 226 255
204 226 255
204 226 255
204 226 255
204 226 255
204 226 255
204 226 255
204 226 255
204 226 255
204 226 255
204 226 255
204 226 255
204 226 255
204 226 255
204 226 255
204 226 255
205 226 255
205 226 255
205 226 255
205 226 255
205 226 255
205 226 255
205 226 255
205 227 255
205 227 255
205 227 255
205 227 255
205 227 255
205 227 255
205 227 255
205 227 255
205 227 255
205 227 255
206 227 255
206 227 255
206 227 255
206 227 255
206 227 255
206 227 255
206 227 255
206 227 255
206 227 255
206 227 255
206 227 255
206 227 255
206 227 255
206 227 255
206 227 255
206 227 255
206 227 255
206 227 255
206 227 255
207 227 255
207 227 255
207 227 255
207 227 255
207 227 255
207 228 255
207 228 255
207 227 255
207 227 255
207 227 255
207 227 255
207 227 255
206 227 255
206 227 255
206 227 255
206 227 255
206 227 255
206 227 255
206 227 255
206 227 255
206 227 255
206 227 255
206 227 255
206 227 255
206 227 255
206 227 255
206 227 255
206 227 255
206 227 255
206 227 255
206 227 255
205 227 255
205 227 255
205 227 255
205 227 255
205 227 255
205 227 255
205 227 255
205 227 255
205 227 255
205 227 255
205 227 255
205 226 255
205 226 255
205 226 255
205 226 255
205 226 255
205 226 255
205 226 255
204 226 255
204 226 255
204 226 255
204 226 255
204 226 255
204 226 255
204 226 255
204 226 255
204 226 255
204 226 255
204 226 255
204 226 255
204 226 255
204 226 255
204 226 255
204 226 255
203 226 255
203 226 255
203 226 255
203 226 255
203 226 255
203 226 255
203 226 255
203 225 255
203 225 255
203 225 255
203 225 255
203 225 255
203 225 255
203 225 255
203 225 255
203 225 255
202 225 255
202 225 255
202 225 255
202 225 255
202 225 255
202 225 255
202 225 255
202 225 255
202 225 255
202 225 255
202 225 255
202 225 255
202 225 255
202 225 255
201 225 255
201 225 255
201 225 255
201 225 255
201 225 255
201 224 255
201 224 255
201 224 255
201 224 255
201 224 255
201 224 255
201 224 255
201 224 255
201 224 255
201 224 255
200 224 255
200 224 255
200 224 255
200 224 255
200 224 255
200 224 255
200 224 255
200 224 255
200 224 255
200 224 255
200 224 255
200 224 255
200 224 255
200 224 255
200 224 255
199 224 255
199 224 255
199 223 255
199 223 255
199 223 255
199 223 255
199 223 255
199 223 255
199 223 255
199 223 255
199 223 255
199 223 255
199 223 255
199 223 255
199 223 255
198 223 255
198 223 255
198 223 255
198 223 255
198 223 255
198 223 255
198 223 255
198 223 255
198 223 255
198 223 255
198 223 255
198 223 255
198 223 255
198 223 255
198 223 255
198 223 255
198 223 255
198 223 255
198 223 255
197 222 255
197 222 255
197 222 255
197 222 255
197 222 255
197 222 255
197 222 255
197 222 255
197 222 255
197 222 255
197 222 255
197 222 255
197 222 255
197 222 255
197 222 255
197 222 255
197 222 255
197 222 255
197 222 255
197 222 255
197 222 255
197 222 255
197 222 255
197 222 255
197 222 255
197 222 255
196 222 255
196 222 255
196 222 255
196 222 255
196 222 255
196 222 255
196 222 255
196 222 255
196 222 255
196 222 255
196 222 255
196 222 255
196 222 255
196 222 255
196 222 255
196 222 255
196 222 255
196 222 255
196 222 255
196 222 255
196 222 255
196 222 255
196 222 255
196 222 255
196 222 255
196 222 255
196 222 255
196 222 255
196 222 255
196 222 255
196 222 255
196 222 255
196 222 255
196 222 255
196 222 255
196 222 255
196 222 255
196 222 255
196 222 255
196 222 255
197 222 255
197 222 255
197 222 255
197 222 255
197 222 255
197 222 255
197 222 255
197 222 255
197 222 255
197 222 255
197 222 255
197 222 255
197 222 255
197 222 255
197 222 255
197 222 255
197 222 255
197 222 255
197 222 255
197 222 255
197 222 255
197 222 255
197 222 255
197 222 255
197 222 255
197 222 255
197 223 255
198 223 255
198 223 255
198 223 255
198 223 255
198 223 255
198 223 255
198 223 255
198 223 255
198 223 255
198 223 255
198 223 255
198 223 255
198 223 255
198 223 255
198 223 255
198 223 255
198 223 255
198 223 255
199 223 255
199 223 255
199 223 255
199 223 255
199 223 255
199 223 255
199 223 255
199 223 255
199 223 255
199 223 255
199 223 255
199 223 255
199 223 255
199 224 255
199 224 255
200 224 255
200 224 255
200 224 255
200 224 255
200 224 255
200 224 255
200 224 255
200 224 255
200 224 255
200 224 255
200 224 255
200 224 255
200 224 255
200 224 255
200 224 255
201 224 255
201 224 255
201 224 255
201 224 255
201 224 255
201 224 255
201 224 255
201 224 255
201 224 255
201 224 255
201 225 255
201 225 255
201 225 255
201 225 255
201 225 255
202 225 255
202 225 255
202 225 255
202 225 255
202 225 255
202 225 255
202 225 255
202 225 255
202 225 255
202 225 255
202 225 255
202 225 255
202 225 255
202 225 255
203 225 255
203 225 255
203 225 255
203 225 255
203 225 255
203 225 255
203 225 255
203 225 255
203 225 255
203 226 255
203 226 255
203 226 255
203 226 255
203 226 255
203 226 255
203 226 255
204 226 255
204 226 255
204 226 255
204 226 255
204 226 255
204 226 255
204 226 255
204 226 255
204 226 255
204 226 255
204 226 255
204 226 255
204 226 255
204 226 255
204 226 255
204 226 255
205 226 255
205 226 255
205 226 255
205 226 255
205 226 255
205 226 255
205 226 255
205 227 255
205 227 255
205 227 255
205 227 255
205 227 255
205 227 255
205 227 255
205 227 255
205 227 255
205 227 255
205 227 255
206 227 255
206 227 255
206 227 255
206 227 255
206 227 255
206 227 255
206 227 255
206 227 255
206 227 255
206 227 255
206 227 255
206 227 255
206 227 255
206 227 255
206 227 255
206 227 255
206 227 255
206 227 255
206 227 255
207 227 255
207 227 255
207 227 255
207 227 255
207 228 255
207 228 255
207 228 255
207 228 255
207 228 255
207 228 255
207 228 255
207 228 255
207 227 255
207 227 255
207 227 255
207 227 255
207 227 255
206 227 255
206 227 255
206 227 255
206 227 255
206 227 255
206 227 255
206 227 255
206 227 255
206 227 255
206 227 255
206 227 255
206 227 255
206 227 255
206 227 255
206 227 255
206 227 255
206 227 255
206 227 255
206 227 255
205 227 255
205 227 255
205 227 255
205 227 255
205 227 255
205 227 255
205 227 255
205 227 255
205 227 255
205 227 255
205 227 255
205 226 255
205 226 255
205 226 255
205 226 255
205 226 255
205 226 255
204 226 255
204 226 255
204 226 255
204 226 255
204 226 255
204 226 255
204 226 255
204 226 255
204 226 255
204 226 255
204 226 255
204 226 255
204 226 255
204 226 255
204 226 255
204 226 255
204 226 255
203 226 255
203 226 255
203 226 255
203 226 255
203 226 255
203 226 255
203 225 255
203 225 255
203 225 255
203 225 255
203 225 255
203 225 255
203 225 255
203 225 255
203 225 255
202 225 255
202 225 255
202 225 255
202 225 255
202 225 255
202 225 255
202 225 255
202 225 255
202 225 255
202 225 255
202 225 255
202 225 255
202 225 255
202 225 255
202 225 255
201 225 255
201 225 255
201 225 255
201 225 255
201 224 255
201 224 255
201 224 255
201 224 255
201 224 255
201 224 255
201 224 255
201 224 255
201 224 255
201 224 255
200 224 255
200 224 255
200 224 255
200 224 255
200 224 255
200 224 255
200 224 255
200 224 255
200 224 255
200 224 255
200 224 255
200 224 255
200 224 255
200 224 255
200 224 255
200 224 255
199 224 255
199 224 255
199 223 255
199 223 255
199 223 255
199 223 255
199 223 255
199 223 255
199 223 255
199 223 255
199 223 255
199 223 255
199 223 255
199 223 255
199 223 255
198 223 255
198 223 255
198 223 255
198 223 255
198 223 255
198 223 255
198 223 255
198 223 255
198 223 255
198 223 255
198 223 255
198 223 255
198 223 255
198 223 255
198 223 255
198 223 255
198 223 255
198 223 255
198 223 255
197 223 255
197 222 255
197 222 255
197 222 255
197 222 255
197 222 255
197 222 255
197 222 255
197 222 255
197 222 255
197 222 255
197 222 255
197 222 255
197 222 255
197 222 255
197 222 255
197 222 255
197 222 255
197 222 255
197 222 255
197 222 255
197 222 255
197 222 255
197 222 255
197 222 255
197 222 255
197 222 255
197 222 255
197 222 255
197 222 255
197 222 255
197 222 255
196 222 255
196 222 255
196 222 255
196 222 255
196 222 255
196 222 255
196 222 255
196 222 255
196 222 255
196 222 255
196 222 255
196 222 255
196 222 255
196 222 255
196 222 255
196 222 255
196 222 255
196 222 255
196 222 255
196 222 255
196 222 255
196 222 255
197 222 255
197 222 255
197 222 255
197 222 255
197 222 255
197 222 255
197 222 255
197 222 255
197 222 255
197 222 255
197 222 255
197 222 255
197 222 255
197 222 255
197 222 255
197 222 255
197 222 255
197 222 255
197 222 255
197 222 255
197 222 255
197 222 255
197 222 255
197 222 255
197 222 255
197 222 255
197 222 255
197 222 255
197 222 255
197 222 255
197 222 255
197 223 255
198 223 255
198 223 255
198 223 255
198 223 255
198 223 255
198 223 255
198 223 255
198 223 255
198 223 255
198 223 255
198 223 255
198 223 255
198 223 255
198 223 255
198 223 255
198 223 255
198 223 255
198 223 255
198 223 255
199 223 255
199 223 255
199 223 255
199 223 255
199 223 255
199 223 255
199 223 255
199 223 255
199 223 255
199 223 255
199 223 255
199 223 255
199 223 255
199 224 255
199 224 255
200 224 255
200 224 255
200 224 255
200 224 255
200 224 255
200 224 255
200 224 255
200 224 255
200 224 255
200 224 255
200 224 255
200 224 255
200 224 255
200 224 255
200 224 255
201 224 255
201 224 255
201 224 255
201 224 255
201 224 255
201 224 255
201 224 255
201 224 255
201 224 255
201 224 255
201 224 255
201 225 255
201 225 255
201 225 255
201 225 255
202 225 255
202 225 255
202 225 255
202 225 255
202 225 255
202 225 255
202 225 255
202 225 255
202 225 255
202 225 255
202 225 255
202 225 255
202 225 255
202 225 255
202 225 255
203 225 255
203 225 255
203 225 255
203 225 255
203 225 255
203 225 255
203 225 255
203 225 255
203 226 255
203 226 255
203 226 255
203 226 255
203 226 255
203 226 255
203 226 255
203 226 255
204 226 255
204 226 255
204 226 255
204 226 255
204 226 255
204 226 255
204 226 255
204 226 255
204 226 255
204 226 255
204 226 255
204 226 255
204 226 255
204 226 255
204 226 255
204 226 255
205 226 255
205 226 255
205 226 255
205 226 255
205 226 255
205 226 255
205 226 255
205 227 255
205 227 255
205 227 255
205 227 255
205 227 255
205 227 255
205 227 255
205 227 255
205 227 255
205 227 255
206 227 255
206 227 255
206 227 255
206 227 255
206 227 255
206 227 255
206 227 255
206 227 255
206 227 255
206 227 255
206 227 255
206 227 255
206 227 255
206 227 255
206 227 255
206 227 255
206 227 255
206 227 255
206 227 255
207 227 255
207 227 255
207 227 255
207 227 255
207 227 255
207 228 255
207 228 255
207 228 255
207 228 255
207 228 255
207 228 255
207 228 255
207 228 255
207 228 255
207 228 255
207 228 255
207 228 255
207 228 255
207 227 255
207 227 255
207 227 255
207 227 255
207 227 255
206 227 255
206 227 255
206 227 255
206 227 255
206 227 255
206 227 255
206 227 255
206 227 255
206 227 255
206 227 255
206 227 255
206 227 255
206 227 255
206 227 255
206 227 255
206 227 255
206 227 255
206 227 255
206 227 255
205 227 255
205 227 255
205 227 255
205 227 255
205 227 255
205 227 255
205 227 255
205 227 255
205 227 255
205 227 255
205 226 255
205 226 255
205 226 255
205 226 255
205 226 255
205 226 255
205 226 255
204 226 255
204 226 255
204 226 255
204 226 255
204 226 255
204 226 255
204 226 255
204 226 255
204 226 255
204 226 255
204 226 255
204 226 255
204 226 255
204 226 255
204 226 255
204 226 255
203 226 255
203 226 255
203 226 255
203 226 255
203 226 255
203 226 255
203 226 255
203 225 255
203 225 255
203 225 255
203 225 255
203 225 255
203 225 255
203 225 255
203 225 255
202 225 255
202 225 255
202 225 255
202 225 255
202 225 255
202 225 255
202 225 255
202 225 255
202 225 255
202 225 255
202 225 255
202 225 255
202 225 255
202 225 255
202 225 255
201 225 255
201 225 255
201 225 255
201 225 255
201 225 255
201 224 255
201 224 255
201 224 255
201 224 255
201 224 255
201 224 255
201 224 255
201 224 255
201 224 255
201 224 255
200 224 255
200 224 255
200 224 255
200 224 255
200 224 255
200 224 255
200 224 255
200 224 255
200 224 255
200 224 255
200 224 255
200 224 255
200 224 255
200 224 255
200 224 255
199 224 255
199 224 255
199 224 255
199 223 255
199 223 255
199 223 255
199 223 255
199 223 255
199 223 255
199 223 255
199 223 255
199 223 255
199 223 255
199 223 255
199 223 255
199 223 255
199 223 255
198 223 255
198 223 255
198 223 255
198 223 255
198 223 255
198 223 255
198 223 255
198 223 255
198 223 255
198 223 255
198 223 255
198 223 255
198 223 255
198 223 255
198 223 255
198 223 255
198 223 255
198 223 255
198 223 255
197 223 255
197 222 255
197 222 255
197 222 255
197 222 255
197 222 255
197 222 255
197 222 255
197 222 255
197 222 255
197 222 255
197 222 255
197 222 255
197 222 255
197 222 255
197 222 255
197 222 255
197 222 255
197 222 255
197 222 255
197 222 255
197 222 255
197 222 255
197 222 255
197 222 255
197 222 255
197 222 255
197 222 255
197 222 255
197 222 255
197 222 255
197 222 255
197 222 255
197 222 255
197 222 255
197 222 255
197 222 255
197 222 255
197 222 255
197 222 255
197 222 255
197 222 255
197 222 255
197 222 255
197 222 255
197 222 255
197 222 255
197 222 255
197 222 255
197 222 255
197 222 255
197 222 255
197 222 255
197 222 255
197 222 255
197 222 255
197 222 255
197 222 255
197 222 255
197 222 255
197 222 255
197 222 255
197 222 255
197 222 255
197 222 255
197 222 255
197 222 255
197 222 255
197 222 255
197 222 255
197 222 255
197 222 255
197 222 255
197 222 255
197 222 255
197 222 255
197 222 255
197 223 255
198 223 255
198 223 255
198 223 255
198 223 255
198 223 255
198 223 255
198 223 255
198 223 255
198 223 255
198 223 255
198 223 255
198 223 255
198 223 255
198 223 255
198 223 255
198 223 255
198 223 255
198 223 255
198 223 255
198 223 255
199 223 255
199 223 255
199 223 255
199 223 255
199 223 255
199 223 255
199 223 255
199 223 255
199 223 255
199 223 255
199 223 255
199 223 255
199 223 255
199 224 255
199 224 255
199 224 255
200 224 255
200 224 255
200 224 255
200 224 255
200 224 255
200 224 255
200 224 255
200 224 255
200 224 255
200 224 255
200 224 255
200 224 255
200 224 255
200 224 255
200 224 255
201 224 255
201 224 255
201 224 255
201 224 255
201 224 255
201 224 255
201 224 255
201 224 255
201 224 255
201 224 255
201 225 255
201 225 255
201 225 255
201 225 255
201 225 255
202 225 255
202 225 255
202 225 255
202 225 255
202 225 255
202 225 255
202 225 255
202 225 255
202 225 255
202 225 255
202 225 255
202 225 255
202 225 255
202 225 255
202 225 255
203 225 255
203 225 255
203 225 255
203 225 255
203 225 255
203 225 255
203 225 255
203 225 255
203 226 255
203 226 255
203 226 255
203 226 255
203 226 255
203 226 255
203 226 255
204 226 255
204 226 255
204 226 255
204 226 255
204 226 255
204 226 255
204 226 255
204 226 255
204 226 255
204 226 255
204 226 255
204 226 255
204 226 255
204 226 255
204 226 255
204 226 255
205 226 255
205 226 255
205 226 255
205 226 255
205 226 255
205 226 255
205 226 255
205 227 255
205 227 255
205 227 255
205 227 255
205 227 255
205 227 255
205 227 255
205 227 255
205 227 255
205 227 255
206 227 255
206 227 255
206 227 255
206 227 255
206 227 255
206 227 255
206 227 255
206 227 255
206 227 255
206 227 255
206 227 255
206 227 255
206 227 255
206 227 255
206 227 255
206 227 255
206 227 255
206 227 255
206 227 255
207 227 255
207 227 255
207 227 255
207 227 255
207 227 255
207 228 255
207 228 255
207 228 255
207 228 255
207 228 255
207 228 255
207 228 255
207 228 255
207 228 255
207 228 255
207 228 255
207 228 255
207 228 255
207 228 255
207 228 255
207 228 255
207 228 255
207 228 255
207 228 255
207 227 255
207 227 255
207 227 255
207 227 255
207 227 255
206 227 255
206 227 255
206 227 255
206 227 255
206 227 255
206 227 255
206 227 255
206 227 255
206 227 255
206 227 255
206 227 255
206 227 255
206 227 255
206 227 255
206 227 255
206 227 255
206 227 255
206 227 255
205 227 255
205 227 255
205 227 255
205 227 255
205 227 255
205 227 255
205 227 255
205 227 255
205 227 255
205 227 255
205 227 255
205 226 255
205 226 255
205 226 255
205 226 255
205 226 255
205 226 255
204 226 255
204 226 255
204 226 255
204 226 255
204 226 255
204 226 255
204 226 255
204 226 255
204 226 255
204 226 255
204 226 255
204 226 255
204 226 255
204 226 255
204 226 255
204 226 255
204 226 255
203 226 255
203 226 255
203 226 255
203 226 255
203 226 255
203 226 255
203 225 255
203 225 255
203 225 255
203 225 255
203 225 255
203 225 255
203 225 255
203 225 255
203 225 255
202 225 255
202 225 255
202 225 255
202 225 255
202 225 255
202 225 255
202 225 255
202 225 255
202 225 255
202 225 255
202 225 255
202 225 255
202 225 255
202 225 255
202 225 255
201 225 255
201 225 255
201 225 255
201 225 255
201 224 255
201 224 255
201 224 255
201 224 255
201 224 255
201 224 255
201 224 255
201 224 255
201 224 255
201 224 255
201 224 255
200 224 255
200 224 255
200 224 255
200 224 255
200 224 255
200 224 255
200 224 255
200 224 255
200 224 255
200 224 255
200 224 255
200 224 255
200 224 255
200 224 255
200 224 255
199 224 255
199 224 255
199 224 255
199 223 255
199 223 255
199 223 255
199 223 255
199 223 255
199 223 255
199 223 255
199 223 255
199 223 255
199 223 255
199 223 255
199 223 255
199 223 255
199 223 255
198 223 255
198 223 255
198 223 255
198 223 255
198 223 255
198 223 255
198 223 255
198 223 255
198 223 255
198 223 255
198 223 255
198 223 255
198 223 255
198 223 255
198 223 255
198 223 255
198 223 255
198 223 255
198 223 255
198 223 255
197 223 255
197 222 255
197 222 255
197 222 255
197 222 255
197 222 255
197 222 255
197 222 255
197 222 255
197 222 255
197 222 255
197 222 255
197 222 255
197 222 255
197 222 255
197 222 255
197 222 255
197 222 255
197 222 255
197 222 255
197 222 255
197 222 255
197 222 255
197 222 255
197 222 255
197 222 255
197 222 255
197 222 255
197 222 255
197 222 255
197 222 255
197 222 255
197 222 255
197 222 255
197 222 255
197 222 255
197 222 255
197 222 255
197 222 255
197 222 255
197 222 255
197 222 255
197 222 255
197 222 255
197 222 255
197 222 255
197 222 255
197 222 255
197 222 255
197 222 255
197 222 255
197 222 255
197 222 255
197 222 255
197 222 255
197 222 255
197 222 255
197 222 255
197 222 255
197 222 255
197 222 255
197 222 255
197 222 255
197 222 255
197 222 255
197 222 255
197 222 255
197 222 255
197 222 255
197 223 255
198 223 255
198 223 255
198 223 255
198 223 255
198 223 255
198 223 255
198 223 255
198 223 255
198 223 255
198 223 255
198 223 255
198 223 255
198 223 255
198 223 255
198 223 255
198 223 255
198 223 255
198 223 255
198 223 255
198 223 255
198 223 255
199 223 255
199 223 255
199 223 255
199 223 255
199 223 255
199 223 255
199 223 255
199 223 255
199 223 255
199 223 255
199 223 255
199 223 255
199 223 255
199 224 255
199 224 255
199 224 255
200 224 255
200 224 255
200 224 255
200 224 255
200 224 255
200 224 255
200 224 255
200 224 255
200 224 255
200 224 255
200 224 255
200 224 255
200 224 255
200 224 255
200 224 255
201 224 255
201 224 255
201 224 255
201 224 255
201 224 255
201 224 255
201 224 255
201 224 255
201 224 255
201 224 255
201 224 255
201 225 255
201 225 255
201 225 255
201 225 255
202 225 255
202 225 255
202 225 255
202 225 255
202 225 255
202 225 255
202 225 255
202 225 255
202 225 255
202 225 255
202 225 255
202 225 255
202 225 255
202 225 255
202 225 255
203 225 255
203 225 255
203 225 255
203 225 255
203 225 255
203 225 255
203 225 255
203 225 255
203 225 255
203 226 255
203 226 255
203 226 255
203 226 255
203 226 255
203 226 255
204 226 255
204 226 255
204 226 255
204 226 255
204 226 255
204 226 255
204 226 255
204 226 255
204 226 255
204 226 255
204 226 255
204 226 255
204 226 255
204 226 255
204 226 255
204 226 255
204 226 255
205 226 255
205 226 255
205 226 255
205 226 255
205 226 255
205 226 255
205 227 255
205 227 255
205 227 255
205 227 255
205 227 255
205 227 255
205 227 255
205 227 255
205 227 255
205 227 255
205 227 255
206 227 255
206 227 255
206 227 255
206 227 255
206 227 255
206 227 255
206 227 255
206 227 255
206 227 255
206 227 255
206 227 255
206 227 255
206 227 255
206 227 255
206 227 255
206 227 255
206 227 255
206 227 255
207 227 255
207 227 255
207 227 255
207 227 255
207 227 255
207 228 255
207 228 255
207 228 255
207 228 255
207 228 255
207 228 255
207 228 255
207 228 255
207 228 255
207 228 255
207 228 255
207 228 255
207 228 255
207 228 255
207 228 255
207 228 255
207 228 255
207 228 255
207 228 255
207 228 255
207 228 255
207 228 255
207 228 255
207 228 255
207 228 255
207 227 255
207 227 255
207 227 255
207 227 255
206 227 255
206 227 255
206 227 255
206 227 255
206 227 255
206 227 255
206 227 255
206 227 255
206 227 255
206 227 255
206 227 255
206 227 255
206 227 255
206 227 255
206 227 255
206 227 255
206 227 255
206 227 255
206 227 255
205 227 255
205 227 255
205 227 255
205 227 255
205 227 255
205 227 255
205 227 255
205 227 255
205 227 255
205 227 255
205 226 255
205 226 255
205 226 255
205 226 255
205 226 255
205 226 255
205 226 255
204 226 255
204 226 255
204 226 255
204 226 255
204 226 255
204 226 255
204 226 255
204 226 255
204 226 255
204 226 255
204 226 255
204 226 255
204 226 255
204 226 255
204 226 255
204 226 255
203 226 255
203 226 255
203 226 255
203 226 255
203 226 255
203 226 255
203 226 255
203 225 255
203 225 255
203 225 255
203 225 255
203 225 255
203 225 255
203 225 255
203 225 255
203 225 255
202 225 255
202 225 255
202 225 255
202 225 255
202 225 255
202 225 255
202 225 255
202 225 255
202 225 255
202 225 255
202 225 255
202 225 255
202 225 255
202 225 255
201 225 255
201 225 255
201 225 255
201 225 255
201 225 255
201 224 255
201 224 255
201 224 255
201 224 255
201 224 255
201 224 255
201 224 255
201 224 255
201 224 255
201 224 255
200 224 255
200 224 255
200 224 255
200 224 255
200 224 255
200 224 255
200 224 255
200 224 255
200 224 255
200 224 255
200 224 255
200 224 255
200 224 255
200 224 255
200 224 255
199 224 255
199 224 255
199 224 255
199 223 255
199 223 255
199 223 255
199 223 255
199 223 255
199 223 255
199 223 255
199 223 255
199 223 255
199 223 255
199 223 255
199 223 255
199 223 255
199 223 255
199 223 255
198 223 255
198 223 255
198 223 255
198 223 255
198 223 255
198 223 255
198 223 255
198 223 255
198 223 255
198 223 255
198 223 255
198 223 255
198 223 255
198 223 255
198 223 255
198 223 255
198 223 255
198 223 255
198 223 255
198 223 255
198 223 255
198 223 255
197 223 255
197 222 255
197 222 255
197 222 255
197 222 255
197 222 255
197 222 255
197 222 255
197 222 255
197 222 255
197 222 255
197 222 255
197 222 255
197 222 255
197 222 255
197 222 255
197 222 255
197 222 255
197 222 255
197 222 255
197 222 255
197 222 255
197 222 255
197 222 255
197 222 255
197 222 255
197 222 255
197 222 255
197 222 255
197 222 255
197 222 255
197 222 255
197 222 255
197 222 255
197 222 255
197 222 255
197 222 255
197 222 255
197 222 255
197 222 255
197 222 255
197 222 255
197 222 255
197 222 255
197 222 255
197 222 255
197 222 255
197 222 255
197 222 255
197 222 255
197 222 255
197 222 255
197 222 255
197 222 255
197 222 255
197 222 255
197 222 255
197 222 255
197 222 255
197 223 255
198 223 255
198 223 255
198 223 255
198 223 255
198 223 255
198 223 255
198 223 255
198 223 255
198 223 255
198 223 255
198 223 255
198 223 255
198 223 255
198 223 255
198 223 255
198 223 255
198 223 255
198 223 255
198 223 255
198 223 255
198 223 255
198 223 255
199 223 255
199 223 255
199 223 255
199 223 255
199 223 255
199 223 255
199 223 255
199 223 255
199 223 255
199 223 255
199 223 255
199 223 255
199 223 255
199 223 255
199 223 255
199 224 255
199 224 255
200 224 255
200 224 255
200 224 255
200 224 255
200 224 255
200 224 255
200 224 255
200 224 255
200 224 255
200 224 255
200 224 255
200 224 255
200 224 255
200 224 255
200 224 255
200 224 255
201 224 255
201 224 255
201 224 255
201 224 255
201 224 255
201 224 255
201 224 255
201 224 255
201 224 255
201 224 255
201 225 255
201 225 255
201 225 255
201 225 255
201 225 255
202 225 255
202 225 255
202 225 255
202 225 255
202 225 255
202 225 255
202 225 255
202 225 255
202 225 255
202 225 255
202 225 255
202 225 255
202 225 255
202 225 255
202 225 255
203 225 255
203 225 255
203 225 255
203 225 255
203 225 255
203 225 255
203 225 255
203 225 255
203 226 255
203 226 255
203 226 255
203 226 255
203 226 255
203 226 255
203 226 255
204 226 255
204 226 255
204 226 255
204 226 255
204 226 255
204 226 255
204 226 255
204 226 255
204 226 255
204 226 255
204 226 255
204 226 255
204 226 255
204 226 255
204 226 255
204 226 255
205 226 255
205 226 255
205 226 255
205 226 255
205 226 255
205 226 255
205 226 255
205 227 255
205 227 255
205 227 255
205 227 255
205 227 255
205 227 255
205 227 255
205 227 255
205 227 255
205 227 255
206 227 255
206 227 255
206 227 255
206 227 255
206 227 255
206 227 255
206 227 255
206 227 255
206 227 255
206 227 255
206 227 255
206 227 255
206 227 255
206 227 255
206 227 255
206 227 255
206 227 255
206 227 255
206 227 255
207 227 255
207 227 255
207 227 255
207 227 255
207 228 255
207 228 255
207 228 255
207 228 255
207 228 255
207 228 255
207 228 255
207 228 255
207 228 255
207 228 255
207 228 255
207 228 255
207 228 255
207 228 255
208 228 255
207 228 255
207 228 255
207 228 255
207 228 255
207 228 255
207 228 255
207 228 255
207 228 255
207 228 255
207 228 255
207 228 255
207 228 255
207 228 255
207 228 255
207 228 255
207 228 255
207 227 255
207 227 255
207 227 255
207 227 255
206 227 255
206 227 255
206 227 255
206 227 255
206 227 255
206 227 255
206 227 255
206 227 255
206 227 255
206 227 255
206 227 255
206 227 255
206 227 255
206 227 255
206 227 255
206 227 255
206 227 255
206 227 255
206 227 255
205 227 255
205 227 255
205 227 255
205 227 255
205 227 255
205 227 255
205 227 255
205 227 255
205 227 255
205 227 255
205 226 255
205 226 255
205 226 255
205 226 255
205 226 255
205 226 255
205 226 255
204 226 255
204 226 255
204 226 255
204 226 255
204 226 255
204 226 255
204 226 255
204 226 255
204 226 255
204 226 255
204 226 255
204 226 255
204 226 255
204 226 255
204 226 255
204 226 255
203 226 255
203 226 255
203 226 255
203 226 255
203 226 255
203 226 255
203 226 255
203 225 255
203 225 255
203 225 255
203 225 255
203 225 255
203 225 255
203 225 255
203 225 255
202 225 255
202 225 255
202 225 255
202 225 255
202 225 255
202 225 255
202 225 255
202 225 255
202 225 255
202 225 255
202 225 255
202 225 255
202 225 255
202 225 255
202 225 255
201 225 255
201 225 255
201 225 255
201 225 255
201 224 255
201 224 255
201 224 255
201 224 255
201 224 255
201 224 255
201 224 255
201 224 255
201 224 255
201 224 255
201 224 255
200 224 255
200 224 255
200 224 255
200 224 255
200 224 255
200 224 255
200 224 255
200 224 255
200 224 255
200 224 255
200 224 255
200 224 255
200 224 255
200 224 255
200 224 255
200 224 255
199 224 255
199 224 255
199 223 255
199 223 255
199 223 255
199 223 255
199 223 255
199 223 255
199 223 255
199 223 255
199 223 255
199 223 255
199 223 255
199 223 255
199 223 255
199 223 255
199 223 255
198 223 255
198 223 255
198 223 255
198 223 255
198 223 255
198 223 255
198 223 255
198 223 255
198 223 255
198 223 255
198 223 255
198 223 255
198 223 255
198 223 255
198 223 255
198 223 255
198 223 255
198 223 255
198 223 255
198 223 255
198 223 255
198 223 255
198 223 255
198 223 255
198 223 255
197 222 255
197 222 255
197 222 255
197 222 255
197 222 255
197 222 255
197 222 255
197 222 255
197 222 255
197 222 255
197 222 255
197 222 255
197 222 255
197 222 255
197 222 255
197 222 255
197 222 255
197 222 255
197 222 255
197 222 255
197 222 255
197 222 255
197 222 255
197 222 255
197 222 255
197 222 255
197 222 255
197 222 255
197 222 255
197 222 255
197 222 255
197 222 255
197 222 255
197 222 255
197 222 255
197 222 255
197 222 255
197 222 255
197 222 255
197 222 255
197 222 255
197 222 255
197 222 255
197 222 255
197 222 255
197 222 255
197 222 255
197 223 255
197 223 255
198 223 255
198 223 255
198 223 255
198 223 255
198 223 255
198 223 255
198 223 255
198 223 255
198 223 255
198 223 255
198 223 255
198 223 255
198 223 255
198 223 255
198 223 255
198 223 255
198 223 255
198 223 255
198 223 255
198 223 255
198 223 255
198 223 255
198 223 255
198 223 255
199 223 255
199 223 255
199 223 255
199 223 255
199 223 255
199 223 255
199 223 255
199 223 255
199 223 255
199 223 255
199 223 255
199 223 255
199 223 255
199 223 255
199 223 255
199 224 255
199 224 255
200 224 255
200 224 255
200 224 255
200 224 255
200 224 255
200 224 255
200 224 255
200 224 255
200 224 255
200 224 255
200 224 255
200 224 255
200 224 255
200 224 255
200 224 255
200 224 255
201 224 255
201 224 255
201 224 255
201 224 255
201 224 255
201 224 255
201 224 255
201 224 255
201 224 255
201 224 255
201 224 255
201 225 255
201 225 255
201 225 255
201 225 255
202 225 255
202 225 255
202 225 255
202 225 255
202 225 255
202 225 255
202 225 255
202 225 255
202 225 255
202 225 255
202 225 255
202 225 255
202 225 255
202 225 255
202 225 255
203 225 255
203 225 255
203 225 255
203 225 255
203 225 255
203 225 255
203 225 255
203 225 255
203 225 255
203 226 255
203 226 255
203 226 255
203 226 255
203 226 255
203 226 255
204 226 255
204 226 255
204 226 255
204 226 255
204 226 255
204 226 255
204 226 255
204 226 255
204 226 255
204 226 255
204 226 255
204 226 255
204 226 255
204 226 255
204 226 255
204 226 255
205 226 255
205 226 255
205 226 255
205 226 255
205 226 255
205 226 255
205 226 255
205 227 255
205 227 255
205 227 255
205 227 255
205 227 255
205 227 255
205 227 255
205 227 255
205 227 255
205 227 255
206 227 255
206 227 255
206 227 255
206 227 255
206 227 255
206 227 255
206 227 255
206 227 255
206 227 255
206 227 255
206 227 255
206 227 255
206 227 255
206 227 255
206 227 255
206 227 255
206 227 255
206 227 255
206 227 255
207 227 255
207 227 255
207 227 255
207 227 255
207 228 255
207 228 255
207 228 255
207 228 255
207 228 255
207 228 255
207 228 255
207 228 255
207 228 255
207 228 255
207 228 255
207 228 255
207 228 255
207 228 255
207 228 255
207 228 255
208 228 255
208 228 255
208 228 255
208 228 255
208 228 255
207 228 255
207 228 255
207 228 255
207 228 255
207 228 255
207 228 255
207 228 255
207 228 255
207 228 255
207 228 255
207 228 255
207 228 255
207 228 255
207 228 255
207 228 255
207 227 255
207 227 255
207 227 255
207 227 255
207 227 255
206 227 255
206 227 255
206 227 255
206 227 255
206 227 255
206 227 255
206 227 255
206 227 255
206 227 255
206 227 255
206 227 255
206 227 255
206 227 255
206 227 255
206 227 255
206 227 255
206 227 255
206 227 255
205 227 255
205 227 255
205 227 255
205 227 255
205 227 255
205 227 255
205 227 255
205 227 255
205 227 255
205 227 255
205 227 255
205 226 255
205 226 255
205 226 255
205 226 255
205 226 255
205 226 255
204 226 255
204 226 255
204 226 255
204 226 255
204 226 255
204 226 255
204 226 255
204 226 255
204 226 255
204 226 255
204 226 255
204 226 255
204 226 255
204 226 255
204 226 255
204 226 255
203 226 255
203 226 255
203 226 255
203 226 255
203 226 255
203 226 255
203 226 255
203 225 255
203 225 255
203 225 255
203 225 255
203 225 255
203 225 255
203 225 255
203 225 255
202 225 255
202 225 255
202 225 255
202 225 255
202 225 255
202 225 255
202 225 255
202 225 255
202 225 255
202 225 255
202 225 255
202 225 255
202 225 255
202 225 255
202 225 255
202 225 255
201 225 255
201 225 255
201 225 255
201 225 255
201 224 255
201 224 255
201 224 255
201 224 255
201 224 255
201 224 255
201 224 255
201 224 255
201 224 255
201 224 255
201 224 255
200 224 255
200 224 255
200 224 255
200 224 255
200 224 255
200 224 255
200 224 255
200 224 255
200 224 255
200 224 255
200 224 255
200 224 255
200 224 255
200 224 255
200 224 255
200 224 255
199 224 255
199 224 255
199 223 255
199 223 255
199 223 255
199 223 255
199 223 255
199 223 255
199 223 255
199 223 255
199 223 255
199 223 255
199 223 255
199 223 255
199 223 255
199 223 255
199 223 255
199 223 255
198 223 255
198 223 255
198 223 255
198 223 255
198 223 255
198 223 255
198 223 255
198 223 255
198 223 255
198 223 255
198 223 255
198 223 255
198 223 255
198 223 255
198 223 255
198 223 255
198 223 255
198 223 255
198 223 255
198 223 255
198 223 255
198 223 255
198 223 255
198 223 255
198 223 255
198 223 255
198 223 255
198 223 255
197 223 255
197 222 255
197 222 255
197 222 255
197 222 255
197 222 255
197 222 255
197 222 255
197 222 255
197 222 255
197 222 255
197 222 255
197 222 255
197 222 255
197 222 255
197 222 255
197 222 255
197 222 255
197 222 255
197 222 255
197 222 255
197 222 255
197 222 255
197 222 255
197 222 255
197 222 255
197 222 255
197 222 255
197 222 255
197 222 255
197 222 255
197 222 255
197 222 255
197 223 255
198 223 255
198 223 255
198 223 255
198 223 255
198 223 255
198 223 255
198 223 255
198 223 255
198 223 255
198 223 255
198 223 255
198 223 255
198 223 255
198 223 255
198 223 255
198 223 255
198 223 255
198 223 255
198 223 255
198 223 255
198 223 255
198 223 255
198 223 255
198 223 255
198 223 255
198 223 255
198 223 255
198 223 255
199 223 255
199 223 255
199 223 255
199 223 255
199 223 255
199 223 255
199 223 255
199 223 255
199 223 255
199 223 255
199 223 255
199 223 255
199 223 255
199 223 255
199 223 255
199 223 255
199 224 255
199 224 255
199 224 255
200 224 255
200 224 255
200 224 255
200 224 255
200 224 255
200 224 255
200 224 255
200 224 255
200 224 255
200 224 255
200 224 255
200 224 255
200 224 255
200 224 255
200 224 255
201 224 255
201 224 255
201 224 255
201 224 255
201 224 255
201 224 255
201 224 255
201 224 255
201 224 255
201 224 255
201 224 255
201 225 255
201 225 255
201 225 255
201 225 255
202 225 255
202 225 255
202 225 255
202 225 255
202 225 255
202 225 255
202 225 255
202 225 255
202 225 255
202 225 255
202 225 255
202 225 255
202 225 255
202 225 255
202 225 255
203 225 255
203 225 255
203 225 255
203 225 255
203 225 255
203 225 255
203 225 255
203 225 255
203 225 255
203 226 255
203 226 255
203 226 255
203 226 255
203 226 255
203 226 255
203 226 255
204 226 255
204 226 255
204 226 255
204 226 255
204 226 255
204 226 255
204 226 255
204 226 255
204 226 255
204 226 255
204 226 255
204 226 255
204 226 255
204 226 255
204 226 255
204 226 255
205 226 255
205 226 255
205 226 255
205 226 255
205 226 255
205 226 255
205 227 255
205 227 255
205 227 255
205 227 255
205 227 255
205 227 255
205 227 255
205 227 255
205 227 255
205 227 255
205 227 255
206 227 255
206 227 255
206 227 255
206 227 255
206 227 255
206 227 255
206 227 255
206 227 255
206 227 255
206 227 255
206 227 255
206 227 255
206 227 255
206 227 255
206 227 255
206 227 255
206 227 255
206 227 255
207 227 255
207 227 255
207 227 255
207 227 255
207 228 255
207 228 255
207 228 255
207 228 255
207 228 255
207 228 255
207 228 255
207 228 255
207 228 255
207 228 255
207 228 255
207 228 255
207 228 255
207 228 255
207 228 255
207 228 255
208 228 255
208 228 255
208 228 255
208 228 255
208 228 255
208 228 255
208 228 255
208 228 255
208 228 255
208 228 255
208 228 255
207 228 255
207 228 255
207 228 255
207 228 255
207 228 255
207 228 255
207 228 255
207 228 255
207 228 255
207 228 255
207 228 255
207 228 255
207 228 255
207 228 255
207 228 255
207 227 255
207 227 255
207 227 255
207 227 255
207 227 255
206 227 255
206 227 255
206 227 255
206 227 255
206 227 255
206 227 255
206 227 255
206 227 255
206 227 255
206 227 255
206 227 255
206 227 255
206 227 255
206 227 255
206 227 255
206 227 255
206 227 255
206 227 255
205 227 255
205 227 255
205 227 255
205 227 255
205 227 255
205 227 255
205 227 255
205 227 255
205 227 255
205 227 255
205 226 255
205 226 255
205 226 255
205 226 255
205 226 255
205 226 255
205 226 255
204 226 255
204 226 255
204 226 255
204 226 255
204 226 255
204 226 255
204 226 255
204 226 255
204 226 255
204 226 255
204 226 255
204 226 255
204 226 255
204 226 255
204 226 255
204 226 255
203 226 255
203 226 255
203 226 255
203 226 255
203 226 255
203 226 255
203 226 255
203 225 255
203 225 255
203 225 255
203 225 255
203 225 255
203 225 255
203 225 255
203 225 255
202 225 255
202 225 255
202 225 255
202 225 255
202 225 255
202 225 255
202 225 255
202 225 255
202 225 255
202 225 255
202 225 255
202 225 255
202 225 255
202 225 255
202 225 255
201 225 255
201 225 255
201 225 255
201 225 255
201 225 255
201 224 255
201 224 255
201 224 255
201 224 255
201 224 255
201 224 255
201 224 255
201 224 255
201 224 255
201 224 255
200 224 255
200 224 255
200 224 255
200 224 255
200 224 255
200 224 255
200 224 255
200 224 255
200 224 255
200 224 255
200 224 255
200 224 255
200 224 255
200 224 255
200 224 255
200 224 255
200 224 255
199 224 255
199 224 255
199 223 255
199 223 255
199 223 255
199 223 255
199 223 255
199 223 255
199 223 255
199 223 255
199 223 255
199 223 255
199 223 255
199 223 255
199 223 255
199 223 255
199 223 255
199 223 255
199 223 255
198 223 255
198 223 255
198 223 255
198 223 255
198 223 255
198 223 255
198 223 255
198 223 255
198 223 255
198 223 255
198 223 255
198 223 255
198 223 255
198 223 255
198 223 255
198 223 255
198 223 255
198 223 255
198 223 255
198 223 255
198 223 255
198 223 255
198 223 255
198 223 255
198 223 255
198 223 255
198 223 255
198 223 255
198 223 255
198 223 255
198 223 255
198 223 255
198 223 255
198 223 255
198 223 255
198 223 255
198 223 255
198 223 255
198 223 255
197 223 255
197 223 255
197 223 255
198 223 255
198 223 255
198 223 255
198 223 255
198 223 255
198 223 255
198 223 255
198 223 255
198 223 255
198 223 255
198 223 255
198 223 255
198 223 255
198 223 255
198 223 255
198 223 255
198 223 255
198 223 255
198 223 255
198 223 255
198 223 255
198 223 255
198 223 255
198 223 255
198 223 255
198 223 255
198 223 255
198 223 255
198 223 255
198 223 255
198 223 255
198 223 255
198 223 255
198 223 255
198 223 255
198 223 255
198 223 255
198 223 255
198 223 255
198 223 255
199 223 255
199 223 255
199 223 255
199 223 255
199 223 255
199 223 255
199 223 255
199 223 255
199 223 255
199 223 255
199 223 255
199 223 255
199 223 255
199 223 255
199 223 255
199 223 255
199 223 255
199 224 255
199 224 255
200 224 255
200 224 255
200 224 255
200 224 255
200 224 255
200 224 255
200 224 255
200 224 255
200 224 255
200 224 255
200 224 255
200 224 255
200 224 255
200 224 255
200 224 255
200 224 255
200 224 255
201 224 255
201 224 255
201 224 255
201 224 255
201 224 255
201 224 255
201 224 255
201 224 255
201 224 255
201 224 255
201 224 255
201 225 255
201 225 255
201 225 255
201 225 255
202 225 255
202 225 255
202 225 255
202 225 255
202 225 255
202 225 255
202 225 255
202 225 255
202 225 255
202 225 255
202 225 255
202 225 255
202 225 255
202 225 255
202 225 255
203 225 255
203 225 255
203 225 255
203 225 255
203 225 255
203 225 255
203 225 255
203 225 255
203 226 255
203 226 255
203 226 255
203 226 255
203 226 255
203 226 255
203 226 255
204 226 255
204 226 255
204 226 255
204 226 255
204 226 255
204 226 255
204 226 255
204 226 255
204 226 255
204 226 255
204 226 255
204 226 255
204 226 255
204 226 255
204 226 255
204 226 255
205 226 255
205 226 255
205 226 255
205 226 255
205 226 255
205 226 255
205 226 255
205 227 255
205 227 255
205 227 255
205 227 255
205 227 255
205 227 255
205 227 255
205 227 255
205 227 255
205 227 255
206 227 255
206 227 255
206 227 255
206 227 255
206 227 255
206 227 255
206 227 255
206 227 255
206 227 255
206 227 255
206 227 255
206 227 255
206 227 255
206 227 255
206 227 255
206 227 255
206 227 255
206 227 255
207 227 255
207 227 255
207 227 255
207 227 255
207 227 255
207 228 255
207 228 255
207 228 255
207 228 255
207 228 255
207 228 255
207 228 255
207 228 255
207 228 255
207 228 255
207 228 255
207 228 255
207 228 255
207 228 255
207 228 255
208 228 255
208 228 255
208 228 255
208 228 255
208 228 255
208 228 255
208 228 255
208 228 255
208 228 255
208 228 255
208 228 255
208 228 255
208 228 255
208 228 255
208 228 255
208 228 255
208 228 255
207 228 255
207 228 255
207 228 255
207 228 255
207 228 255
207 228 255
207 228 255
207 228 255
207 228 255
207 228 255
207 228 255
207 228 255
207 228 255
207 228 255
207 228 255
207 227 255
207 227 255
207 227 255
207 227 255
207 227 255
206 227 255
206 227 255
206 227 255
206 227 255
206 227 255
206 227 255
206 227 255
206 227 255
206 227 255
206 227 255
206 227 255
206 227 255
206 227 255
206 227 255
206 227 255
206 227 255
206 227 255
206 227 255
205 227 255
205 227 255
205 227 255
205 227 255
205 227 255
205 227 255
205 227 255
205 227 255
205 227 255
205 227 255
205 226 255
205 226 255
205 226 255
205 226 255
205 226 255
205 226 255
205 226 255
204 226 255
204 226 255
204 226 255
204 226 255
204 226 255
204 226 255
204 226 255
204 226 255
204 226 255
204 226 255
204 226 255
204 226 255
204 226 255
204 226 255
204 226 255
204 226 255
203 226 255
203 226 255
203 226 255
203 226 255
203 226 255
203 226 255
203 225 255
203 225 255
203 225 255
203 225 255
203 225 255
203 225 255
203 225 255
203 225 255
203 225 255
202 225 255
202 225 255
202 225 255
202 225 255
202 225 255
202 225 255
202 225 255
202 225 255
202 225 255
202 225 255
202 225 255
202 225 255
202 225 255
202 225 255
202 225 255
201 225 255
201 225 255
201 225 255
201 225 255
201 224 255
201 224 255
201 224 255
201 224 255
201 224 255
201 224 255
201 224 255
201 224 255
201 224 255
201 224 255
201 224 255
200 224 255
200 224 255
200 224 255
200 224 255
200 224 255
200 224 255
200 224 255
200 224 255
200 224 255
200 224 255
200 224 255
200 224 255
200 224 255
200 224 255
200 224 255
200 224 255
200 224 255
199 224 255
199 224 255
199 223 255
199 223 255
199 223 255
199 223 255
199 223 255
199 223 255
199 223 255
199 223 255
199 223 255
199 223 255
199 223 255
199 223 255
199 223 255
199 223 255
199 223 255
199 223 255
199 223 255
199 223 255
198 223 255
198 223 255
198 223 255
198 223 255
198 223 255
198 223 255
198 223 255
198 223 255
198 223 255
198 223 255
198 223 255
198 223 255
198 223 255
198 223 255
198 223 255
198 223 255
198 223 255
198 223 255
198 223 255
198 223 255
198 223 255
198 223 255
198 223 255
198 223 255
198 223 255
198 223 255
198 223 255
198 223 255
198 223 255
198 223 255
198 223 255
198 223 255
198 223 255
198 223 255
198 223 255
198 223 255
198 223 255
198 223 255
198 223 255
198 223 255
198 223 255
198 223 255
198 223 255
198 223 255
198 223 255
198 223 255
198 223 255
198 223 255
198 223 255
198 223 255
198 223 255
198 223 255
198 223 255
198 223 255
198 223 255
198 223 255
198 223 255
198 223 255
198 223 255
198 223 255
198 223 255
198 223 255
198 223 255
198 223 255
198 223 255
198 223 255
198 223 255
198 223 255
198 223 255
198 223 255
198 223 255
198 223 255
198 223 255
198 223 255
199 223 255
199 223 255
199 223 255
199 223 255
199 223 255
199 223 255
199 223 255
199 223 255
199 223 255
199 223 255
199 223 255
199 223 255
199 223 255
199 223 255
199 223 255
199 223 255
199 223 255
199 224 255
199 224 255
199 224 255
200 224 255
200 224 255
200 224 255
200 224 255
200 224 255
200 224 255
200 224 255
200 224 255
200 224 255
200 224 255
200 224 255
200 224 255
200 224 255
200 224 255
200 224 255
200 224 255
200 224 255
201 224 255
201 224 255
201 224 255
201 224 255
201 224 255
201 224 255
201 224 255
201 224 255
201 224 255
201 224 255
201 224 255
201 225 255
201 225 255
201 225 255
201 225 255
202 225 255
202 225 255
202 225 255
202 225 255
202 225 255
202 225 255
202 225 255
202 225 255
202 225 255
202 225 255
202 225 255
202 225 255
202 225 255
202 225 255
202 225 255
203 225 255
203 225 255
203 225 255
203 225 255
203 225 255
203 225 255
203 225 255
203 225 255
203 225 255
203 226 255
203 226 255
203 226 255
203 226 255
203 226 255
203 226 255
204 226 255
204 226 255
204 226 255
204 226 255
204 226 255
204 226 255
204 226 255
204 226 255
204 226 255
204 226 255
204 226 255
204 226 255
204 226 255
204 226 255
204 226 255
204 226 255
205 226 255
205 226 255
205 226 255
205 226 255
205 226 255
205 226 255
205 226 255
205 227 255
205 227 255
205 227 255
205 227 255
205 227 255
205 227 255
205 227 255
205 227 255
205 227 255
205 227 255
206 227 255
206 227 255
206 227 255
206 227 255
206 227 255
206 227 255
206 227 255
206 227 255
206 227 255
206 227 255
206 227 255
206 227 255
206 227 255
206 227 255
206 227 255
206 227 255
206 227 255
206 227 255
207 227 255
207 227 255
207 227 255
207 227 255
207 227 255
207 228 255
207 228 255
207 228 255
207 228 255
207 228 255
207 228 255
207 228 255
207 228 255
207 228 255
207 228 255
207 228 255
207 228 255
207 228 255
207 228 255
207 228 255
208 228 255
208 228 255
208 228 255
208 228 255
208 228 255
208 228 255
208 228 255
208 228 255
208 228 255
208 228 255
208 228 255
208 228 255
208 228 255
208 228 255
208 228 255
208 228 255
208 228 255
208 228 255
208 228 255
208 228 255
208 228 255
208 228 255
208 228 255
207 228 255
207 228 255
207 228 255
207 228 255
207 228 255
207 228 255
207 228 255
207 228 255
207 228 255
207 228 255
207 228 255
207 228 255
207 228 255
207 228 255
207 228 255
207 227 255
207 227 255
207 227 255
207 227 255
207 227 255
206 227 255
206 227 255
206 227 255
206 227 255
206 227 255
206 227 255
206 227 255
206 227 255
206 227 255
206 227 255
206 227 255
206 227 255
206 227 255
206 227 255
206 227 255
206 227 255
206 227 255
206 227 255
205 227 255
205 227 255
205 227 255
205 227 255
205 227 255
205 227 255
205 227 255
205 227 255
205 227 255
205 227 255
205 226 255
205 226 255
205 226 255
205 226 255
205 226 255
205 226 255
205 226 255
204 226 255
204 226 255
204 226 255
204 226 255
204 226 255
204 226 255
204 226 255
204 226 255
204 226 255
204 226 255
204 226 255
204 226 255
204 226 255
204 226 255
204 226 255
203 226 255
203 226 255
203 226 255
203 226 255
203 226 255
203 226 255
203 226 255
203 225 255
203 225 255
203 225 255
203 225 255
203 225 255
203 225 255
203 225 255
203 225 255
202 225 255
202 225 255
202 225 255
202 225 255
202 225 255
202 225 255
202 225 255
202 225 255
202 225 255
202 225 255
202 225 255
202 225 255
202 225 255
202 225 255
202 225 255
202 225 255
201 225 255
201 225 255
201 225 255
201 225 255
201 224 255
201 224 255
201 224 255
201 224 255
201 224 255
201 224 255
201 224 255
201 224 255
201 224 255
201 224 255
201 224 255
200 224 255
200 224 255
200 224 255
200 224 255
200 224 255
200 224 255
200 224 255
200 224 255
200 224 255
200 224 255
200 224 255
200 224 255
200 224 255
200 224 255
200 224 255
200 224 255
200 224 255
199 224 255
199 224 255
199 224 255
199 223 255
199 223 255
199 223 255
199 223 255
199 223 255
199 223 255
199 223 255
199 223 255
199 223 255
199 223 255
199 223 255
199 223 255
199 223 255
199 223 255
199 223 255
199 223 255
199 223 255
199 223 255
199 223 255
198 223 255
198 223 255
198 223 255
198 223 255
198 223 255
198 223 255
198 223 255
198 223 255
198 223 255
198 223 255
198 223 255
198 223 255
198 223 255
198 223 255
198 223 255
198 223 255
198 223 255
198 223 255
198 223 255
198 223 255
198 223 255
198 223 255
198 223 255
198 223 255
198 223 255
198 223 255
198 223 255
198 223 255
198 223 255
198 223 255
198 223 255
198 223 255
198 223 255
198 223 255
198 223 255
198 223 255
198 223 255
198 223 255
198 223 255
198 223 255
198 223 255
198 223 255
198 223 255
198 223 255
198 223 255
198 223 255
198 223 255
198 223 255
198 223 255
198 223 255
198 223 255
198 223 255
198 223 255
198 223 255
198 223 255
198 223 255
198 223 255
198 223 255
198 223 255
198 223 255
198 223 255
198 223 255
198 223 255
198 223 255
199 223 255
199 223 255
199 223 255
199 223 255
199 223 255
199 223 255
199 223 255
199 223 255
199 223 255
199 223 255
199 223 255
199 223 255
199 223 255
199 223 255
199 223 255
199 223 255
199 223 255
199 223 255
199 223 255
199 224 255
199 224 255
199 224 255
200 224 255
200 224 255
200 224 255
200 224 255
200 224 255
200 224 255
200 224 255
200 224 255
200 224 255
200 224 255
200 224 255
200 224 255
200 224 255
200 224 255
200 224 255
200 224 255
200 224 255
201 224 255
201 224 255
201 224 255
201 224 255
201 224 255
201 224 255
201 224 255
201 224 255
201 224 255
201 224 255
201 224 255
201 225 255
201 225 255
201 225 255
201 225 255
202 225 255
202 225 255
202 225 255
202 225 255
202 225 255
202 225 255
202 225 255
202 225 255
202 225 255
202 225 255
202 225 255
202 225 255
202 225 255
202 225 255
202 225 255
202 225 255
203 225 255
203 225 255
203 225 255
203 225 255
203 225 255
203 225 255
203 225 255
203 225 255
203 226 255
203 226 255
203 226 255
203 226 255
203 226 255
203 226 255
203 226 255
204 226 255
204 226 255
204 226 255
204 226 255
204 226 255
204 226 255
204 226 255
204 226 255
204 226 255
204 226 255
204 226 255
204 226 255
204 226 255
204 226 255
204 226 255
204 226 255
205 226 255
205 226 255
205 226 255
205 226 255
205 226 255
205 226 255
205 227 255
205 227 255
205 227 255
205 227 255
205 227 255
205 227 255
205 227 255
205 227 255
205 227 255
205 227 255
206 227 255
206 227 255
206 227 255
206 227 255
206 227 255
206 227 255
206 227 255
206 227 255
206 227 255
206 227 255
206 227 255
206 227 255
206 227 255
206 227 255
206 227 255
206 227 255
206 227 255
206 227 255
207 227 255
207 227 255
207 227 255
207 227 255
207 227 255
207 228 255
207 228 255
207 228 255
207 228 255
207 228 255
207 228 255
207 228 255
207 228 255
207 228 255
207 228 255
207 228 255
207 228 255
207 228 255
207 228 255
207 228 255
208 228 255
208 228 255
208 228 255
208 228 255
208 228 255
208 228 255
208 228 255
208 228 255
208 228 255
208 228 255
208 228 255
208 228 255
208 228 255
208 228 255
208 228 255
208 228 255
208 228 255
208 228 255
208 228 255
208 228 255
208 228 255
208 228 255
208 228 255
208 228 255
208 228 255
208 228 255
208 228 255
208 228 255
208 228 255
207 228 255
207 228 255
207 228 255
207 228 255
207 228 255
207 228 255
207 228 255
207 228 255
207 228 255
207 228 255
207 228 255
207 228 255
207 228 255
207 228 255
207 228 255
207 227 255
207 227 255
207 227 255
207 227 255
207 227 255
206 227 255
206 227 255
206 227 255
206 227 255
206 227 255
206 227 255
206 227 255
206 227 255
206 227 255
206 227 255
206 227 255
206 227 255
206 227 255
206 227 255
206 227 255
206 227 255
206 227 255
206 227 255
205 227 255
205 227 255
205 227 255
205 227 255
205 227 255
205 227 255
205 227 255
205 227 255
205 227 255
205 227 255
205 226 255
205 226 255
205 226 255
205 226 255
205 226 255
205 226 255
204 226 255
204 226 255
204 226 255
204 226 255
204 226 255
204 226 255
204 226 255
204 226 255
204 226 255
204 226 255
204 226 255
204 226 255
204 226 255
204 226 255
204 226 255
204 226 255
203 226 255
203 226 255
203 226 255
203 226 255
203 226 255
203 226 255
203 226 255
203 225 255
203 225 255
203 225 255
203 225 255
203 225 255
203 225 255
203 225 255
203 225 255
202 225 255
202 225 255
202 225 255
202 225 255
202 225 255
202 225 255
202 225 255
202 225 255
202 225 255
202 225 255
202 225 255
202 225 255
202 225 255
202 225 255
202 225 255
201 225 255
201 225 255
201 225 255
201 225 255
201 225 255
201 224 255
201 224 255
201 224 255
201 224 255
201 224 255
201 224 255
201 224 255
201 224 255
201 224 255
201 224 255
201 224 255
200 224 255
200 224 255
200 224 255
200 224 255
200 224 255
200 224 255
200 224 255
200 224 255
200 224 255
200 224 255
200 224 255
200 224 255
200 224 255
200 224 255
200 224 255
200 224 255
200 224 255
200 224 255
199 224 255
199 224 255
199 224 255
199 223 255
199 223 255
199 223 255
199 223 255
199 223 255
199 223 255
199 223 255
199 223 255
199 223 255
199 223 255
199 223 255
199 223 255
199 223 255
199 223 255
199 223 255
199 223 255
199 223 255
199 223 255
199 223 255
199 223 255
198 223 255
198 223 255
198 223 255
198 223 255
198 223 255
198 223 255
198 223 255
198 223 255
198 223 255
198 223 255
198 223 255
198 223 255
198 223 255
198 223 255
198 223 255
198 223 255
198 223 255
198 223 255
198 223 255
198 223 255
198 223 255
198 223 255
198 223 255
198 223 255
198 223 255
198 223 255
198 223 255
198 223 255
198 223 255
198 223 255
198 223 255
198 223 255
198 223 255
198 223 255
198 223 255
198 223 255
198 223 255
198 223 255
198 223 255
198 223 255
198 223 255
198 223 255
198 223 255
198 223 255
198 223 255
198 223 255
198 223 255
198 223 255
198 223 255
198 223 255
198 223 255
198 223 255
198 223 255
198 223 255
199 223 255
199 223 255
199 223 255
199 223 255
199 223 255
199 223 255
199 223 255
199 223 255
199 223 255
199 223 255
199 223 255
199 223 255
199 223 255
199 223 255
199 223 255
199 223 255
199 223 255
199 223 255
199 223 255
199 223 255
199 224 255
199 224 255
199 224 255
199 224 255
200 224 255
200 224 255
200 224 255
200 224 255
200 224 255
200 224 255
200 224 255
200 224 255
200 224 255
200 224 255
200 224 255
200 224 255
200 224 255
200 224 255
200 224 255
200 224 255
200 224 255
201 224 255
201 224 255
201 224 255
201 224 255
201 224 255
201 224 255
201 224 255
201 224 255
201 224 255
201 224 255
201 224 255
201 225 255
201 225 255
201 225 255
201 225 255
201 225 255
202 225 255
202 225 255
202 225 255
202 225 255
202 225 255
202 225 255
202 225 255
202 225 255
202 225 255
202 225 255
202 225 255
202 225 255
202 225 255
202 225 255
202 225 255
203 225 255
203 225 255
203 225 255
203 225 255
203 225 255
203 225 255
203 225 255
203 225 255
203 226 255
203 226 255
203 226 255
203 226 255
203 226 255
203 226 255
203 226 255
204 226 255
204 226 255
204 226 255
204 226 255
204 226 255
204 226 255
204 226 255
204 226 255
204 226 255
204 226 255
204 226 255
204 226 255
204 226 255
204 226 255
204 226 255
204 226 255
205 226 255
205 226 255
205 226 255
205 226 255
205 226 255
205 226 255
205 227 255
205 227 255
205 227 255
205 227 255
205 227 255
205 227 255
205 227 255
205 227 255
205 227 255
205 227 255
206 227 255
206 227 255
206 227 255
206 227 255
206 227 255
206 227 255
206 227 255
206 227 255
206 227 255
206 227 255
206 227 255
206 227 255
206 227 255
206 227 255
206 227 255
206 227 255
206 227 255
206 227 255
207 227 255
207 227 255
207 227 255
207 227 255
207 227 255
207 228 255
207 228 255
207 228 255
207 228 255
207 228 255
207 228 255
207 228 255
207 228 255
207 228 255
207 228 255
207 228 255
207 228 255
207 228 255
207 228 255
207 228 255
208 228 255
208 228 255
208 228 255
208 228 255
208 228 255
208 228 255
208 228 255
208 228 255
208 228 255
208 228 255
208 228 255
208 228 255
208 228 255
208 228 255
208 228 255
208 228 255
208 228 255
208 228 255
208 228 255
208 228 255
208 228 255
208 228 255
208 228 255
208 228 255
208 228 255
208 228 255
208 228 255
208 228 255
208 228 255
208 228 255
208 228 255
208 228 255
208 228 255
208 228 255
208 228 255
207 228 255
207 228 255
207 228 255
207 228 255
207 228 255
207 228 255
207 228 255
207 228 255
207 228 255
207 228 255
207 228 255
207 228 255
207 228 255
207 228 255
207 228 255
207 227 255
207 227 255
207 227 255
207 227 255
207 227 255
206 227 255
206 227 255
206 227 255
206 227 255
206 227 255
206 227 255
206 227 255
206 227 255
206 227 255
206 227 255
206 227 255
206 227 255
206 227 255
206 227 255
206 227 255
206 227 255
206 227 255
205 227 255
205 227 255
205 227 255
205 227 255
205 227 255
205 227 255
205 227 255
205 227 255
205 227 255
205 227 255
205 226 255
205 226 255
205 226 255
205 226 255
205 226 255
205 226 255
205 226 255
204 226 255
204 226 255
204 226 255
204 226 255
204 226 255
204 226 255
204 226 255
204 226 255
204 226 255
204 226 255
204 226 255
204 226 255
204 226 255
204 226 255
204 226 255
204 226 255
203 226 255
203 226 255
203 226 255
203 226 255
203 226 255
203 226 255
203 225 255
203 225 255
203 225 255
203 225 255
203 225 255
203 225 255
203 225 255
203 225 255
203 225 255
202 225 255
202 225 255
202 225 255
202 225 255
202 225 255
202 225 255
202 225 255
202 225 255
202 225 255
202 225 255
202 225 255
202 225 255
202 225 255
202 225 255
202 225 255
201 225 255
201 225 255
201 225 255
201 225 255
201 225 255
201 224 255
201 224 255
201 224 255
201 224 255
201 224 255
201 224 255
201 224 255
201 224 255
201 224 255
201 224 255
201 224 255
200 224 255
200 224 255
200 224 255
200 224 255
200 224 255
200 224 255
200 224 255
200 224 255
200 224 255
200 224 255
200 224 255
200 224 255
200 224 255
200 224 255
200 224 255
200 224 255
200 224 255
200 224 255
200 224 255
199 224 255
199 224 255
199 224 255
199 223 255
199 223 255
199 223 255
199 223 255
199 223 255
199 223 255
199 223 255
199 223 255
199 223 255
199 223 255
199 223 255
199 223 255
199 223 255
199 223 255
199 223 255
199 223 255
199 223 255
199 223 255
199 223 255
199 223 255
199 223 255
199 223 255
199 223 255
198 223 255
198 223 255
198 223 255
198 223 255
198 223 255
198 223 255
198 223 255
198 223 255
198 223 255
198 223 255
198 223 255
198 223 255
198 223 255
198 223 255
198 223 255
198 223 255
198 223 255
198 223 255
198 223 255
198 223 255
198 223 255
198 223 255
198 223 255
198 223 255
198 223 255
198 223 255
198 223 255
198 223 255
198 223 255
198 223 255
198 223 255
198 223 255
198 223 255
198 223 255
198 223 255
198 223 255
198 223 255
198 223 255
198 223 255
198 223 255
199 223 255
199 223 255
199 223 255
199 223 255
199 223 255
199 223 255
199 223 255
199 223 255
199 223 255
199 223 255
199 223 255
199 223 255
199 223 255
199 223 255
199 223 255
199 223 255
199 223 255
199 223 255
199 223 255
199 223 255
199 223 255
199 223 255
199 223 255
199 224 255
199 224 255
199 224 255
199 224 255
200 224 255
200 224 255
200 224 255
200 224 255
200 224 255
200 224 255
200 224 255
200 224 255
200 224 255
200 224 255
200 224 255
200 224 255
200 224 255
200 224 255
200 224 255
200 224 255
200 224 255
200 224 255
201 224 255
201 224 255
201 224 255
201 224 255
201 224 255
201 224 255
201 224 255
201 224 255
201 224 255
201 224 255
201 224 255
201 225 255
201 225 255
201 225 255
201 225 255
201 225 255
202 225 255
202 225 255
202 225 255
202 225 255
202 225 255
202 225 255
202 225 255
202 225 255
202 225 255
202 225 255
202 225 255
202 225 255
202 225 255
202 225 255
202 225 255
203 225 255
203 225 255
203 225 255
203 225 255
203 225 255
203 225 255
203 225 255
203 225 255
203 226 255
203 226 255
203 226 255
203 226 255
203 226 255
203 226 255
203 226 255
204 226 255
204 226 255
204 226 255
204 226 255
204 226 255
204 226 255
204 226 255
204 226 255
204 226 255
204 226 255
204 226 255
204 226 255
204 226 255
204 226 255
204 226 255
204 226 255
205 226 255
205 226 255
205 226 255
205 226 255
205 226 255
205 226 255
205 226 255
205 227 255
205 227 255
205 227 255
205 227 255
205 227 255
205 227 255
205 227 255
205 227 255
205 227 255
205 227 255
206 227 255
206 227 255
206 227 255
206 227 255
206 227 255
206 227 255
206 227 255
206 227 255
206 227 255
206 227 255
206 227 255
206 227 255
206 227 255
206 227 255
206 227 255
206 227 255
206 227 255
207 227 255
207 227 255
207 227 255
207 227 255
207 227 255
207 228 255
207 228 255
207 228 255
207 228 255
207 228 255
207 228 255
207 228 255
207 228 255
207 228 255
207 228 255
207 228 255
207 228 255
207 228 255
207 228 255
207 228 255
208 228 255
208 228 255
208 228 255
208 228 255
208 228 255
208 228 255
208 228 255
208 228 255
208 228 255
208 228 255
208 228 255
208 228 255
208 228 255
208 228 255
208 228 255
208 228 255
208 228 255
208 228 255
208 228 255
209 228 255
208 228 255
208 228 255
208 228 255
208 228 255
208 228 255
208 228 255
208 228 255
208 228 255
208 228 255
208 228 255
208 228 255
208 228 255
208 228 255
208 228 255
208 228 255
208 228 255
208 228 255
208 228 255
208 228 255
208 228 255
208 228 255
207 228 255
207 228 255
207 228 255
207 228 255
207 228 255
207 228 255
207 228 255
207 228 255
207 228 255
207 228 255
207 228 255
207 228 255
207 228 255
207 228 255
207 228 255
207 227 255
207 227 255
207 227 255
207 227 255
207 227 255
206 227 255
206 227 255
206 227 255
206 227 255
206 227 255
206 227 255
206 227 255
206 227 255
206 227 255
206 227 255
206 227 255
206 227 255
206 227 255
206 227 255
206 227 255
206 227 255
206 227 255
205 227 255
205 227 255
205 227 255
205 227 255
205 227 255
205 227 255
205 227 255
205 227 255
205 227 255
205 227 255
205 226 255
205 226 255
205 226 255
205 226 255
205 226 255
205 226 255
205 226 255
204 226 255
204 226 255
204 226 255
204 226 255
204 226 255
204 226 255
204 226 255
204 226 255
204 226 255
204 226 255
204 226 255
204 226 255
204 226 255
204 226 255
204 226 255
203 226 255
203 226 255
203 226 255
203 226 255
203 226 255
203 226 255
203 226 255
203 225 255
203 225 255
203 225 255
203 225 255
203 225 255
203 225 255
203 225 255
203 225 255
203 225 255
202 225 255
202 225 255
202 225 255
202 225 255
202 225 255
202 225 255
202 225 255
202 225 255
202 225 255
202 225 255
202 225 255
202 225 255
202 225 255
202 225 255
202 225 255
201 225 255
201 225 255
201 225 255
201 225 255
201 225 255
201 224 255
201 224 255
201 224 255
201 224 255
201 224 255
201 224 255
201 224 255
201 224 255
201 224 255
201 224 255
201 224 255
201 224 255
200 224 255
200 224 255
200 224 255
200 224 255
200 224 255
200 224 255
200 224 255
200 224 255
200 224 255
200 224 255
200 224 255
200 224 255
200 224 255
200 224 255
200 224 255
200 224 255
200 224 255
200 224 255
200 224 255
199 224 255
199 224 255
199 224 255
199 223 255
199 223 255
199 223 255
199 223 255
199 223 255
199 223 255
199 223 255
199 223 255
199 223 255
199 223 255
199 223 255
199 223 255
199 223 255
199 223 255
199 223 255
199 223 255
199 223 255
199 223 255
199 223 255
199 223 255
199 223 255
199 223 255
199 223 255
199 223 255
199 223 255
199 223 255
199 223 255
199 223 255
199 223 255
199 223 255
198 223 255
198 223 255
198 223 255
198 223 255
198 223 255
198 223 255
198 223 255
198 223 255
198 223 255
198 223 255
198 223 255
198 223 255
198 223 255
198 223 255
198 223 255
198 223 255
198 223 255
198 223 255
198 223 255
199 223 255
199 223 255
199 223 255
199 223 255
199 223 255
199 223 255
199 223 255
199 223 255
199 223 255
199 223 255
199 223 255
199 223 255
199 223 255
199 223 255
199 223 255
199 223 255
199 223 255
199 223 255
199 223 255
199 223 255
199 223 255
199 223 255
199 223 255
199 223 255
199 223 255
199 223 255
199 223 255
199 223 255
199 223 255
199 224 255
199 224 255
199 224 255
199 224 255
200 224 255
200 224 255
200 224 255
200 224 255
200 224 255
200 224 255
200 224 255
200 224 255
200 224 255
200 224 255
200 224 255
200 224 255
200 224 255
200 224 255
200 224 255
200 224 255
200 224 255
200 224 255
201 224 255
201 224 255
201 224 255
201 224 255
201 224 255
201 224 255
201 224 255
201 224 255
201 224 255
201 224 255
201 224 255
201 224 255
201 225 255
201 225 255
201 225 255
201 225 255
201 225 255
202 225 255
202 225 255
202 225 255
202 225 255
202 225 255
202 225 255
202 225 255
202 225 255
202 225 255
202 225 255
202 225 255
202 225 255
202 225 255
202 225 255
202 225 255
203 225 255
203 225 255
203 225 255
203 225 255
203 225 255
203 225 255
203 225 255
203 225 255
203 225 255
203 226 255
203 226 255
203 226 255
203 226 255
203 226 255
203 226 255
203 226 255
204 226 255
204 226 255
204 226 255
204 226 255
204 226 255
204 226 255
204 226 255
204 226 255
204 226 255
204 226 255
204 226 255
204 226 255
204 226 255
204 226 255
204 226 255
205 226 255
205 226 255
205 226 255
205 226 255
205 226 255
205 226 255
205 226 255
205 227 255
205 227 255
205 227 255
205 227 255
205 227 255
205 227 255
205 227 255
205 227 255
205 227 255
205 227 255
206 227 255
206 227 255
206 227 255
206 227 255
206 227 255
206 227 255
206 227 255
206 227 255
206 227 255
206 227 255
206 227 255
206 227 255
206 227 255
206 227 255
206 227 255
206 227 255
206 227 255
206 227 255
207 227 255
207 227 255
207 227 255
207 227 255
207 228 255
207 228 255
207 228 255
207 228 255
207 228 255
207 228 255
207 228 255
207 228 255
207 228 255
207 228 255
207 228 255
207 228 255
207 228 255
207 228 255
207 228 255
208 228 255
208 228 255
208 228 255
208 228 255
208 228 255
208 228 255
208 228 255
208 228 255
208 228 255
208 228 255
208 228 255
208 228 255
208 228 255
208 228 255
208 228 255
208 228 255
208 228 255
208 228 255
208 228 255
208 228 255
208 228 255
209 228 255
209 229 255
209 229 255
209 229 255
209 228 255
208 228 255
208 228 255
208 228 255
208 228 255
208 228 255
208 228 255
208 228 255
208 228 255
208 228 255
208 228 255
208 228 255
208 228 255
208 228 255
208 228 255
208 228 255
208 228 255
208 228 255
208 228 255
208 228 255
208 228 255
208 228 255
207 228 255
207 228 255
207 228 255
207 228 255
207 228 255
207 228 255
207 228 255
207 228 255
207 228 255
207 228 255
207 228 255
207 228 255
207 228 255
207 228 255
207 228 255
207 227 255
207 227 255
207 227 255
207 227 255
207 227 255
206 227 255
206 227 255
206 227 255
206 227 255
206 227 255
206 227 255
206 227 255
206 227 255
206 227 255
206 227 255
206 227 255
206 227 255
206 227 255
206 227 255
206 227 255
206 227 255
206 227 255
205 227 255
205 227 255
205 227 255
205 227 255
205 227 255
205 227 255
205 227 255
205 227 255
205 227 255
205 227 255
205 226 255
205 226 255
205 226 255
205 226 255
205 226 255
205 226 255
205 226 255
204 226 255
204 226 255
204 226 255
204 226 255
204 226 255
204 226 255
204 226 255
204 226 255
204 226 255
204 226 255
204 226 255
204 226 255
204 226 255
204 226 255
204 226 255
203 226 255
203 226 255
203 226 255
203 226 255
203 226 255
203 226 255
203 226 255
203 225 255
203 225 255
203 225 255
203 225 255
203 225 255
203 225 255
203 225 255
203 225 255
203 225 255
202 225 255
202 225 255
202 225 255
202 225 255
202 225 255
202 225 255
202 225 255
202 225 255
202 225 255
202 225 255
202 225 255
202 225 255
202 225 255
202 225 255
202 225 255
201 225 255
201 225 255
201 225 255
201 225 255
201 225 255
201 224 255
201 224 255
201 224 255
201 224 255
201 224 255
201 224 255
201 224 255
201 224 255
201 224 255
201 224 255
201 224 255
201 224 255
200 224 255
200 224 255
200 224 255
200 224 255
200 224 255
200 224 255
200 224 255
200 224 255
200 224 255
200 224 255
200 224 255
200 224 255
200 224 255
200 224 255
200 224 255
200 224 255
200 224 255
200 224 255
200 224 255
200 224 255
199 224 255
199 224 255
199 224 255
199 224 255
199 223 255
199 223 255
199 223 255
199 223 255
199 223 255
199 223 255
199 223 255
199 223 255
199 223 255
199 223 255
199 223 255
199 223 255
199 223 255
199 223 255
199 223 255
199 223 255
199 223 255
199 223 255
199 223 255
199 223 255
199 223 255
199 223 255
199 223 255
199 223 255
199 223 255
199 223 255
199 223 255
199 223 255
199 223 255
199 223 255
199 223 255
199 223 255
199 223 255
199 223 255
199 223 255
199 223 255
199 223 255
199 223 255
199 223 255
199 223 255
199 223 255
199 223 255
199 223 255
199 223 255
199 223 255
199 223 255
199 223 255
199 223 255
199 223 255
199 223 255
199 223 255
199 223 255
199 223 255
199 223 255
199 223 255
199 223 255
199 223 255
199 223 255
199 223 255
199 223 255
199 223 255
199 223 255
199 223 255
199 223 255
199 223 255
199 223 255
199 223 255
199 223 255
199 224 255
199 224 255
199 224 255
199 224 255
200 224 255
200 224 255
200 224 255
200 224 255
200 224 255
200 224 255
200 224 255
200 224 255
200 224 255
200 224 255
200 224 255
200 224 255
200 224 255
200 224 255
200 224 255
200 224 255
200 224 255
200 224 255
200 224 255
200 224 255
201 224 255
201 224 255
201 224 255
201 224 255
201 224 255
201 224 255
201 224 255
201 224 255
201 224 255
201 224 255
201 224 255
201 224 255
201 225 255
201 225 255
201 225 255
201 225 255
201 225 255
202 225 255
202 225 255
202 225 255
202 225 255
202 225 255
202 225 255
202 225 255
202 225 255
202 225 255
202 225 255
202 225 255
202 225 255
202 225 255
202 225 255
202 225 255
203 225 255
203 225 255
203 225 255
203 225 255
203 225 255
203 225 255
203 225 255
203 225 255
203 225 255
203 226 255
203 226 255
203 226 255
203 226 255
203 226 255
203 226 255
203 226 255
204 226 255
204 226 255
204 226 255
204 226 255
204 226 255
204 226 255
204 226 255
204 226 255
204 226 255
204 226 255
204 226 255
204 226 255
204 226 255
204 226 255
204 226 255
204 226 255
205 226 255
205 226 255
205 226 255
205 226 255
205 226 255
205 226 255
205 227 255
205 227 255
205 227 255
205 227 255
205 227 255
205 227 255
205 227 255
205 227 255
205 227 255
205 227 255
206 227 255
206 227 255
206 227 255
206 227 255
206 227 255
206 227 255
206 227 255
206 227 255
206 227 255
206 227 255
206 227 255
206 227 255
206 227 255
206 227 255
206 227 255
206 227 255
206 227 255
207 227 255
207 227 255
207 227 255
207 227 255
207 227 255
207 228 255
207 228 255
207 228 255
207 228 255
207 228 255
207 228 255
207 228 255
207 228 255
207 228 255
207 228 255
207 228 255
207 228 255
207 228 255
207 228 255
208 228 255
208 228 255
208 228 255
208 228 255
208 228 255
208 228 255
208 228 255
208 228 255
208 228 255
208 228 255
208 228 255
208 228 255
208 228 255
208 228 255
208 228 255
208 228 255
208 228 255
208 228 255
208 228 255
208 228 255
208 228 255
208 228 255
209 228 255
209 229 255
209 229 255
209 229 255
209 229 255
209 229 255
209 229 255
209 229 255
209 229 255
209 229 255
209 228 255
208 228 255
208 228 255
208 228 255
208 228 255
208 228 255
208 228 255
208 228 255
208 228 255
208 228 255
208 228 255
208 228 255
208 228 255
208 228 255
208 228 255
208 228 255
208 228 255
208 228 255
208 228 255
208 228 255
208 228 255
208 228 255
208 228 255
207 228 255
207 228 255
207 228 255
207 228 255
207 228 255
207 228 255
207 228 255
207 228 255
207 228 255
207 228 255
207 228 255
207 228 255
207 228 255
207 228 255
207 227 255
207 227 255
207 227 255
207 227 255
207 227 255
206 227 255
206 227 255
206 227 255
206 227 255
206 227 255
206 227 255
206 227 255
206 227 255
206 227 255
206 227 255
206 227 255
206 227 255
206 227 255
206 227 255
206 227 255
206 227 255
206 227 255
205 227 255
205 227 255
205 227 255
205 227 255
205 227 255
205 227 255
205 227 255
205 227 255
205 227 255
205 227 255
205 226 255
205 226 255
205 226 255
205 226 255
205 226 255
205 226 255
204 226 255
204 226 255
204 226 255
204 226 255
204 226 255
204 226 255
204 226 255
204 226 255
204 226 255
204 226 255
204 226 255
204 226 255
204 226 255
204 226 255
204 226 255
204 226 255
203 226 255
203 226 255
203 226 255
203 226 255
203 226 255
203 226 255
203 226 255
203 225 255
203 225 255
203 225 255
203 225 255
203 225 255
203 225 255
203 225 255
203 225 255
203 225 255
202 225 255
202 225 255
202 225 255
202 225 255
202 225 255
202 225 255
202 225 255
202 225 255
202 225 255
202 225 255
202 225 255
202 225 255
202 225 255
202 225 255
202 225 255
201 225 255
201 225 255
201 225 255
201 225 255
201 225 255
201 224 255
201 224 255
201 224 255
201 224 255
201 224 255
201 224 255
201 224 255
201 224 255
201 224 255
201 224 255
201 224 255
201 224 255
200 224 255
200 224 255
200 224 255
200 224 255
200 224 255
200 224 255
200 224 255
200 224 255
200 224 255
200 224 255
200 224 255
200 224 255
200 224 255
200 224 255
200 224 255
200 224 255
200 224 255
200 224 255
200 224 255
200 224 255
200 224 255
200 224 255
199 224 255
199 224 255
199 224 255
199 224 255
199 223 255
199 223 255
199 223 255
199 223 255
199 223 255
199 223 255
199 223 255
199 223 255
199 223 255
199 223 255
199 223 255
199 223 255
199 223 255
199 223 255
199 223 255
199 223 255
199 223 255
199 223 255
199 223 255
199 223 255
199 223 255
199 223 255
199 223 255
199 223 255
199 223 255
199 223 255
199 223 255
199 223 255
199 223 255
199 223 255
199 223 255
199 223 255
199 223 255
199 223 255
199 223 255
199 223 255
199 223 255
199 223 255
199 223 255
199 223 255
199 223 255
199 223 255
199 223 255
199 223 255
199 223 255
199 223 255
199 223 255
199 223 255
199 223 255
199 223 255
199 223 255
199 223 255
199 223 255
199 223 255
199 223 255
199 223 255
199 223 255
199 223 255
199 224 255
199 224 255
199 224 255
199 224 255
200 224 255
200 224 255
200 224 255
200 224 255
200 224 255
200 224 255
200 224 255
200 224 255
200 224 255
200 224 255
200 224 255
200 224 255
200 224 255
200 224 255
200 224 255
200 224 255
200 224 255
200 224 255
200 224 255
200 224 255
200 224 255
200 224 255
201 224 255
201 224 255
201 224 255
201 224 255
201 224 255
201 224 255
201 224 255
201 224 255
201 224 255
201 224 255
201 224 255
201 224 255
201 225 255
201 225 255
201 225 255
201 225 255
201 225 255
202 225 255
202 225 255
202 225 255
202 225 255
202 225 255
202 225 255
202 225 255
202 225 255
202 225 255
202 225 255
202 225 255
202 225 255
202 225 255
202 225 255
202 225 255
202 225 255
203 225 255
203 225 255
203 225 255
203 225 255
203 225 255
203 225 255
203 225 255
203 225 255
203 226 255
203 226 255
203 226 255
203 226 255
203 226 255
203 226 255
203 226 255
204 226 255
204 226 255
204 226 255
204 226 255
204 226 255
204 226 255
204 226 255
204 226 255
204 226 255
204 226 255
204 226 255
204 226 255
204 226 255
204 226 255
204 226 255
204 226 255
205 226 255
205 226 255
205 226 255
205 226 255
205 226 255
205 226 255
205 227 255
205 227 255
205 227 255
205 227 255
205 227 255
205 227 255
205 227 255
205 227 255
205 227 255
205 227 255
206 227 255
206 227 255
206 227 255
206 227 255
206 227 255
206 227 255
206 227 255
206 227 255
206 227 255
206 227 255
206 227 255
206 227 255
206 227 255
206 227 255
206 227 255
206 227 255
206 227 255
206 227 255
207 227 255
207 227 255
207 227 255
207 227 255
207 228 255
207 228 255
207 228 255
207 228 255
207 228 255
207 228 255
207 228 255
207 228 255
207 228 255
207 228 255
207 228 255
207 228 255
207 228 255
207 228 255
207 228 255
208 228 255
208 228 255
208 228 255
208 228 255
208 228 255
208 228 255
208 228 255
208 228 255
208 228 255
208 228 255
208 228 255
208 228 255
208 228 255
208 228 255
208 228 255
208 228 255
208 228 255
208 228 255
208 228 255
208 228 255
208 228 255
209 228 255
209 229 255
209 229 255
209 229 255
209 229 255
209 229 255
209 229 255
209 229 255
209 229 255
209 229 255
209 229 255
209 229 255
209 229 255
209 229 255
209 229 255
209 229 255
209 228 255
209 228 255
208 228 255
208 228 255
208 228 255
208 228 255
208 228 255
208 228 255
208 228 255
208 228 255
208 228 255
208 228 255
208 228 255
208 228 255
208 228 255
208 228 255
208 228 255
208 228 255
208 228 255
208 228 255
208 228 255
208 228 255
208 228 255
207 228 255
207 228 255
207 228 255
207 228 255
207 228 255
207 228 255
207 228 255
207 228 255
207 228 255
207 228 255
207 228 255
207 228 255
207 228 255
207 228 255
207 227 255
207 227 255
207 227 255
207 227 255
207 227 255
206 227 255
206 227 255
206 227 255
206 227 255
206 227 255
206 227 255
206 227 255
206 227 255
206 227 255
206 227 255
206 227 255
206 227 255
206 227 255
206 227 255
206 227 255
206 227 255
206 227 255
205 227 255
205 227 255
205 227 255
205 227 255
205 227 255
205 227 255
205 227 255
205 227 255
205 227 255
205 227 255
205 226 255
205 226 255
205 226 255
205 226 255
205 226 255
205 226 255
204 226 255
204 226 255
204 226 255
204 226 255
204 226 255
204 226 255
204 226 255
204 226 255
204 226 255
204 226 255
204 226 255
204 226 255
204 226 255
204 226 255
204 226 255
204 226 255
203 226 255
203 226 255
203 226 255
203 226 255
203 226 255
203 226 255
203 226 255
203 225 255
203 225 255
203 225 255
203 225 255
203 225 255
203 225 255
203 225 255
203 225 255
202 225 255
202 225 255
202 225 255
202 225 255
202 225 255
202 225 255
202 225 255
202 225 255
202 225 255
202 225 255
202 225 255
202 225 255
202 225 255
202 225 255
202 225 255
202 225 255
201 225 255
201 225 255
201 225 255
201 225 255
201 225 255
201 224 255
201 224 255
201 224 255
201 224 255
201 224 255
201 224 255
201 224 255
201 224 255
201 224 255
201 224 255
201 224 255
201 224 255
201 224 255
200 224 255
200 224 255
200 224 255
200 224 255
200 224 255
200 224 255
200 224 255
200 224 255
200 224 255
200 224 255
200 224 255
200 224 255
200 224 255
200 224 255
200 224 255
200 224 255
200 224 255
200 224 255
200 224 255
200 224 255
200 224 255
200 224 255
200 224 255
200 224 255
199 224 255
199 224 255
199 224 255
199 224 255
199 224 255
199 223 255
199 223 255
199 223 255
199 223 255
199 223 255
199 223 255
199 223 255
199 223 255
199 223 255
199 223 255
199 223 255
199 223 255
199 223 255
199 223 255
199 223 255
199 223 255
199 223 255
199 223 255
199 223 255
199 223 255
199 223 255
199 223 255
199 223 255
199 223 255
199 223 255
199 223 255
199 223 255
199 223 255
199 223 255
199 223 255
199 223 255
199 223 255
199 223 255
199 223 255
199 223 255
199 223 255
199 223 255
199 223 255
199 223 255
199 223 255
199 223 255
199 223 255
199 223 255
199 223 255
199 224 255
199 224 255
199 224 255
199 224 255
199 224 255
200 224 255
200 224 255
200 224 255
200 224 255
200 224 255
200 224 255
200 224 255
200 224 255
200 224 255
200 224 255
200 224 255
200 224 255
200 224 255
200 224 255
200 224 255
200 224 255
200 224 255
200 224 255
200 224 255
200 224 255
200 224 255
200 224 255
200 224 255
200 224 255
201 224 255
201 224 255
201 224 255
201 224 255
201 224 255
201 224 255
201 224 255
201 224 255
201 224 255
201 224 255
201 224 255
201 224 255
201 224 255
201 225 255
201 225 255
201 225 255
201 225 255
201 225 255
202 225 255
202 225 255
202 225 255
202 225 255
202 225 255
202 225 255
202 225 255
202 225 255
202 225 255
202 225 255
202 225 255
202 225 255
202 225 255
202 225 255
202 225 255
203 225 255
203 225 255
203 225 255
203 225 255
203 225 255
203 225 255
203 225 255
203 225 255
203 225 255
203 226 255
203 226 255
203 226 255
203 226 255
203 226 255
203 226 255
203 226 255
204 226 255
204 226 255
204 226 255
204 226 255
204 226 255
204 226 255
204 226 255
204 226 255
204 226 255
204 226 255
204 226 255
204 226 255
204 226 255
204 226 255
204 226 255
204 226 255
205 226 255
205 226 255
205 226 255
205 226 255
205 226 255
205 226 255
205 227 255
205 227 255
205 227 255
205 227 255
205 227 255
205 227 255
205 227 255
205 227 255
205 227 255
205 227 255
206 227 255
206 227 255
206 227 255
206 227 255
206 227 255
206 227 255
206 227 255
206 227 255
206 227 255
206 227 255
206 227 255
206 227 255
206 227 255
206 227 255
206 227 255
206 227 255
206 227 255
206 227 255
207 227 255
207 227 255
207 227 255
207 227 255
207 228 255
207 228 255
207 228 255
207 228 255
207 228 255
207 228 255
207 228 255
207 228 255
207 228 255
207 228 255
207 228 255
207 228 255
207 228 255
207 228 255
207 228 255
208 228 255
208 228 255
208 228 255
208 228 255
208 228 255
208 228 255
208 228 255
208 228 255
208 228 255
208 228 255
208 228 255
208 228 255
208 228 255
208 228 255
208 228 255
208 228 255
208 228 255
208 228 255
208 228 255
208 228 255
209 228 255
209 228 255
209 229 255
209 229 255
209 229 255
209 229 255
209 229 255
209 229 255
209 229 255
209 229 255
209 229 255
209 229 255
209 229 255
209 229 255
209 229 255
209 229 255
209 229 255
209 229 255
209 229 255
209 229 255
209 229 255
209 229 255
209 229 255
209 228 255
209 228 255
208 228 255
208 228 255
208 228 255
208 228 255
208 228 255
208 228 255
208 228 255
208 228 255
208 228 255
208 228 255
208 228 255
208 228 255
208 228 255
208 228 255
208 228 255
208 228 255
208 228 255
208 228 255
208 228 255
208 228 255
208 228 255
207 228 255
207 228 255
207 228 255
207 228 255
207 228 255
207 228 255
207 228 255
207 228 255
207 228 255
207 228 255
207 228 255
207 228 255
207 228 255
207 228 255
207 227 255
207 227 255
207 227 255
207 227 255
206 227 255
206 227 255
206 227 255
206 227 255
206 227 255
206 227 255
206 227 255
206 227 255
206 227 255
206 227 255
206 227 255
206 227 255
206 227 255
206 227 255
206 227 255
206 227 255
206 227 255
206 227 255
205 227 255
205 227 255
205 227 255
205 227 255
205 227 255
205 227 255
205 227 255
205 227 255
205 227 255
205 227 255
205 226 255
205 226 255
205 226 255
205 226 255
205 226 255
205 226 255
204 226 255
204 226 255
204 226 255
204 226 255
204 226 255
204 226 255
204 226 255
204 226 255
204 226 255
204 226 255
204 226 255
204 226 255
204 226 255
204 226 255
204 226 255
204 226 255
203 226 255
203 226 255
203 226 255
203 226 255
203 226 255
203 226 255
203 226 255
203 225 255
203 225 255
203 225 255
203 225 255
203 225 255
203 225 255
203 225 255
203 225 255
203 225 255
202 225 255
202 225 255
202 225 255
202 225 255
202 225 255
202 225 255
202 225 255
202 225 255
202 225 255
202 225 255
202 225 255
202 225 255
202 225 255
202 225 255
202 225 255
202 225 255
201 225 255
201 225 255
201 225 255
201 225 255
201 225 255
201 224 255
201 224 255
201 224 255
201 224 255
201 224 255
201 224 255
201 224 255
201 224 255
201 224 255
201 224 255
201 224 255
201 224 255
201 224 255
200 224 255
200 224 255
200 224 255
200 224 255
200 224 255
200 224 255
200 224 255
200 224 255
200 224 255
200 224 255
200 224 255
200 224 255
200 224 255
200 224 255
200 224 255
200 224 255
200 224 255
200 224 255
200 224 255
200 224 255
200 224 255
200 224 255
200 224 255
200 224 255
200 224 255
200 224 255
200 224 255
199 224 255
199 224 255
199 224 255
199 224 255
199 224 255
199 224 255
199 224 255
199 223 255
199 223 255
199 223 255
199 223 255
199 223 255
199 223 255
199 223 255
199 223 255
199 223 255
199 223 255
199 223 255
199 223 255
199 223 255
199 223 255
199 223 255
199 223 255
199 223 255
199 223 255
199 223 255
199 223 255
199 223 255
199 223 255
199 223 255
199 223 255
199 223 255
199 224 255
199 224 255
199 224 255
199 224 255
199 224 255
199 224 255
199 224 255
199 224 255
200 224 255
200 224 255
200 224 255
200 224 255
200 224 255
200 224 255
200 224 255
200 224 255
200 224 255
200 224 255
200 224 255
200 224 255
200 224 255
200 224 255
200 224 255
200 224 255
200 224 255
200 224 255
200 224 255
200 224 255
200 224 255
200 224 255
200 224 255
200 224 255
200 224 255
200 224 255
200 224 255
201 224 255
201 224 255
201 224 255
201 224 255
201 224 255
201 224 255
201 224 255
201 224 255
201 224 255
201 224 255
201 224 255
201 224 255
201 224 255
201 225 255
201 225 255
201 225 255
201 225 255
201 225 255
202 225 255
202 225 255
202 225 255
202 225 255
202 225 255
202 225 255
202 225 255
202 225 255
202 225 255
202 225 255
202 225 255
202 225 255
202 225 255
202 225 255
202 225 255
202 225 255
203 225 255
203 225 255
203 225 255
203 225 255
203 225 255
203 225 255
203 225 255
203 225 255
203 225 255
203 226 255
203 226 255
203 226 255
203 226 255
203 226 255
203 226 255
203 226 255
204 226 255
204 226 255
204 226 255
204 226 255
204 226 255
204 226 255
204 226 255
204 226 255
204 226 255
204 226 255
204 226 255
204 226 255
204 226 255
204 226 255
204 226 255
204 226 255
205 226 255
205 226 255
205 226 255
205 226 255
205 226 255
205 226 255
205 227 255
205 227 255
205 227 255
205 227 255
205 227 255
205 227 255
205 227 255
205 227 255
205 227 255
205 227 255
206 227 255
206 227 255
206 227 255
206 227 255
206 227 255
206 227 255
206 227 255
206 227 255
206 227 255
206 227 255
206 227 255
206 227 255
206 227 255
206 227 255
206 227 255
206 227 255
206 227 255
207 227 255
207 227 255
207 227 255
207 227 255
207 227 255
207 228 255
207 228 255
207 228 255
207 228 255
207 228 255
207 228 255
207 228 255
207 228 255
207 228 255
207 228 255
207 228 255
207 228 255
207 228 255
207 228 255
208 228 255
208 228 255
208 228 255
208 228 255
208 228 255
208 228 255
208 228 255
208 228 255
208 228 255
208 228 255
208 228 255
208 228 255
208 228 255
208 228 255
208 228 255
208 228 255
208 228 255
208 228 255
208 228 255
208 228 255
208 228 255
209 228 255
209 229 255
209 229 255
209 229 255
209 229 255
209 229 255
209 229 255
209 229 255
209 229 255
209 229 255
209 229 255
209 229 255
209 229 255
209 229 255
209 229 255
209 229 255
209 229 255
209 229 255
209 229 255
209 229 255
209 229 255
209 229 255
209 229 255
209 229 255
209 229 255
209 229 255
209 229 255
209 229 255
209 229 255
209 229 255
209 228 255
208 228 255
208 228 255
208 228 255
208 228 255
208 228 255
208 228 255
208 228 255
208 228 255
208 228 255
208 228 255
208 228 255
208 228 255
208 228 255
208 228 255
208 228 255
208 228 255
208 228 255
208 228 255
208 228 255
208 228 255
208 228 255
207 228 255
207 228 255
207 228 255
207 228 255
207 228 255
207 228 255
207 228 255
207 228 255
207 228 255
207 228 255
207 228 255
207 228 255
207 228 255
207 228 255
207 227 255
207 227 255
207 227 255
207 227 255
207 227 255
206 227 255
206 227 255
206 227 255
206 227 255
206 227 255
206 227 255
206 227 255
206 227 255
206 227 255
206 227 255
206 227 255
206 227 255
206 227 255
206 227 255
206 227 255
206 227 255
206 227 255
205 227 255
205 227 255
205 227 255
205 227 255
205 227 255
205 227 255
205 227 255
205 227 255
205 227 255
205 226 255
205 226 255
205 226 255
205 226 255
205 226 255
205 226 255
205 226 255
204 226 255
204 226 255
204 226 255
204 226 255
204 226 255
204 226 255
204 226 255
204 226 255
204 226 255
204 226 255
204 226 255
204 226 255
204 226 255
204 226 255
204 226 255
204 226 255
203 226 255
203 226 255
203 226 255
203 226 255
203 226 255
203 226 255
203 226 255
203 225 255
203 225 255
203 225 255
203 225 255
203 225 255
203 225 255
203 225 255
203 225 255
203 225 255
202 225 255
202 225 255
202 225 255
202 225 255
202 225 255
202 225 255
202 225 255
202 225 255
202 225 255
202 225 255
202 225 255
202 225 255
202 225 255
202 225 255
202 225 255
202 225 255
201 225 255
201 225 255
201 225 255
201 225 255
201 225 255
201 224 255
201 224 255
201 224 255
201 224 255
201 224 255
201 224 255
201 224 255
201 224 255
201 224 255
201 224 255
201 224 255
201 224 255
201 224 255
201 224 255
200 224 255
200 224 255
200 224 255
200 224 255
200 224 255
200 224 255
200 224 255
200 224 255
200 224 255
200 224 255
200 224 255
200 224 255
200 224 255
200 224 255
200 224 255
200 224 255
200 224 255
200 224 255
200 224 255
200 224 255
200 224 255
200 224 255
200 224 255
200 224 255
200 224 255
200 224 255
200 224 255
200 224 255
200 224 255
200 224 255
200 224 255
200 224 255
200 224 255
199 224 255
199 224 255
199 224 255
199 224 255
199 224 255
199 224 255
199 224 255
199 224 255
199 224 255
199 224 255
199 224 255
199 224 255
199 224 255
199 224 255
199 224 255
199 224 255
199 224 255
199 224 255
200 224 255
199 224 255
200 224 255
200 224 255
200 224 255
200 224 255
200 224 255
200 224 255
200 224 255
200 224 255
200 224 255
200 224 255
200 224 255
200 224 255
200 224 255
200 224 255
200 224 255
200 224 255
200 224 255
200 224 255
200 224 255
200 224 255
200 224 255
200 224 255
200 224 255
200 224 255
200 224 255
200 224 255
200 224 255
200 224 255
200 224 255
200 224 255
200 224 255
200 224 255
200 224 255
201 224 255
201 224 255
201 224 255
201 224 255
201 224 255
201 224 255
201 224 255
201 224 255
201 224 255
201 224 255
201 224 255
201 224 255
201 224 255
201 224 255
201 225 255
201 225 255
201 225 255
201 225 255
201 225 255
202 225 255
202 225 255
202 225 255
202 225 255
202 225 255
202 225 255
202 225 255
202 225 255
202 225 255
202 225 255
202 225 255
202 225 255
202 225 255
202 225 255
202 225 255
202 225 255
203 225 255
203 225 255
203 225 255
203 225 255
203 225 255
203 225 255
203 225 255
203 225 255
203 225 255
203 226 255
203 226 255
203 226 255
203 226 255
203 226 255
203 226 255
203 226 255
204 226 255
204 226 255
204 226 255
204 226 255
204 226 255
204 226 255
204 226 255
204 226 255
204 226 255
204 226 255
204 226 255
204 226 255
204 226 255
204 226 255
204 226 255
204 226 255
205 226 255
205 226 255
205 226 255
205 226 255
205 226 255
205 226 255
205 227 255
205 227 255
205 227 255
205 227 255
205 227 255
205 227 255
205 227 255
205 227 255
205 227 255
205 227 255
206 227 255
206 227 255
206 227 255
206 227 255
206 227 255
206 227 255
206 227 255
206 227 255
206 227 255
206 227 255
206 227 255
206 227 255
206 227 255
206 227 255
206 227 255
206 227 255
206 227 255
206 227 255
207 227 255
207 227 255
207 227 255
207 227 255
207 228 255
207 228 255
207 228 255
207 228 255
207 228 255
207 228 255
207 228 255
207 228 255
207 228 255
207 228 255
207 228 255
207 228 255
207 228 255
207 228 255
208 228 255
208 228 255
208 228 255
208 228 255
208 228 255
208 228 255
208 228 255
208 228 255
208 228 255
208 228 255
208 228 255
208 228 255
208 228 255
208 228 255
208 228 255
208 228 255
208 228 255
208 228 255
208 228 255
208 228 255
208 228 255
209 228 255
209 229 255
209 229 255
209 229 255
209 229 255
209 229 255
209 229 255
209 229 255
209 229 255
209 229 255
209 229 255
209 229 255
209 229 255
209 229 255
209 229 255
209 229 255
209 229 255
209 229 255
209 229 255
209 229 255
209 229 255
209 229 255
209 229 255
209 229 255
209 229 255
209 229 255
209 229 255
209 229 255
209 229 255
209 229 255
209 229 255
209 229 255
209 229 255
209 229 255
209 229 255
209 229 255
209 228 255
209 228 255
208 228 255
208 228 255
208 228 255
208 228 255
208 228 255
208 228 255
208 228 255
208 228 255
208 228 255
208 228 255
208 228 255
208 228 255
208 228 255
208 228 255
208 228 255
208 228 255
208 228 255
208 228 255
208 228 255
208 228 255
207 228 255
207 228 255
207 228 255
207 228 255
207 228 255
207 228 255
207 228 255
207 228 255
207 228 255
207 228 255
207 228 255
207 228 255
207 228 255
207 228 255
207 227 255
207 227 255
207 227 255
207 227 255
207 227 255
206 227 255
206 227 255
206 227 255
206 227 255
206 227 255
206 227 255
206 227 255
206 227 255
206 227 255
206 227 255
206 227 255
206 227 255
206 227 255
206 227 255
206 227 255
206 227 255
206 227 255
205 227 255
205 227 255
205 227 255
205 227 255
205 227 255
205 227 255
205 227 255
205 227 255
205 227 255
205 227 255
205 226 255
205 226 255
205 226 255
205 226 255
205 226 255
205 226 255
204 226 255
204 226 255
204 226 255
204 226 255
204 226 255
204 226 255
204 226 255
204 226 255
204 226 255
204 226 255
204 226 255
204 226 255
204 226 255
204 226 255
204 226 255
204 226 255
203 226 255
203 226 255
203 226 255
203 226 255
203 226 255
203 226 255
203 226 255
203 225 255
203 225 255
203 225 255
203 225 255
203 225 255
203 225 255
203 225 255
203 225 255
203 225 255
202 225 255
202 225 255
202 225 255
202 225 255
202 225 255
202 225 255
202 225 255
202 225 255
202 225 255
202 225 255
202 225 255
202 225 255
202 225 255
202 225 255
202 225 255
202 225 255
202 225 255
201 225 255
201 225 255
201 225 255
201 225 255
201 225 255
201 224 255
201 224 255
201 224 255
201 224 255
201 224 255
201 224 255
201 224 255
201 224 255
201 224 255
201 224 255
201 224 255
201 224 255
201 224 255
201 224 255
201 224 255
200 224 255
200 224 255
200 224 255
200 224 255
200 224 255
200 224 255
200 224 255
200 224 255
200 224 255
200 224 255
200 224 255
200 224 255
200 224 255
200 224 255
200 224 255
200 224 255
200 224 255
200 224 255
200 224 255
200 224 255
200 224 255
200 224 255
200 224 255
200 224 255
200 224 255
200 224 255
200 224 255
200 224 255
200 224 255
200 224 255
200 224 255
200 224 255
200 224 255
200 224 255
200 224 255
200 224 255
200 224 255
200 224 255
200 224 255
200 224 255
200 224 255
200 224 255
200 224 255
200 224 255
200 224 255
200 224 255
200 224 255
200 224 255
200 224 255
200 224 255
200 224 255
200 224 255
200 224 255
200 224 255
200 224 255
200 224 255
200 224 255
200 224 255
200 224 255
200 224 255
200 224 255
200 224 255
200 224 255
200 224 255
200 224 255
200 224 255
200 224 255
200 224 255
200 224 255
200 224 255
200 224 255
200 224 255
200 224 255
200 224 255
200 224 255
200 224 255
201 224 255
201 224 255
201 224 255
201 224 255
201 224 255
201 224 255
201 224 255
201 224 255
201 224 255
201 224 255
201 224 255
201 224 255
201 224 255
201 224 255
201 224 255
201 225 255
201 225 255
201 225 255
201 225 255
201 225 255
202 225 255
202 225 255
202 225 255
202 225 255
202 225 255
202 225 255
202 225 255
202 225 255
202 225 255
202 225 255
202 225 255
202 225 255
202 225 255
202 225 255
202 225 255
202 225 255
202 225 255
203 225 255
203 225 255
203 225 255
203 225 255
203 225 255
203 225 255
203 225 255
203 225 255
203 225 255
203 226 255
203 226 255
203 226 255
203 226 255
203 226 255
203 226 255
203 226 255
204 226 255
204 226 255
204 226 255
204 226 255
204 226 255
204 226 255
204 226 255
204 226 255
204 226 255
204 226 255
204 226 255
204 226 255
204 226 255
204 226 255
204 226 255
204 226 255
205 226 255
205 226 255
205 226 255
205 226 255
205 226 255
205 226 255
205 227 255
205 227 255
205 227 255
205 227 255
205 227 255
205 227 255
205 227 255
205 227 255
205 227 255
205 227 255
206 227 255
206 227 255
206 227 255
206 227 255
206 227 255
206 227 255
206 227 255
206 227 255
206 227 255
206 227 255
206 227 255
206 227 255
206 227 255
206 227 255
206 227 255
206 227 255
206 227 255
207 227 255
207 227 255
207 227 255
207 227 255
207 227 255
207 228 255
207 228 255
207 228 255
207 228 255
207 228 255
207 228 255
207 228 255
207 228 255
207 228 255
207 228 255
207 228 255
207 228 255
207 228 255
207 228 255
208 228 255
208 228 255
208 228 255
208 228 255
208 228 255
208 228 255
208 228 255
208 228 255
208 228 255
208 228 255
208 228 255
208 228 255
208 228 255
208 228 255
208 228 255
208 228 255
208 228 255
208 228 255
208 228 255
208 228 255
209 228 255
209 228 255
209 229 255
209 229 255
209 229 255
209 229 255
209 229 255
209 229 255
209 229 255
209 229 255
209 229 255
209 229 255
209 229 255
209 229 255
209 229 255
209 229 255
209 229 255
209 229 255
209 229 255
209 229 255
209 229 255
210 229 255
209 229 255
209 229 255
209 229 255
209 229 255
209 229 255
209 229 255
209 229 255
209 229 255
209 229 255
209 229 255
209 229 255
209 229 255
209 229 255
209 229 255
209 229 255
209 229 255
209 229 255
209 229 255
209 229 255
209 229 255
209 229 255
209 228 255
209 228 255
208 228 255
208 228 255
208 228 255
208 228 255
208 228 255
208 228 255
208 228 255
208 228 255
208 228 255
208 228 255
208 228 255
208 228 255
208 228 255
208 228 255
208 228 255
208 228 255
208 228 255
208 228 255
208 228 255
208 228 255
207 228 255
207 228 255
207 228 255
207 228 255
207 228 255
207 228 255
207 228 255
207 228 255
207 228 255
207 228 255
207 228 255
207 228 255
207 228 255
207 228 255
207 227 255
207 227 255
207 227 255
207 227 255
206 227 255
206 227 255
206 227 255
206 227 255
206 227 255
206 227 255
206 227 255
206 227 255
206 227 255
206 227 255
206 227 255
206 227 255
206 227 255
206 227 255
206 227 255
206 227 255
206 227 255
206 227 255
205 227 255
205 227 255
205 227 255
205 227 255
205 227 255
205 227 255
205 227 255
205 227 255
205 227 255
205 227 255
205 226 255
205 226 255
205 226 255
205 226 255
205 226 255
205 226 255
204 226 255
204 226 255
204 226 255
204 226 255
204 226 255
204 226 255
204 226 255
204 226 255
204 226 255
204 226 255
204 226 255
204 226 255
204 226 255
204 226 255
204 226 255
204 226 255
203 226 255
203 226 255
203 226 255
203 226 255
203 226 255
203 226 255
203 226 255
203 225 255
203 225 255
203 225 255
203 225 255
203 225 255
203 225 255
203 225 255
203 225 255
203 225 255
202 225 255
202 225 255
202 225 255
202 225 255
202 225 255
202 225 255
202 225 255
202 225 255
202 225 255
202 225 255
202 225 255
202 225 255
202 225 255
202 225 255
202 225 255
202 225 255
202 225 255
202 225 255
201 225 255
201 225 255
201 225 255
201 225 255
201 225 255
201 224 255
201 224 255
201 224 255
201 224 255
201 224 255
201 224 255
201 224 255
201 224 255
201 224 255
201 224 255
201 224 255
201 224 255
201 224 255
201 224 255
201 224 255
201 224 255
200 224 255
200 224 255
200 224 255
200 224 255
200 224 255
200 224 255
200 224 255
200 224 255
200 224 255
200 224 255
200 224 255
200 224 255
200 224 255
200 224 255
200 224 255
200 224 255
200 224 255
200 224 255
200 224 255
200 224 255
200 224 255
200 224 255
200 224 255
200 224 255
200 224 255
200 224 255
200 224 255
200 224 255
200 224 255
200 224 255
200 224 255
200 224 255
200 224 255
200 224 255
200 224 255
200 224 255
200 224 255
200 224 255
200 224 255
200 224 255
200 224 255
200 224 255
200 224 255
200 224 255
200 224 255
200 224 255
200 224 255
200 224 255
200 224 255
200 224 255
200 224 255
200 224 255
200 224 255
200 224 255
200 224 255
200 224 255
200 224 255
200 224 255
200 224 255
200 224 255
200 224 255
200 224 255
200 224 255
200 224 255
200 224 255
201 224 255
201 224 255
201 224 255
201 224 255
201 224 255
201 224 255
201 224 255
201 224 255
201 224 255
201 224 255
201 224 255
201 224 255
201 224 255
201 224 255
201 224 255
201 224 255
201 224 255
201 225 255
201 225 255
201 225 255
201 225 255
201 225 255
202 225 255
202 225 255
202 225 255
202 225 255
202 225 255
202 225 255
202 225 255
202 225 255
202 225 255
202 225 255
202 225 255
202 225 255
202 225 255
202 225 255
202 225 255
202 225 255
202 225 255
202 225 255
203 225 255
203 225 255
203 225 255
203 225 255
203 225 255
203 225 255
203 225 255
203 225 255
203 225 255
203 226 255
203 226 255
203 226 255
203 226 255
203 226 255
203 226 255
203 226 255
204 226 255
204 226 255
204 226 255
204 226 255
204 226 255
204 226 255
204 226 255
204 226 255
204 226 255
204 226 255
204 226 255
204 226 255
204 226 255
204 226 255
204 226 255
204 226 255
205 226 255
205 226 255
205 226 255
205 226 255
205 226 255
205 226 255
205 227 255
205 227 255
205 227 255
205 227 255
205 227 255
205 227 255
205 227 255
205 227 255
205 227 255
205 227 255
206 227 255
206 227 255
206 227 255
206 227 255
206 227 255
206 227 255
206 227 255
206 227 255
206 227 255
206 227 255
206 227 255
206 227 255
206 227 255
206 227 255
206 227 255
206 227 255
206 227 255
207 227 255
207 227 255
207 227 255
207 227 255
207 227 255
207 228 255
207 228 255
207 228 255
207 228 255
207 228 255
207 228 255
207 228 255
207 228 255
207 228 255
207 228 255
207 228 255
207 228 255
207 228 255
207 228 255
208 228 255
208 228 255
208 228 255
208 228 255
208 228 255
208 228 255
208 228 255
208 228 255
208 228 255
208 228 255
208 228 255
208 228 255
208 228 255
208 228 255
208 228 255
208 228 255
208 228 255
208 228 255
208 228 255
208 228 255
209 228 255
209 228 255
209 229 255
209 229 255
209 229 255
209 229 255
209 229 255
209 229 255
209 229 255
209 229 255
209 229 255
209 229 255
209 229 255
209 229 255
209 229 255
209 229 255
209 229 255
209 229 255
209 229 255
209 229 255
209 229 255
209 229 255
209 229 255
210 229 255
210 229 255
210 229 255
210 229 255
210 229 255
210 229 255
209 229 255
209 229 255
209 229 255
209 229 255
209 229 255
209 229 255
209 229 255
209 229 255
209 229 255
209 229 255
209 229 255
209 229 255
209 229 255
209 229 255
209 229 255
209 229 255
209 229 255
209 229 255
209 229 255
209 229 255
209 229 255
209 228 255
208 228 255
208 228 255
208 228 255
208 228 255
208 228 255
208 228 255
208 228 255
208 228 255
208 228 255
208 228 255
208 228 255
208 228 255
208 228 255
208 228 255
208 228 255
208 228 255
208 228 255
208 228 255
208 228 255
208 228 255
208 228 255
207 228 255
207 228 255
207 228 255
207 228 255
207 228 255
207 228 255
207 228 255
207 228 255
207 228 255
207 228 255
207 228 255
207 228 255
207 228 255
207 227 255
207 227 255
207 227 255
207 227 255
207 227 255
206 227 255
206 227 255
206 227 255
206 227 255
206 227 255
206 227 255
206 227 255
206 227 255
206 227 255
206 227 255
206 227 255
206 227 255
206 227 255
206 227 255
206 227 255
206 227 255
206 227 255
205 227 255
205 227 255
205 227 255
205 227 255
205 227 255
205 227 255
205 227 255
205 227 255
205 227 255
205 227 255
205 226 255
205 226 255
205 226 255
205 226 255
205 226 255
205 226 255
204 226 255
204 226 255
204 226 255
204 226 255
204 226 255
204 226 255
204 226 255
204 226 255
204 226 255
204 226 255
204 226 255
204 226 255
204 226 255
204 226 255
204 226 255
204 226 255
203 226 255
203 226 255
203 226 255
203 226 255
203 226 255
203 226 255
203 226 255
203 225 255
203 225 255
203 225 255
203 225 255
203 225 255
203 225 255
203 225 255
203 225 255
203 225 255
203 225 255
202 225 255
202 225 255
202 225 255
202 225 255
202 225 255
202 225 255
202 225 255
202 225 255
202 225 255
202 225 255
202 225 255
202 225 255
202 225 255
202 225 255
202 225 255
202 225 255
202 225 255
202 225 255
201 225 255
201 225 255
201 225 255
201 225 255
201 225 255
201 225 255
201 224 255
201 224 255
201 224 255
201 224 255
201 224 255
201 224 255
201 224 255
201 224 255
201 224 255
201 224 255
201 224 255
201 224 255
201 224 255
201 224 255
201 224 255
201 224 255
201 224 255
201 224 255
200 224 255
200 224 255
200 224 255
200 224 255
200 224 255
200 224 255
200 224 255
200 224 255
200 224 255
200 224 255
200 224 255
200 224 255
200 224 255
200 224 255
200 224 255
200 224 255
200 224 255
200 224 255
200 224 255
200 224 255
200 224 255
200 224 255
200 224 255
200 224 255
200 224 255
200 224 255
200 224 255
200 224 255
200 224 255
200 224 255
200 224 255
200 224 255
200 224 255
200 224 255
200 224 255
200 224 255
200 224 255
200 224 255
200 224 255
200 224 255
200 224 255
200 224 255
200 224 255
200 224 255
200 224 255
200 224 255
200 224 255
200 224 255
200 224 255
200 224 255
200 224 255
200 224 255
201 224 255
201 224 255
201 224 255
201 224 255
201 224 255
201 224 255
201 224 255
201 224 255
201 224 255
201 224 255
201 224 255
201 224 255
201 224 255
201 224 255
201 224 255
201 224 255
201 224 255
201 224 255
201 225 255
201 225 255
201 225 255
201 225 255
201 225 255
201 225 255
202 225 255
202 225 255
202 225 255
202 225 255
202 225 255
202 225 255
202 225 255
202 225 255
202 225 255
202 225 255
202 225 255
202 225 255
202 225 255
202 225 255
202 225 255
202 225 255
202 225 255
202 225 255
202 225 255
203 225 255
203 225 255
203 225 255
203 225 255
203 225 255
203 225 255
203 225 255
203 225 255
203 225 255
203 226 255
203 226 255
203 226 255
203 226 255
203 226 255
203 226 255
203 226 255
204 226 255
204 226 255
204 226 255
204 226 255
204 226 255
204 226 255
204 226 255
204 226 255
204 226 255
204 226 255
204 226 255
204 226 255
204 226 255
204 226 255
204 226 255
204 226 255
205 226 255
205 226 255
205 226 255
205 226 255
205 226 255
205 226 255
205 227 255
205 227 255
205 227 255
205 227 255
205 227 255
205 227 255
205 227 255
205 227 255
205 227 255
205 227 255
206 227 255
206 227 255
206 227 255
206 227 255
206 227 255
206 227 255
206 227 255
206 227 255
206 227 255
206 227 255
206 227 255
206 227 255
206 227 255
206 227 255
206 227 255
206 227 255
206 227 255
207 227 255
207 227 255
207 227 255
207 227 255
207 228 255
207 228 255
207 228 255
207 228 255
207 228 255
207 228 255
207 228 255
207 228 255
207 228 255
207 228 255
207 228 255
207 228 255
207 228 255
207 228 255
207 228 255
208 228 255
208 228 255
208 228 255
208 228 255
208 228 255
208 228 255
208 228 255
208 228 255
208 228 255
208 228 255
208 228 255
208 228 255
208 228 255
208 228 255
208 228 255
208 228 255
208 228 255
208 228 255
208 228 255
208 228 255
209 228 255
209 229 255
209 229 255
209 229 255
209 229 255
209 229 255
209 229 255
209 229 255
209 229 255
209 229 255
209 229 255
209 229 255
209 229 255
209 229 255
209 229 255
209 229 255
209 229 255
209 229 255
209 229 255
209 229 255
209 229 255
209 229 255
210 229 255
210 229 255
210 229 255
210 229 255
210 229 255
210 229 255
210 229 255
210 229 255
210 229 255
210 229 255
210 229 255
210 229 255
210 229 255
210 229 255
209 229 255
209 229 255
209 229 255
209 229 255
209 229 255
209 229 255
209 229 255
209 229 255
209 229 255
209 229 255
209 229 255
209 229 255
209 229 255
209 229 255
209 229 255
209 229 255
209 229 255
209 229 255
209 229 255
209 229 255
209 228 255
209 228 255
208 228 255
208 228 255
208 228 255
208 228 255
208 228 255
208 228 255
208 228 255
208 228 255
208 228 255
208 228 255
208 228 255
208 228 255
208 228 255
208 228 255
208 228 255
208 228 255
208 228 255
208 228 255
208 228 255
208 228 255
207 228 255
207 228 255
207 228 255
207 228 255
207 228 255
207 228 255
207 228 255
207 228 255
207 228 255
207 228 255
207 228 255
207 228 255
207 228 255
207 228 255
207 227 255
207 227 255
207 227 255
207 227 255
206 227 255
206 227 255
206 227 255
206 227 255
206 227 255
206 227 255
206 227 255
206 227 255
206 227 255
206 227 255
206 227 255
206 227 255
206 227 255
206 227 255
206 227 255
206 227 255
206 227 255
205 227 255
205 227 255
205 227 255
205 227 255
205 227 255
205 227 255
205 227 255
205 227 255
205 227 255
205 227 255
205 226 255
205 226 255
205 226 255
205 226 255
205 226 255
205 226 255
204 226 255
204 226 255
204 226 255
204 226 255
204 226 255
204 226 255
204 226 255
204 226 255
204 226 255
204 226 255
204 226 255
204 226 255
204 226 255
204 226 255
204 226 255
204 226 255
203 226 255
203 226 255
203 226 255
203 226 255
203 226 255
203 226 255
203 226 255
203 225 255
203 225 255
203 225 255
203 225 255
203 225 255
203 225 255
203 225 255
203 225 255
203 225 255
203 225 255
202 225 255
202 225 255
202 225 255
202 225 255
202 225 255
202 225 255
202 225 255
202 225 255
202 225 255
202 225 255
202 225 255
202 225 255
202 225 255
202 225 255
202 225 255
202 225 255
202 225 255
202 225 255
202 225 255
201 225 255
201 225 255
201 225 255
201 225 255
201 225 255
201 225 255
201 224 255
201 224 255
201 224 255
201 224 255
201 224 255
201 224 255
201 224 255
201 224 255
201 224 255
201 224 255
201 224 255
201 224 255
201 224 255
201 224 255
201 224 255
201 224 255
201 224 255
201 224 255
201 224 255
201 224 255
201 224 255
200 224 255
200 224 255
200 224 255
200 224 255
200 224 255
200 224 255
200 224 255
200 224 255
200 224 255
200 224 255
200 224 255
200 224 255
200 224 255
200 224 255
200 224 255
200 224 255
200 224 255
200 224 255
200 224 255
200 224 255
200 224 255
200 224 255
200 224 255
200 224 255
200 224 255
200 224 255
200 224 255
200 224 255
200 224 255
200 224 255
200 224 255
200 224 255
200 224 255
200 224 255
200 224 255
200 224 255
200 224 255
201 224 255
201 224 255
201 224 255
201 224 255
201 224 255
201 224 255
201 224 255
201 224 255
201 224 255
201 224 255
201 224 255
201 224 255
201 224 255
201 224 255
201 224 255
201 224 255
201 224 255
201 224 255
201 224 255
201 224 255
201 224 255
201 224 255
201 225 255
201 225 255
201 225 255
201 225 255
201 225 255
201 225 255
202 225 255
202 225 255
202 225 255
202 225 255
202 225 255
202 225 255
202 225 255
202 225 255
202 225 255
202 225 255
202 225 255
202 225 255
202 225 255
202 225 255
202 225 255
202 225 255
202 225 255
202 225 255
202 225 255
203 225 255
203 225 255
203 225 255
203 225 255
203 225 255
203 225 255
203 225 255
203 225 255
203 225 255
203 226 255
203 226 255
203 226 255
203 226 255
203 226 255
203 226 255
203 226 255
203 226 255
204 226 255
204 226 255
204 226 255
204 226 255
204 226 255
204 226 255
204 226 255
204 226 255
204 226 255
204 226 255
204 226 255
204 226 255
204 226 255
204 226 255
204 226 255
204 226 255
205 226 255
205 226 255
205 226 255
205 226 255
205 226 255
205 226 255
205 227 255
205 227 255
205 227 255
205 227 255
205 227 255
205 227 255
205 227 255
205 227 255
205 227 255
205 227 255
206 227 255
206 227 255
206 227 255
206 227 255
206 227 255
206 227 255
206 227 255
206 227 255
206 227 255
206 227 255
206 227 255
206 227 255
206 227 255
206 227 255
206 227 255
206 227 255
206 227 255
207 227 255
207 227 255
207 227 255
207 227 255
207 227 255
207 228 255
207 228 255
207 228 255
207 228 255
207 228 255
207 228 255
207 228 255
207 228 255
207 228 255
207 228 255
207 228 255
207 228 255
207 228 255
208 228 255
208 228 255
208 228 255
208 228 255
208 228 255
208 228 255
208 228 255
208 228 255
208 228 255
208 228 255
208 228 255
208 228 255
208 228 255
208 228 255
208 228 255
208 228 255
208 228 255
208 228 255
208 228 255
208 228 255
209 228 255
209 228 255
209 229 255
209 229 255
209 229 255
209 229 255
209 229 255
209 229 255
209 229 255
209 229 255
209 229 255
209 229 255
209 229 255
209 229 255
209 229 255
209 229 255
209 229 255
209 229 255
209 229 255
209 229 255
209 229 255
209 229 255
209 229 255
210 229 255
210 229 255
210 229 255
210 229 255
210 229 255
210 229 255
210 229 255
210 229 255
210 229 255
210 229 255
210 229 255
210 229 255
210 229 255
210 229 255
210 229 255
210 229 255
210 229 255
210 229 255
210 229 255
210 229 255
209 229 255
209 229 255
209 229 255
209 229 255
209 229 255
209 229 255
209 229 255
209 229 255
209 229 255
209 229 255
209 229 255
209 229 255
209 229 255
209 229 255
209 229 255
209 229 255
209 229 255
209 229 255
209 229 255
209 229 255
209 229 255
209 228 255
208 228 255
208 228 255
208 228 255
208 228 255
208 228 255
208 228 255
208 228 255
208 228 255
208 228 255
208 228 255
208 228 255
208 228 255
208 228 255
208 228 255
208 228 255
208 228 255
208 228 255
208 228 255
208 228 255
208 228 255
207 228 255
207 228 255
207 228 255
207 228 255
207 228 255
207 228 255
207 228 255
207 228 255
207 228 255
207 228 255
207 228 255
207 228 255
207 228 255
207 228 255
207 227 255
207 227 255
207 227 255
207 227 255
206 227 255
206 227 255
206 227 255
206 227 255
206 227 255
206 227 255
206 227 255
206 227 255
206 227 255
206 227 255
206 227 255
206 227 255
206 227 255
206 227 255
206 227 255
206 227 255
206 227 255
205 227 255
205 227 255
205 227 255
205 227 255
205 227 255
205 227 255
205 227 255
205 227 255
205 227 255
205 227 255
205 226 255
205 226 255
205 226 255
205 226 255
205 226 255
205 226 255
204 226 255
204 226 255
204 226 255
204 226 255
204 226 255
204 226 255
204 226 255
204 226 255
204 226 255
204 226 255
204 226 255
204 226 255
204 226 255
204 226 255
204 226 255
204 226 255
204 226 255
203 226 255
203 226 255
203 226 255
203 226 255
203 226 255
203 226 255
203 226 255
203 225 255
203 225 255
203 225 255
203 225 255
203 225 255
203 225 255
203 225 255
203 225 255
203 225 255
203 225 255
202 225 255
202 225 255
202 225 255
202 225 255
202 225 255
202 225 255
202 225 255
202 225 255
202 225 255
202 225 255
202 225 255
202 225 255
202 225 255
202 225 255
202 225 255
202 225 255
202 225 255
202 225 255
202 225 255
201 225 255
201 225 255
201 225 255
201 225 255
201 225 255
201 225 255
201 225 255
201 225 255
201 224 255
201 224 255
201 224 255
201 224 255
201 224 255
201 224 255
201 224 255
201 224 255
201 224 255
201 224 255
201 224 255
201 224 255
201 224 255
201 224 255
201 224 255
201 224 255
201 224 255
201 224 255
201 224 255
201 224 255
201 224 255
201 224 255
201 224 255
201 224 255
201 224 255
201 224 255
201 224 255
201 224 255
201 224 255
201 224 255
201 224 255
201 224 255
201 224 255
201 224 255
201 224 255
201 224 255
201 224 255
201 224 255
201 224 255
201 224 255
201 224 255
201 224 255
201 224 255
201 224 255
201 224 255
201 224 255
201 224 255
201 224 255
201 224 255
201 224 255
201 224 255
201 224 255
201 224 255
201 224 255
201 224 255
201 224 255
201 224 255
201 224 255
201 224 255
201 224 255
201 224 255
201 224 255
201 224 255
201 224 255
201 224 255
201 224 255
201 224 255
201 224 255
201 225 255
201 225 255
201 225 255
201 225 255
201 225 255
201 225 255
201 225 255
202 225 255
202 225 255
202 225 255
202 225 255
202 225 255
202 225 255
202 225 255
202 225 255
202 225 255
202 225 255
202 225 255
202 225 255
202 225 255
202 225 255
202 225 255
202 225 255
202 225 255
202 225 255
202 225 255
202 225 255
203 225 255
203 225 255
203 225 255
203 225 255
203 225 255
203 225 255
203 225 255
203 225 255
203 225 255
203 225 255
203 226 255
203 226 255
203 226 255
203 226 255
203 226 255
203 226 255
203 226 255
204 226 255
204 226 255
204 226 255
204 226 255
204 226 255
204 226 255
204 226 255
204 226 255
204 226 255
204 226 255
204 226 255
204 226 255
204 226 255
204 226 255
204 226 255
204 226 255
204 226 255
205 226 255
205 226 255
205 226 255
205 226 255
205 226 255
205 226 255
205 227 255
205 227 255
205 227 255
205 227 255
205 227 255
205 227 255
205 227 255
205 227 255
205 227 255
205 227 255
206 227 255
206 227 255
206 227 255
206 227 255
206 227 255
206 227 255
206 227 255
206 227 255
206 227 255
206 227 255
206 227 255
206 227 255
206 227 255
206 227 255
206 227 255
206 227 255
206 227 255
207 227 255
207 227 255
207 227 255
207 227 255
207 228 255
207 228 255
207 228 255
207 228 255
207 228 255
207 228 255
207 228 255
207 228 255
207 228 255
207 228 255
207 228 255
207 228 255
207 228 255
207 228 255
208 228 255
208 228 255
208 228 255
208 228 255
208 228 255
208 228 255
208 228 255
208 228 255
208 228 255
208 228 255
208 228 255
208 228 255
208 228 255
208 228 255
208 228 255
208 228 255
208 228 255
208 228 255
208 228 255
208 228 255
209 228 255
209 228 255
209 229 255
209 229 255
209 229 255
209 229 255
209 229 255
209 229 255
209 229 255
209 229 255
209 229 255
209 229 255
209 229 255
209 229 255
209 229 255
209 229 255
209 229 255
209 229 255
209 229 255
209 229 255
209 229 255
209 229 255
210 229 255
210 229 255
210 229 255
210 229 255
210 229 255
210 229 255
210 229 255
210 229 255
210 229 255
210 229 255
210 229 255
210 229 255
210 229 255
210 229 255
210 229 255
210 229 255
210 229 255
210 229 255
210 229 255
210 229 255
210 229 255
210 229 255
210 229 255
210 229 255
210 229 255
210 229 255
210 229 255
210 229 255
209 229 255
209 229 255
209 229 255
209 229 255
209 229 255
209 229 255
209 229 255
209 229 255
209 229 255
209 229 255
209 229 255
209 229 255
209 229 255
209 229 255
209 229 255
209 229 255
209 229 255
209 229 255
209 229 255
209 229 255
209 228 255
209 228 255
208 228 255
208 228 255
208 228 255
208 228 255
208 228 255
208 228 255
208 228 255
208 228 255
208 228 255
208 228 255
208 228 255
208 228 255
208 228 255
208 228 255
208 228 255
208 228 255
208 228 255
208 228 255
208 228 255
207 228 255
207 228 255
207 228 255
207 228 255
207 228 255
207 228 255
207 228 255
207 228 255
207 228 255
207 228 255
207 228 255
207 228 255
207 228 255
207 228 255
207 227 255
207 227 255
207 227 255
207 227 255
206 227 255
206 227 255
206 227 255
206 227 255
206 227 255
206 227 255
206 227 255
206 227 255
206 227 255
206 227 255
206 227 255
206 227 255
206 227 255
206 227 255
206 227 255
206 227 255
206 227 255
205 227 255
205 227 255
205 227 255
205 227 255
205 227 255
205 227 255
205 227 255
205 227 255
205 227 255
205 227 255
205 226 255
205 226 255
205 226 255
205 226 255
205 226 255
205 226 255
205 226 255
204 226 255
204 226 255
204 226 255
204 226 255
204 226 255
204 226 255
204 226 255
204 226 255
204 226 255
204 226 255
204 226 255
204 226 255
204 226 255
204 226 255
204 226 255
204 226 255
203 226 255
203 226 255
203 226 255
203 226 255
203 226 255
203 226 255
203 226 255
203 226 255
203 225 255
203 225 255
203 225 255
203 225 255
203 225 255
203 225 255
203 225 255
203 225 255
203 225 255
203 225 255
202 225 255
202 225 255
202 225 255
202 225 255
202 225 255
202 225 255
202 225 255
202 225 255
202 225 255
202 225 255
202 225 255
202 225 255
202 225 255
202 225 255
202 225 255
202 225 255
202 225 255
202 225 255
202 225 255
202 225 255
202 225 255
201 225 255
201 225 255
201 225 255
201 225 255
201 225 255
201 225 255
201 225 255
201 225 255
201 224 255
201 224 255
201 224 255
201 224 255
201 224 255
201 224 255
201 224 255
201 224 255
201 224 255
201 224 255
201 224 255
201 224 255
201 224 255
201 224 255
201 224 255
201 224 255
201 224 255
201 224 255
201 224 255
201 224 255
201 224 255
201 224 255
201 224 255
201 224 255
201 224 255
201 224 255
201 224 255
201 224 255
201 224 255
201 224 255
201 224 255
201 224 255
201 224 255
201 224 255
201 224 255
201 224 255
201 224 255
201 224 255
201 224 255
201 224 255
201 224 255
201 224 255
201 224 255
201 224 255
201 224 255
201 224 255
201 224 255
201 224 255
201 224 255
201 224 255
201 224 255
201 224 255
201 224 255
201 224 255
201 224 255
201 224 255
201 225 255
201 225 255
201 225 255
201 225 255
201 225 255
201 225 255
201 225 255
201 225 255
202 225 255
202 225 255
202 225 255
202 225 255
202 225 255
202 225 255
202 225 255
202 225 255
202 225 255
202 225 255
202 225 255
202 225 255
202 225 255
202 225 255
202 225 255
202 225 255
202 225 255
202 225 255
202 225 255
202 225 255
202 225 255
203 225 255
203 225 255
203 225 255
203 225 255
203 225 255
203 225 255
203 225 255
203 225 255
203 225 255
203 225 255
203 226 255
203 226 255
203 226 255
203 226 255
203 226 255
203 226 255
203 226 255
203 226 255
204 226 255
204 226 255
204 226 255
204 226 255
204 226 255
204 226 255
204 226 255
204 226 255
204 226 255
204 226 255
204 226 255
204 226 255
204 226 255
204 226 255
204 226 255
204 226 255
205 226 255
205 226 255
205 226 255
205 226 255
205 226 255
205 226 255
205 226 255
205 227 255
205 227 255
205 227 255
205 227 255
205 227 255
205 227 255
205 227 255
205 227 255
205 227 255
205 227 255
206 227 255
206 227 255
206 227 255
206 227 255
206 227 255
206 227 255
206 227 255
206 227 255
206 227 255
206 227 255
206 227 255
206 227 255
206 227 255
206 227 255
206 227 255
206 227 255
206 227 255
207 227 255
207 227 255
207 227 255
207 227 255
207 228 255
207 228 255
207 228 255
207 228 255
207 228 255
207 228 255
207 228 255
207 228 255
207 228 255
207 228 255
207 228 255
207 228 255
207 228 255
207 228 255
208 228 255
208 228 255
208 228 255
208 228 255
208 228 255
208 228 255
208 228 255
208 228 255
208 228 255
208 228 255
208 228 255
208 228 255
208 228 255
208 228 255
208 228 255
208 228 255
208 228 255
208 228 255
208 228 255
209 228 255
209 228 255
209 229 255
209 229 255
209 229 255
209 229 255
209 229 255
209 229 255
209 229 255
209 229 255
209 229 255
209 229 255
209 229 255
209 229 255
209 229 255
209 229 255
209 229 255
209 229 255
209 229 255
209 229 255
209 229 255
209 229 255
210 229 255
210 229 255
210 229 255
210 229 255
210 229 255
210 229 255
210 229 255
210 229 255
210 229 255
210 229 255
210 229 255
210 229 255
210 229 255
210 229 255
210 229 255
210 229 255
210 229 255
210 229 255
210 229 255
210 229 255
210 229 255
210 229 255
210 229 255
210 229 255
210 229 255
210 229 255
210 229 255
210 229 255
210 229 255
210 229 255
210 229 255
210 229 255
210 229 255
210 229 255
210 229 255
209 229 255
209 229 255
209 229 255
209 229 255
209 229 255
209 229 255
209 229 255
209 229 255
209 229 255
209 229 255
209 229 255
209 229 255
209 229 255
209 229 255
209 229 255
209 229 255
209 229 255
209 229 255
209 229 255
209 229 255
209 228 255
209 228 255
208 228 255
208 228 255
208 228 255
208 228 255
208 228 255
208 228 255
208 228 255
208 228 255
208 228 255
208 228 255
208 228 255
208 228 255
208 228 255
208 228 255
208 228 255
208 228 255
208 228 255
208 228 255
208 228 255
208 228 255
207 228 255
207 228 255
207 228 255
207 228 255
207 228 255
207 228 255
207 228 255
207 228 255
207 228 255
207 228 255
207 228 255
207 228 255
207 228 255
207 227 255
207 227 255
207 227 255
207 227 255
206 227 255
206 227 255
206 227 255
206 227 255
206 227 255
206 227 255
206 227 255
206 227 255
206 227 255
206 227 255
206 227 255
206 227 255
206 227 255
206 227 255
206 227 255
206 227 255
206 227 255
205 227 255
205 227 255
205 227 255
205 227 255
205 227 255
205 227 255
205 227 255
205 227 255
205 227 255
205 227 255
205 226 255
205 226 255
205 226 255
205 226 255
205 226 255
205 226 255
205 226 255
204 226 255
204 226 255
204 226 255
204 226 255
204 226 255
204 226 255
204 226 255
204 226 255
204 226 255
204 226 255
204 226 255
204 226 255
204 226 255
204 226 255
204 226 255
204 226 255
204 226 255
203 226 255
203 226 255
203 226 255
203 226 255
203 226 255
203 226 255
203 226 255
203 225 255
203 225 255
203 225 255
203 225 255
203 225 255
203 225 255
203 225 255
203 225 255
203 225 255
203 225 255
203 225 255
202 225 255
202 225 255
202 225 255
202 225 255
202 225 255
202 225 255
202 225 255
202 225 255
202 225 255
202 225 255
202 225 255
202 225 255
202 225 255
202 225 255
202 225 255
202 225 255
202 225 255
202 225 255
202 225 255
202 225 255
202 225 255
202 225 255
202 225 255
201 225 255
201 225 255
201 225 255
201 225 255
201 225 255
201 225 255
201 225 255
201 225 255
201 225 255
201 225 255
201 224 255
201 224 255
201 224 255
201 224 255
201 224 255
201 224 255
201 224 255
201 224 255
201 224 255
201 224 255
201 224 255
201 224 255
201 224 255
201 224 255
201 224 255
201 224 255
201 224 255
201 224 255
201 224 255
201 224 255
201 224 255
201 224 255
201 224 255
201 224 255
201 224 255
201 224 255
201 224 255
201 224 255
201 224 255
201 224 255
201 224 255
201 224 255
201 224 255
201 224 255
201 224 255
201 224 255
201 224 255
201 224 255
201 224 255
201 224 255
201 225 255
201 225 255
201 225 255
201 225 255
201 225 255
201 225 255
201 225 255
201 225 255
201 225 255
201 225 255
202 225 255
202 225 255
202 225 255
202 225 255
202 225 255
202 225 255
202 225 255
202 225 255
202 225 255
202 225 255
202 225 255
202 225 255
202 225 255
202 225 255
202 225 255
202 225 255
202 225 255
202 225 255
202 225 255
202 225 255
202 225 255
202 225 255
202 225 255
203 225 255
203 225 255
203 225 255
203 225 255
203 225 255
203 225 255
203 225 255
203 225 255
203 225 255
203 225 255
203 225 255
203 226 255
203 226 255
203 226 255
203 226 255
203 226 255
203 226 255
203 226 255
204 226 255
204 226 255
204 226 255
204 226 255
204 226 255
204 226 255
204 226 255
204 226 255
204 226 255
204 226 255
204 226 255
204 226 255
204 226 255
204 226 255
204 226 255
204 226 255
204 226 255
205 226 255
205 226 255
205 226 255
205 226 255
205 226 255
205 226 255
205 226 255
205 227 255
205 227 255
205 227 255
205 227 255
205 227 255
205 227 255
205 227 255
205 227 255
205 227 255
206 227 255
206 227 255
206 227 255
206 227 255
206 227 255
206 227 255
206 227 255
206 227 255
206 227 255
206 227 255
206 227 255
206 227 255
206 227 255
206 227 255
206 227 255
206 227 255
206 227 255
207 227 255
207 227 255
207 227 255
207 227 255
207 227 255
207 228 255
207 228 255
207 228 255
207 228 255
207 228 255
207 228 255
207 228 255
207 228 255
207 228 255
207 228 255
207 228 255
207 228 255
207 228 255
208 228 255
208 228 255
208 228 255
208 228 255
208 228 255
208 228 255
208 228 255
208 228 255
208 228 255
208 228 255
208 228 255
208 228 255
208 228 255
208 228 255
208 228 255
208 228 255
208 228 255
208 228 255
208 228 255
208 228 255
209 228 255
209 229 255
209 229 255
209 229 255
209 229 255
209 229 255
209 229 255
209 229 255
209 229 255
209 229 255
209 229 255
209 229 255
209 229 255
209 229 255
209 229 255
209 229 255
209 229 255
209 229 255
209 229 255
209 229 255
209 229 255
209 229 255
210 229 255
210 229 255
210 229 255
210 229 255
210 229 255
210 229 255
210 229 255
210 229 255
210 229 255
210 229 255
210 229 255
210 229 255
210 229 255
210 229 255
210 229 255
210 229 255
210 229 255
210 229 255
210 229 255
210 230 255
210 229 255
210 229 255
210 229 255
210 229 255
210 229 255
210 229 255
210 229 255
210 229 255
210 229 255
210 229 255
210 229 255
210 229 255
210 229 255
210 229 255
210 229 255
210 229 255
210 229 255
210 229 255
210 229 255
210 229 255
210 229 255
210 229 255
209 229 255
209 229 255
209 229 255
209 229 255
209 229 255
209 229 255
209 229 255
209 229 255
209 229 255
209 229 255
209 229 255
209 229 255
209 229 255
209 229 255
209 229 255
209 229 255
209 229 255
209 229 255
209 229 255
209 229 255
209 228 255
208 228 255
208 228 255
208 228 255
208 228 255
208 228 255
208 228 255
208 228 255
208 228 255
208 228 255
208 228 255
208 228 255
208 228 255
208 228 255
208 228 255
208 228 255
208 228 255
208 228 255
208 228 255
208 228 255
208 228 255
207 228 255
207 228 255
207 228 255
207 228 255
207 228 255
207 228 255
207 228 255
207 228 255
207 228 255
207 228 255
207 228 255
207 228 255
207 228 255
207 227 255
207 227 255
207 227 255
207 227 255
207 227 255
206 227 255
206 227 255
206 227 255
206 227 255
206 227 255
206 227 255
206 227 255
206 227 255
206 227 255
206 227 255
206 227 255
206 227 255
206 227 255
206 227 255
206 227 255
206 227 255
206 227 255
205 227 255
205 227 255
205 227 255
205 227 255
205 227 255
205 227 255
205 227 255
205 227 255
205 227 255
205 227 255
205 226 255
205 226 255
205 226 255
205 226 255
205 226 255
205 226 255
204 226 255
204 226 255
204 226 255
204 226 255
204 226 255
204 226 255
204 226 255
204 226 255
204 226 255
204 226 255
204 226 255
204 226 255
204 226 255
204 226 255
204 226 255
204 226 255
204 226 255
204 226 255
203 226 255
203 226 255
203 226 255
203 226 255
203 226 255
203 226 255
203 226 255
203 225 255
203 225 255
203 225 255
203 225 255
203 225 255
203 225 255
203 225 255
203 225 255
203 225 255
203 225 255
203 225 255
202 225 255
202 225 255
202 225 255
202 225 255
202 225 255
202 225 255
202 225 255
202 225 255
202 225 255
202 225 255
202 225 255
202 225 255
202 225 255
202 225 255
202 225 255
202 225 255
202 225 255
202 225 255
202 225 255
202 225 255
202 225 255
202 225 255
202 225 255
202 225 255
202 225 255
202 225 255
201 225 255
201 225 255
201 225 255
201 225 255
201 225 255
201 225 255
201 225 255
201 225 255
201 225 255
201 225 255
201 225 255
201 225 255
201 225 255
201 225 255
201 225 255
201 225 255
201 225 255
201 225 255
201 224 255
201 224 255
201 224 255
201 224 255
201 224 255
201 224 255
201 224 255
201 224 255
201 225 255
201 224 255
201 224 255
201 224 255
201 225 255
201 225 255
201 225 255
201 225 255
201 225 255
201 225 255
201 225 255
201 225 255
201 225 255
201 225 255
201 225 255
201 225 255
201 225 255
201 225 255
201 225 255
201 225 255
202 225 255
202 225 255
202 225 255
202 225 255
202 225 255
202 225 255
202 225 255
202 225 255
202 225 255
202 225 255
202 225 255
202 225 255
202 225 255
202 225 255
202 225 255
202 225 255
202 225 255
202 225 255
202 225 255
202 225 255
202 225 255
202 225 255
202 225 255
202 225 255
202 225 255
202 225 255
203 225 255
203 225 255
203 225 255
203 225 255
203 225 255
203 225 255
203 225 255
203 225 255
203 225 255
203 225 255
203 225 255
203 226 255
203 226 255
203 226 255
203 226 255
203 226 255
203 226 255
203 226 255
204 226 255
204 226 255
204 226 255
204 226 255
204 226 255
204 226 255
204 226 255
204 226 255
204 226 255
204 226 255
204 226 255
204 226 255
204 226 255
204 226 255
204 226 255
204 226 255
204 226 255
204 226 255
205 226 255
205 226 255
205 226 255
205 226 255
205 226 255
205 226 255
205 227 255
205 227 255
205 227 255
205 227 255
205 227 255
205 227 255
205 227 255
205 227 255
205 227 255
205 227 255
206 227 255
206 227 255
206 227 255
206 227 255
206 227 255
206 227 255
206 227 255
206 227 255
206 227 255
206 227 255
206 227 255
206 227 255
206 227 255
206 227 255
206 227 255
206 227 255
206 227 255
207 227 255
207 227 255
207 227 255
207 227 255
207 228 255
207 228 255
207 228 255
207 228 255
207 228 255
207 228 255
207 228 255
207 228 255
207 228 255
207 228 255
207 228 255
207 228 255
207 228 255
207 228 255
208 228 255
208 228 255
208 228 255
208 228 255
208 228 255
208 228 255
208 228 255
208 228 255
208 228 255
208 228 255
208 228 255
208 228 255
208 228 255
208 228 255
208 228 255
208 228 255
208 228 255
208 228 255
208 228 255
208 228 255
209 228 255
209 229 255
209 229 255
209 229 255
209 229 255
209 229 255
209 229 255
209 229 255
209 229 255
209 229 255
209 229 255
209 229 255
209 229 255
209 229 255
209 229 255
209 229 255
209 229 255
209 229 255
209 229 255
209 229 255
209 229 255
210 229 255
210 229 255
210 229 255
210 229 255
210 229 255
210 229 255
210 229 255
210 229 255
210 229 255
210 229 255
210 229 255
210 229 255
210 229 255
210 229 255
210 229 255
210 229 255
210 229 255
210 229 255
210 229 255
210 229 255
210 229 255
210 229 255
210 230 255
211 230 255
211 230 255
210 230 255
210 230 255
210 230 255
210 229 255
210 229 255
210 229 255
210 229 255
210 229 255
210 229 255
210 229 255
210 229 255
210 229 255
210 229 255
210 229 255
210 229 255
210 229 255
210 229 255
210 229 255
210 229 255
210 229 255
210 229 255
210 229 255
210 229 255
210 229 255
209 229 255
209 229 255
209 229 255
209 229 255
209 229 255
209 229 255
209 229 255
209 229 255
209 229 255
209 229 255
209 229 255
209 229 255
209 229 255
209 229 255
209 229 255
209 229 255
209 229 255
209 229 255
209 229 255
209 229 255
209 229 255
209 228 255
208 228 255
208 228 255
208 228 255
208 228 255
208 228 255
208 228 255
208 228 255
208 228 255
208 228 255
208 228 255
208 228 255
208 228 255
208 228 255
208 228 255
208 228 255
208 228 255
208 228 255
208 228 255
208 228 255
207 228 255
207 228 255
207 228 255
207 228 255
207 228 255
207 228 255
207 228 255
207 228 255
207 228 255
207 228 255
207 228 255
207 228 255
207 228 255
207 228 255
207 227 255
207 227 255
207 227 255
207 227 255
206 227 255
206 227 255
206 227 255
206 227 255
206 227 255
206 227 255
206 227 255
206 227 255
206 227 255
206 227 255
206 227 255
206 227 255
206 227 255
206 227 255
206 227 255
206 227 255
206 227 255
205 227 255
205 227 255
205 227 255
205 227 255
205 227 255
205 227 255
205 227 255
205 227 255
205 227 255
205 227 255
205 226 255
205 226 255
205 226 255
205 226 255
205 226 255
205 226 255
205 226 255
204 226 255
204 226 255
204 226 255
204 226 255
204 226 255
204 226 255
204 226 255
204 226 255
204 226 255
204 226 255
204 226 255
204 226 255
204 226 255
204 226 255
204 226 255
204 226 255
204 226 255
203 226 255
203 226 255
203 226 255
203 226 255
203 226 255
203 226 255
203 226 255
203 226 255
203 226 255
203 225 255
203 225 255
203 225 255
203 225 255
203 225 255
203 225 255
203 225 255
203 225 255
203 225 255
203 225 255
203 225 255
202 225 255
202 225 255
202 225 255
202 225 255
202 225 255
202 225 255
202 225 255
202 225 255
202 225 255
202 225 255
202 225 255
202 225 255
202 225 255
202 225 255
202 225 255
202 225 255
202 225 255
202 225 255
202 225 255
202 225 255
202 225 255
202 225 255
202 225 255
202 225 255
202 225 255
202 225 255
202 225 255
202 225 255
202 225 255
202 225 255
202 225 255
201 225 255
201 225 255
201 225 255
201 225 255
201 225 255
201 225 255
201 225 255
201 225 255
201 225 255
201 225 255
201 225 255
201 225 255
201 225 255
201 225 255
201 225 255
201 225 255
201 225 255
201 225 255
201 225 255
201 225 255
201 225 255
201 225 255
201 225 255
201 225 255
201 225 255
201 225 255
202 225 255
202 225 255
202 225 255
202 225 255
202 225 255
202 225 255
202 225 255
202 225 255
202 225 255
202 225 255
202 225 255
202 225 255
202 225 255
202 225 255
202 225 255
202 225 255
202 225 255
202 225 255
202 225 255
202 225 255
202 225 255
202 225 255
202 225 255
202 225 255
202 225 255
202 225 255
202 225 255
202 225 255
202 225 255
202 225 255
202 225 255
203 225 255
203 225 255
203 225 255
203 225 255
203 225 255
203 225 255
203 225 255
203 225 255
203 225 255
203 225 255
203 225 255
203 226 255
203 226 255
203 226 255
203 226 255
203 226 255
203 226 255
203 226 255
203 226 255
203 226 255
204 226 255
204 226 255
204 226 255
204 226 255
204 226 255
204 226 255
204 226 255
204 226 255
204 226 255
204 226 255
204 226 255
204 226 255
204 226 255
204 226 255
204 226 255
204 226 255
204 226 255
205 226 255
205 226 255
205 226 255
205 226 255
205 226 255
205 226 255
205 226 255
205 227 255
205 227 255
205 227 255
205 227 255
205 227 255
205 227 255
205 227 255
205 227 255
205 227 255
205 227 255
206 227 255
206 227 255
206 227 255
206 227 255
206 227 255
206 227 255
206 227 255
206 227 255
206 227 255
206 227 255
206 227 255
206 227 255
206 227 255
206 227 255
206 227 255
206 227 255
206 227 255
207 227 255
207 227 255
207 227 255
207 227 255
207 228 255
207 228 255
207 228 255
207 228 255
207 228 255
207 228 255
207 228 255
207 228 255
207 228 255
207 228 255
207 228 255
207 228 255
207 228 255
207 228 255
208 228 255
208 228 255
208 228 255
208 228 255
208 228 255
208 228 255
208 228 255
208 228 255
208 228 255
208 228 255
208 228 255
208 228 255
208 228 255
208 228 255
208 228 255
208 228 255
208 228 255
208 228 255
208 228 255
209 228 255
209 228 255
209 229 255
209 229 255
209 229 255
209 229 255
209 229 255
209 229 255
209 229 255
209 229 255
209 229 255
209 229 255
209 229 255
209 229 255
209 229 255
209 229 255
209 229 255
209 229 255
209 229 255
209 229 255
209 229 255
209 229 255
210 229 255
210 229 255
210 229 255
210 229 255
210 229 255
210 229 255
210 229 255
210 229 255
210 229 255
210 229 255
210 229 255
210 229 255
210 229 255
210 229 255
210 229 255
210 229 255
210 229 255
210 229 255
210 229 255
210 229 255
210 229 255
210 230 255
210 230 255
210 230 255
211 230 255
211 230 255
211 230 255
211 230 255
211 230 255
211 230 255
211 230 255
211 230 255
210 230 255
210 230 255
210 230 255
210 229 255
210 229 255
210 229 255
210 229 255
210 229 255
210 229 255
210 229 255
210 229 255
210 229 255
210 229 255
210 229 255
210 229 255
210 229 255
210 229 255
210 229 255
210 229 255
210 229 255
210 229 255
210 229 255
210 229 255
210 229 255
209 229 255
209 229 255
209 229 255
209 229 255
209 229 255
209 229 255
209 229 255
209 229 255
209 229 255
209 229 255
209 229 255
209 229 255
209 229 255
209 229 255
209 229 255
209 229 255
209 229 255
209 229 255
209 229 255
209 229 255
209 228 255
208 228 255
208 228 255
208 228 255
208 228 255
208 228 255
208 228 255
208 228 255
208 228 255
208 228 255
208 228 255
208 228 255
208 228 255
208 228 255
208 228 255
208 228 255
208 228 255
208 228 255
208 228 255
208 228 255
208 228 255
207 228 255
207 228 255
207 228 255
207 228 255
207 228 255
207 228 255
207 228 255
207 228 255
207 228 255
207 228 255
207 228 255
207 228 255
207 228 255
207 227 255
207 227 255
207 227 255
207 227 255
207 227 255
206 227 255
206 227 255
206 227 255
206 227 255
206 227 255
206 227 255
206 227 255
206 227 255
206 227 255
206 227 255
206 227 255
206 227 255
206 227 255
206 227 255
206 227 255
206 227 255
206 227 255
205 227 255
205 227 255
205 227 255
205 227 255
205 227 255
205 227 255
205 227 255
205 227 255
205 227 255
205 227 255
205 226 255
205 226 255
205 226 255
205 226 255
205 226 255
205 226 255
205 226 255
204 226 255
204 226 255
204 226 255
204 226 255
204 226 255
204 226 255
204 226 255
204 226 255
204 226 255
204 226 255
204 226 255
204 226 255
204 226 255
204 226 255
204 226 255
204 226 255
204 226 255
203 226 255
203 226 255
203 226 255
203 226 255
203 226 255
203 226 255
203 226 255
203 226 255
203 226 255
203 225 255
203 225 255
203 225 255
203 225 255
203 225 255
203 225 255
203 225 255
203 225 255
203 225 255
203 225 255
203 225 255
203 225 255
202 225 255
202 225 255
202 225 255
202 225 255
202 225 255
202 225 255
202 225 255
202 225 255
202 225 255
202 225 255
202 225 255
202 225 255
202 225 255
202 225 255
202 225 255
202 225 255
202 225 255
202 225 255
202 225 255
202 225 255
202 225 255
202 225 255
202 225 255
202 225 255
202 225 255
202 225 255
202 225 255
202 225 255
202 225 255
202 225 255
202 225 255
202 225 255
202 225 255
202 225 255
202 225 255
202 225 255
202 225 255
202 225 255
202 225 255
202 225 255
202 225 255
202 225 255
202 225 255
202 225 255
202 225 255
202 225 255
202 225 255
202 225 255
202 225 255
202 225 255
202 225 255
202 225 255
202 225 255
202 225 255
202 225 255
202 225 255
202 225 255
202 225 255
202 225 255
202 225 255
202 225 255
202 225 255
202 225 255
202 225 255
202 225 255
202 225 255
202 225 255
202 225 255
202 225 255
202 225 255
202 225 255
202 225 255
202 225 255
202 225 255
202 225 255
202 225 255
202 225 255
202 225 255
203 225 255
203 225 255
203 225 255
203 225 255
203 225 255
203 225 255
203 225 255
203 225 255
203 225 255
203 225 255
203 225 255
203 225 255
203 226 255
203 226 255
203 226 255
203 226 255
203 226 255
203 226 255
203 226 255
203 226 255
203 226 255
204 226 255
204 226 255
204 226 255
204 226 255
204 226 255
204 226 255
204 226 255
204 226 255
204 226 255
204 226 255
204 226 255
204 226 255
204 226 255
204 226 255
204 226 255
204 226 255
204 226 255
204 226 255
205 226 255
205 226 255
205 226 255
205 226 255
205 226 255
205 226 255
205 227 255
205 227 255
205 227 255
205 227 255
205 227 255
205 227 255
205 227 255
205 227 255
205 227 255
205 227 255
205 227 255
206 227 255
206 227 255
206 227 255
206 227 255
206 227 255
206 227 255
206 227 255
206 227 255
206 227 255
206 227 255
206 227 255
206 227 255
206 227 255
206 227 255
206 227 255
206 227 255
207 227 255
207 227 255
207 227 255
207 227 255
207 227 255
207 228 255
207 228 255
207 228 255
207 228 255
207 228 255
207 228 255
207 228 255
207 228 255
207 228 255
207 228 255
207 228 255
207 228 255
207 228 255
208 228 255
208 228 255
208 228 255
208 228 255
208 228 255
208 228 255
208 228 255
208 228 255
208 228 255
208 228 255
208 228 255
208 228 255
208 228 255
208 228 255
208 228 255
208 228 255
208 228 255
208 228 255
208 228 255
209 228 255
209 228 255
209 229 255
209 229 255
209 229 255
209 229 255
209 229 255
209 229 255
209 229 255
209 229 255
209 229 255
209 229 255
209 229 255
209 229 255
209 229 255
209 229 255
209 229 255
209 229 255
209 229 255
209 229 255
209 229 255
209 229 255
210 229 255
210 229 255
210 229 255
210 229 255
210 229 255
210 229 255
210 229 255
210 229 255
210 229 255
210 229 255
210 229 255
210 229 255
210 229 255
210 229 255
210 229 255
210 229 255
210 229 255
210 229 255
210 229 255
210 229 255
210 229 255
210 230 255
210 230 255
210 230 255
211 230 255
211 230 255
211 230 255
211 230 255
211 230 255
211 230 255
211 230 255
211 230 255
211 230 255
211 230 255
211 230 255
211 230 255
211 230 255
211 230 255
211 230 255
211 230 255
210 230 255
210 230 255
210 230 255
210 229 255
210 229 255
210 229 255
210 229 255
210 229 255
210 229 255
210 229 255
210 229 255
210 229 255
210 229 255
210 229 255
210 229 255
210 229 255
210 229 255
210 229 255
210 229 255
210 229 255
210 229 255
210 229 255
210 229 255
210 229 255
209 229 255
209 229 255
209 229 255
209 229 255
209 229 255
209 229 255
209 229 255
210 229 255
209 229 255
209 229 255
209 229 255
209 228 254
211 230 255
209 229 255
208 228 254
209 228 254
209 229 254
208 228 254
209 228 255
208 228 254
209 229 255
208 228 254
209 229 255
208 228 255
208 228 255
208 228 255
208 228 255
208 228 255
208 228 255
208 228 255
208 228 255
208 228 255
208 228 255
208 228 255
208 228 255
208 228 255
208 228 255
208 228 255
208 228 255
208 228 255
207 228 255
207 228 255
207 228 255
207 228 255
207 228 255
207 228 255
207 228 255
207 228 255
207 228 255
207 228 255
207 228 255
207 228 255
207 228 255
207 228 255
207 227 255
207 227 255
207 227 255
207 227 255
206 227 255
206 227 255
206 227 255
206 227 255
206 227 255
206 227 255
206 227 255
206 227 255
206 227 255
206 227 255
206 227 255
206 227 255
206 227 255
206 227 255
206 227 255
206 227 255
206 227 255
205 227 255
205 227 255
205 227 255
205 227 255
205 227 255
205 227 255
205 227 255
205 227 255
205 227 255
205 227 255
205 226 255
205 226 255
205 226 255
205 226 255
205 226 255
205 226 255
205 226 255
204 226 255
204 226 255
204 226 255
204 226 255
204 226 255
204 226 255
204 226 255
204 226 255
204 226 255
204 226 255
204 226 255
204 226 255
204 226 255
204 226 255
204 226 255
204 226 255
204 226 255
204 226 255
203 226 255
203 226 255
203 226 255
203 226 255
203 226 255
203 226 255
203 226 255
203 226 255
203 226 255
203 225 255
203 225 255
203 225 255
203 225 255
203 225 255
203 225 255
203 225 255
203 225 255
203 225 255
203 225 255
203 225 255
203 225 255
203 225 255
203 225 255
202 225 255
202 225 255
202 225 255
202 225 255
202 225 255
202 225 255
202 225 255
202 225 255
202 225 255
202 225 255
202 225 255
202 225 255
202 225 255
202 225 255
202 225 255
202 225 255
202 225 255
202 225 255
202 225 255
202 225 255
202 225 255
202 225 255
202 225 255
202 225 255
202 225 255
202 225 255
202 225 255
202 225 255
202 225 255
202 225 255
202 225 255
202 225 255
202 225 255
202 225 255
202 225 255
202 225 255
202 225 255
202 225 255
202 225 255
202 225 255
202 225 255
202 225 255
202 225 255
202 225 255
202 225 255
202 225 255
202 225 255
202 225 255
202 225 255
202 225 255
202 225 255
202 225 255
202 225 255
202 225 255
202 225 255
202 225 255
202 225 255
202 225 255
202 225 255
202 225 255
202 225 255
202 225 255
202 225 255
202 225 255
202 225 255
202 225 255
203 225 255
203 225 255
203 225 255
203 225 255
203 225 255
203 225 255
203 225 255
203 225 255
203 225 255
203 225 255
203 225 255
203 225 255
203 225 255
203 225 255
203 226 255
203 226 255
203 226 255
203 226 255
203 226 255
203 226 255
203 226 255
203 226 255
203 226 255
204 226 255
204 226 255
204 226 255
204 226 255
204 226 255
204 226 255
204 226 255
204 226 255
204 226 255
204 226 255
204 226 255
204 226 255
204 226 255
204 226 255
204 226 255
204 226 255
204 226 255
204 226 255
205 226 255
205 226 255
205 226 255
205 226 255
205 226 255
205 226 255
205 226 255
205 227 255
205 227 255
205 227 255
205 227 255
205 227 255
205 227 255
205 227 255
205 227 255
205 227 255
205 227 255
206 227 255
206 227 255
206 227 255
206 227 255
206 227 255
206 227 255
206 227 255
206 227 255
206 227 255
206 227 255
206 227 255
206 227 255
206 227 255
206 227 255
206 227 255
206 227 255
206 227 255
207 227 255
207 227 255
207 227 255
207 227 255
207 228 255
207 228 255
207 228 255
207 228 255
207 228 255
207 228 255
207 228 255
207 228 255
207 228 255
207 228 255
207 228 255
207 228 255
207 228 255
207 228 255
208 228 255
208 228 255
208 228 255
208 228 255
208 228 255
208 228 255
208 228 255
208 228 255
208 228 255
208 228 255
208 228 255
208 228 255
208 228 255
205 223 246
199 215 237
196 210 229
194 207 219
191 204 217
194 207 217
186 194 200
183 191 193
186 194 197
184 192 192
186 193 195
183 189 193
179 186 193
185 195 202
187 195 199
185 195 205
187 198 208
194 206 219
195 210 227
200 215 233
196 211 231
205 223 246
209 229 255
209 229 255
209 229 255
209 229 255
209 229 255
210 229 255
210 229 255
210 229 255
210 229 255
210 229 255
210 229 255
210 229 255
210 229 255
210 229 255
210 229 255
210 229 255
210 229 255
210 229 255
210 229 255
210 229 255
210 229 255
210 229 255
210 229 255
210 229 255
210 229 255
210 229 255
210 230 255
210 230 255
210 230 255
211 230 255
211 230 255
211 230 255
211 230 255
211 230 255
211 230 255
211 230 255
211 230 255
211 230 255
211 230 255
211 230 255
211 230 255
211 230 255
211 230 255
211 230 255
211 230 255
211 230 255
211 230 255
211 230 255
211 230 255
211 230 255
211 230 255
211 230 255
211 230 255
210 230 255
210 230 255
210 230 255
210 229 255
210 229 255
210 229 255
210 229 255
210 229 255
210 229 255
210 229 255
210 229 255
210 229 255
210 229 255
210 229 255
210 229 255
210 229 255
210 229 255
210 229 255
209 229 255
210 229 254
209 229 255
210 229 254
208 228 253
209 229 255
209 229 255
208 228 255
209 229 254
208 228 255
210 229 253
208 228 252
206 227 252
209 228 253
208 228 254
208 228 254
207 228 253
209 229 255
208 228 254
208 228 254
207 227 250
207 227 250
206 227 254
208 228 255
207 228 254
208 228 253
207 227 250
207 227 254
206 227 252
208 228 253
207 228 255
208 228 252
209 228 253
208 228 253
209 229 254
208 228 254
207 228 255
208 228 255
208 228 255
208 228 255
208 228 255
208 228 255
208 228 255
208 228 255
208 228 255
207 228 255
207 228 255
207 228 255
207 228 255
207 228 255
207 228 255
207 228 255
207 228 255
207 228 255
207 228 255
207 228 255
207 228 255
207 228 255
207 228 255
207 227 255
207 227 255
207 227 255
207 227 255
207 227 255
206 227 255
206 227 255
206 227 255
206 227 255
206 227 255
206 227 255
206 227 255
206 227 255
206 227 255
206 227 255
206 227 255
206 227 255
206 227 255
206 227 255
206 227 255
206 227 255
206 227 255
205 227 255
205 227 255
205 227 255
205 227 255
205 227 255
205 227 255
205 227 255
205 227 255
205 227 255
205 227 255
205 226 255
205 226 255
205 226 255
205 226 255
205 226 255
205 226 255
205 226 255
204 226 255
204 226 255
204 226 255
204 226 255
204 226 255
204 226 255
204 226 255
204 226 255
204 226 255
204 226 255
204 226 255
204 226 255
204 226 255
204 226 255
204 226 255
204 226 255
204 226 255
204 226 255
204 226 255
203 226 255
203 226 255
203 226 255
203 226 255
203 226 255
203 226 255
203 226 255
203 226 255
203 226 255
203 226 255
203 225 255
203 225 255
203 225 255
203 225 255
203 225 255
203 225 255
203 225 255
203 225 255
203 225 255
203 225 255
203 225 255
203 225 255
203 225 255
203 225 255
203 225 255
202 225 255
202 225 255
202 225 255
202 225 255
202 225 255
202 225 255
202 225 255
202 225 255
202 225 255
202 225 255
202 225 255
202 225 255
202 225 255
202 225 255
202 225 255
202 225 255
202 225 255
202 225 255
202 225 255
202 225 255
202 225 255
202 225 255
202 225 255
202 225 255
202 225 255
202 225 255
202 225 255
202 225 255
202 225 255
202 225 255
202 225 255
202 225 255
202 225 255
202 225 255
202 225 255
202 225 255
202 225 255
202 225 255
202 225 255
202 225 255
202 225 255
202 225 255
202 225 255
202 225 255
202 225 255
202 225 255
202 225 255
202 225 255
202 225 255
202 225 255
202 225 255
202 225 255
203 225 255
203 225 255
203 225 255
203 225 255
203 225 255
203 225 255
203 225 255
203 225 255
203 225 255
203 225 255
203 225 255
203 225 255
203 225 255
203 225 255
203 225 255
203 226 255
203 226 255
203 226 255
203 226 255
203 226 255
203 226 255
203 226 255
203 226 255
203 226 255
203 226 255
204 226 255
204 226 255
204 226 255
204 226 255
204 226 255
204 226 255
204 226 255
204 226 255
204 226 255
204 226 255
204 226 255
204 226 255
204 226 255
204 226 255
204 226 255
204 226 255
204 226 255
204 226 255
204 226 255
205 226 255
205 226 255
205 226 255
205 226 255
205 226 255
205 226 255
205 226 255
205 227 255
205 227 255
205 227 255
205 227 255
205 227 255
205 227 255
205 227 255
205 227 255
205 227 255
205 227 255
206 227 255
206 227 255
206 227 255
206 227 255
206 227 255
206 227 255
206 227 255
206 227 255
206 227 255
206 227 255
206 227 255
206 227 255
206 227 255
206 227 255
206 227 255
206 227 255
206 227 255
206 227 255
207 227 255
207 227 255
207 227 255
207 227 255
207 228 255
207 228 255
207 228 255
207 228 255
207 228 255
207 228 255
207 228 255
207 228 255
207 228 255
207 228 255
207 228 255
207 228 255
207 228 255
208 228 255
208 228 255
208 228 255
208 228 255
208 228 255
208 228 255
208 228 255
205 223 249
201 216 234
195 209 224
184 193 199
183 189 190
173 173 158
162 157 132
158 154 129
153 144 104
150 139 88
157 146 91
152 140 86
155 142 87
155 142 85
155 144 90
158 148 93
154 142 86
148 136 85
155 145 92
156 144 88
156 148 93
158 147 92
150 135 81
153 141 87
154 143 86
156 142 87
155 145 91
154 143 87
156 144 89
155 145 91
151 136 80
160 148 92
155 144 89
160 153 111
160 155 122
172 171 151
173 176 167
177 182 181
187 193 196
188 199 212
196 207 221
207 225 249
210 229 255
210 229 255
210 229 255
210 229 255
210 229 255
210 229 255
210 229 255
210 229 255
210 229 255
210 229 255
210 229 255
210 229 255
210 230 255
210 230 255
210 230 255
211 230 255
211 230 255
211 230 255
211 230 255
211 230 255
211 230 255
211 230 255
211 230 255
211 230 255
211 230 255
211 230 255
211 230 255
211 230 255
211 230 255
211 230 255
211 230 255
211 230 255
211 230 255
211 230 255
211 230 255
211 230 255
211 230 255
211 230 255
211 230 255
211 230 255
211 230 255
211 230 255
211 230 255
211 230 255
211 230 255
211 230 255
211 230 255
210 230 255
210 230 255
210 230 255
210 229 255
210 229 255
210 229 255
210 229 254
210 229 254
210 229 255
210 229 255
209 228 250
209 229 254
209 228 253
210 230 255
209 229 254
208 228 252
209 229 255
209 228 254
208 228 253
208 228 252
208 228 254
207 228 254
207 227 248
207 227 250
206 227 253
206 227 253
206 227 253
206 227 254
206 227 250
205 226 250
206 227 254
206 226 250
204 226 252
205 226 252
205 226 249
204 226 252
205 226 253
207 227 253
205 226 254
205 226 250
205 226 253
205 226 249
207 228 255
205 227 255
205 226 249
206 227 253
205 226 253
205 227 253
204 226 250
206 227 250
206 227 250
208 228 254
204 226 252
208 228 254
208 228 254
208 228 254
208 228 254
208 228 255
208 228 255
208 228 255
208 228 255
208 228 255
208 228 255
207 228 255
207 228 255
207 228 255
207 228 255
207 228 255
207 228 255
207 228 255
207 228 255
207 228 255
207 228 255
207 228 255
207 228 255
207 228 255
207 228 255
207 227 255
207 227 255
207 227 255
207 227 255
206 227 255
206 227 255
206 227 255
206 227 255
206 227 255
206 227 255
206 227 255
206 227 255
206 227 255
206 227 255
206 227 255
206 227 255
206 227 255
206 227 255
206 227 255
206 227 255
206 227 255
205 227 255
205 227 255
205 227 255
205 227 255
205 227 255
205 227 255
205 227 255
205 227 255
205 227 255
205 227 255
205 227 255
205 226 255
205 226 255
205 226 255
205 226 255
205 226 255
205 226 255
205 226 255
204 226 255
204 226 255
204 226 255
204 226 255
204 226 255
204 226 255
204 226 255
204 226 255
204 226 255
204 226 255
204 226 255
204 226 255
204 226 255
204 226 255
204 226 255
204 226 255
204 226 255
204 226 255
204 226 255
204 226 255
203 226 255
203 226 255
203 226 255
203 226 255
203 226 255
203 226 255
203 226 255
203 226 255
203 226 255
203 226 255
203 225 255
203 225 255
203 225 255
203 225 255
203 225 255
203 225 255
203 225 255
203 225 255
203 225 255
203 225 255
203 225 255
203 225 255
203 225 255
203 225 255
203 225 255
203 225 255
203 225 255
203 225 255
203 225 255
202 225 255
202 225 255
202 225 255
202 225 255
202 225 255
202 225 255
202 225 255
202 225 255
202 225 255
202 225 255
202 225 255
202 225 255
202 225 255
202 225 255
202 225 255
202 225 255
202 225 255
202 225 255
202 225 255
202 225 255
202 225 255
202 225 255
202 225 255
202 225 255
202 225 255
202 225 255
202 225 255
202 225 255
202 225 255
202 225 255
202 225 255
202 225 255
202 225 255
203 225 255
203 225 255
203 225 255
203 225 255
203 225 255
203 225 255
203 225 255
203 225 255
203 225 255
203 225 255
203 225 255
203 225 255
203 225 255
203 225 255
203 225 255
203 225 255
203 225 255
203 225 255
203 225 255
203 225 255
203 226 255
203 226 255
203 226 255
203 226 255
203 226 255
203 226 255
203 226 255
203 226 255
203 226 255
203 226 255
204 226 255
204 226 255
204 226 255
204 226 255
204 226 255
204 226 255
204 226 255
204 226 255
204 226 255
204 226 255
204 226 255
204 226 255
204 226 255
204 226 255
204 226 255
204 226 255
204 226 255
204 226 255
204 226 255
204 226 255
205 226 255
205 226 255
205 226 255
205 226 255
205 226 255
205 226 255
205 226 255
205 227 255
205 227 255
205 227 255
205 227 255
205 227 255
205 227 255
205 227 255
205 227 255
205 227 255
205 227 255
205 227 255
206 227 255
206 227 255
206 227 255
206 227 255
206 227 255
206 227 255
206 227 255
206 227 255
206 227 255
206 227 255
206 227 255
206 227 255
206 227 255
206 227 255
206 227 255
206 227 255
206 227 255
207 227 255
207 227 255
207 227 255
207 227 255
207 228 255
207 228 255
207 228 255
207 228 255
207 228 255
207 228 255
207 228 255
207 228 255
207 228 255
207 228 255
207 228 255
207 228 255
207 228 255
207 228 255
208 228 255
208 228 255
208 228 255
208 228 255
204 223 248
193 206 219
184 193 199
177 181 176
165 162 142
159 153 120
150 138 84
151 139 85
154 143 90
151 138 85
152 139 84
151 139 85
151 138 83
153 142 89
157 147 91
150 138 84
154 141 86
158 148 93
149 137 85
148 135 83
156 146 92
149 136 81
156 146 91
154 142 87
152 144 91
152 140 88
155 145 90
158 149 94
156 146 92
154 144 91
150 140 86
157 147 91
152 141 87
157 147 94
159 148 91
154 144 91
153 141 86
158 146 90
152 137 81
158 146 89
159 147 90
155 141 85
154 141 84
147 137 84
153 141 84
155 144 89
154 142 87
152 139 81
160 150 109
177 177 162
176 177 167
189 198 202
197 211 229
206 223 245
210 229 255
210 229 255
210 230 255
210 230 255
210 230 255
211 230 255
211 230 255
211 230 255
211 230 255
211 230 255
211 230 255
211 230 255
211 230 255
211 230 255
211 230 255
211 230 255
211 230 255
211 230 255
211 230 255
211 230 255
211 230 255
211 230 255
211 230 255
211 230 255
211 230 255
211 230 255
211 230 255
211 230 255
211 230 255
211 230 255
211 230 255
211 230 255
211 230 255
211 230 255
211 230 255
211 230 255
211 230 255
211 230 255
211 230 255
211 230 255
211 230 255
211 230 255
211 230 255
211 230 255
211 230 255
210 229 254
211 230 254
210 229 255
208 228 253
210 229 255
208 228 253
209 228 252
208 228 252
209 229 255
208 228 252
208 228 255
208 228 255
206 227 252
206 227 253
207 228 254
207 228 255
207 228 254
206 227 253
207 227 255
205 227 255
206 227 253
205 226 255
205 226 254
205 227 255
204 226 255
205 226 255
204 226 255
206 227 255
205 227 255
204 226 255
204 226 255
204 226 255
203 225 255
205 227 255
204 226 255
202 225 254
203 225 255
203 226 255
205 227 255
203 226 255
204 226 254
205 226 254
204 226 255
204 226 254
205 226 254
205 226 254
204 226 255
206 227 255
203 225 253
205 227 253
205 226 252
204 226 252
206 227 254
208 228 255
207 227 250
208 228 254
208 228 253
208 228 255
207 228 255
207 228 254
208 228 255
208 228 255
208 228 255
207 228 255
207 228 255
207 228 255
207 228 255
207 228 255
207 228 255
207 228 255
207 228 255
207 228 255
207 228 255
207 228 255
207 228 255
207 228 255
207 227 255
207 227 255
207 227 255
207 227 255
207 227 255
206 227 255
206 227 255
206 227 255
206 227 255
206 227 255
206 227 255
206 227 255
206 227 255
206 227 255
206 227 255
206 227 255
206 227 255
206 227 255
206 227 255
206 227 255
206 227 255
206 227 255
205 227 255
205 227 255
205 227 255
205 227 255
205 227 255
205 227 255
205 227 255
205 227 255
205 227 255
205 227 255
205 227 255
205 226 255
205 226 255
205 226 255
205 226 255
205 226 255
205 226 255
205 226 255
204 226 255
204 226 255
204 226 255
204 226 255
204 226 255
204 226 255
204 226 255
204 226 255
204 226 255
204 226 255
204 226 255
204 226 255
204 226 255
204 226 255
204 226 255
204 226 255
204 226 255
204 226 255
204 226 255
204 226 255
204 226 255
203 226 255
203 226 255
203 226 255
203 226 255
203 226 255
203 226 255
203 226 255
203 226 255
203 226 255
203 226 255
203 226 255
203 226 255
203 225 255
203 225 255
203 225 255
203 225 255
203 225 255
203 225 255
203 225 255
203 225 255
203 225 255
203 225 255
203 225 255
203 225 255
203 225 255
203 225 255
203 225 255
203 225 255
203 225 255
203 225 255
203 225 255
203 225 255
203 225 255
203 225 255
203 225 255
203 225 255
203 225 255
203 225 255
203 225 255
203 225 255
203 225 255
203 225 255
203 225 255
203 225 255
203 225 255
203 225 255
203 225 255
203 225 255
203 225 255
203 225 255
203 225 255
203 225 255
203 225 255
203 225 255
203 225 255
203 225 255
203 225 255
203 225 255
203 225 255
203 225 255
203 225 255
203 225 255
203 225 255
203 225 255
203 225 255
203 225 255
203 225 255
203 225 255
203 225 255
203 225 255
203 226 255
203 226 255
203 226 255
203 226 255
203 226 255
203 226 255
203 226 255
203 226 255
203 226 255
203 226 255
203 226 255
203 226 255
204 226 255
204 226 255
204 226 255
204 226 255
204 226 255
204 226 255
204 226 255
204 226 255
204 226 255
204 226 255
204 226 255
204 226 255
204 226 255
204 226 255
204 226 255
204 226 255
204 226 255
204 226 255
204 226 255
204 226 255
204 226 255
205 226 255
205 226 255
205 226 255
205 226 255
205 226 255
205 226 255
205 226 255
205 227 255
205 227 255
205 227 255
205 227 255
205 227 255
205 227 255
205 227 255
205 227 255
205 227 255
205 227 255
205 227 255
206 227 255
206 227 255
206 227 255
206 227 255
206 227 255
206 227 255
206 227 255
206 227 255
206 227 255
206 227 255
206 227 255
206 227 255
206 227 255
206 227 255
206 227 255
206 227 255
206 227 255
207 227 255
207 227 255
207 227 255
207 227 255
207 227 255
207 228 255
207 228 255
207 228 255
207 228 255
207 228 255
207 228 255
207 228 255
207 228 255
207 228 255
207 228 255
207 228 255
207 228 255
207 228 255
208 228 255
208 228 255
208 228 255
204 223 247
193 204 212
179 183 181
170 169 150
158 153 122
144 131 80
153 142 87
151 141 87
150 139 86
154 145 91
155 144 88
152 141 88
151 139 85
150 138 84
160 150 94
158 146 90
153 142 89
155 146 92
150 137 85
155 145 91
150 140 88
155 144 90
160 152 96
155 146 93
153 144 92
159 151 97
158 147 92
157 146 91
154 143 88
161 152 96
157 148 94
156 145 90
150 137 83
158 149 94
150 140 88
157 145 90
156 145 90
151 140 86
158 146 90
158 149 93
152 141 86
157 147 91
155 143 88
155 145 91
155 146 92
160 150 94
165 153 94
155 144 90
149 136 81
161 151 93
158 146 90
151 141 89
159 148 94
156 143 87
151 141 87
155 143 86
154 142 87
156 143 86
156 144 89
158 152 119
167 166 150
181 186 182
200 213 228
208 226 250
211 230 255
211 230 255
211 230 255
211 230 255
211 230 255
211 230 255
211 230 255
211 230 255
211 230 255
211 230 255
211 230 255
211 230 255
211 230 255
211 230 255
211 230 255
211 230 255
211 230 255
211 230 255
211 230 255
211 230 255
211 230 255
211 230 255
211 230 255
211 230 255
211 230 255
211 230 255
211 230 255
211 230 255
211 230 255
211 230 255
211 230 255
211 230 255
211 230 255
210 229 254
211 230 255
210 229 253
211 230 255
211 230 254
208 228 249
210 229 252
207 227 249
209 229 253
209 229 254
208 228 254
207 228 254
208 228 253
208 228 253
208 228 255
207 227 255
207 228 254
207 228 255
207 227 254
206 227 255
206 227 254
205 227 255
206 227 255
205 227 255
206 227 255
205 227 255
204 226 255
205 226 255
204 226 255
204 226 255
202 225 255
203 226 255
204 226 255
202 225 255
202 225 255
203 225 255
202 225 255
202 225 255
202 225 254
201 225 255
202 225 255
201 225 255
201 225 255
203 226 255
201 224 255
202 225 255
203 225 255
202 225 255
203 225 255
202 225 255
202 225 255
202 225 255
202 225 255
203 225 255
204 226 255
203 226 255
202 225 254
204 226 255
203 226 255
205 227 255
205 226 253
204 226 254
206 226 248
203 225 250
206 227 253
206 227 252
207 227 249
207 228 254
208 228 255
208 228 254
208 228 255
208 228 255
208 228 255
208 228 255
207 228 255
207 228 255
207 228 255
207 228 255
207 228 255
207 228 255
207 228 255
207 228 255
207 228 255
207 228 255
207 228 255
207 228 255
207 228 255
207 227 255
207 227 255
207 227 255
207 227 255
207 227 255
206 227 255
206 227 255
206 227 255
206 227 255
206 227 255
206 227 255
206 227 255
206 227 255
206 227 255
206 227 255
206 227 255
206 227 255
206 227 255
206 227 255
206 227 255
206 227 255
206 227 255
205 227 255
205 227 255
205 227 255
205 227 255
205 227 255
205 227 255
205 227 255
205 227 255
205 227 255
205 227 255
205 227 255
205 226 255
205 226 255
205 226 255
205 226 255
205 226 255
205 226 255
205 226 255
205 226 255
204 226 255
204 226 255
204 226 255
204 226 255
204 226 255
204 226 255
204 226 255
204 226 255
204 226 255
204 226 255
204 226 255
204 226 255
204 226 255
204 226 255
204 226 255
204 226 255
204 226 255
204 226 255
204 226 255
204 226 255
204 226 255
204 226 255
203 226 255
203 226 255
203 226 255
203 226 255
203 226 255
203 226 255
203 226 255
203 226 255
203 226 255
203 226 255
203 226 255
203 226 255
203 226 255
203 226 255
203 226 255
203 225 255
203 225 255
203 225 255
203 225 255
203 225 255
203 225 255
203 225 255
203 225 255
203 225 255
203 225 255
203 225 255
203 225 255
203 225 255
203 225 255
203 225 255
203 225 255
203 225 255
203 225 255
203 225 255
203 225 255
203 225 255
203 225 255
203 225 255
203 225 255
203 225 255
203 225 255
203 225 255
203 225 255
203 225 255
203 225 255
203 225 255
203 225 255
203 225 255
203 225 255
203 225 255
203 225 255
203 225 255
203 225 255
203 225 255
203 225 255
203 226 255
203 226 255
203 226 255
203 226 255
203 226 255
203 226 255
203 226 255
203 226 255
203 226 255
203 226 255
203 226 255
203 226 255
203 226 255
203 226 255
203 226 255
204 226 255
204 226 255
204 226 255
204 226 255
204 226 255
204 226 255
204 226 255
204 226 255
204 226 255
204 226 255
204 226 255
204 226 255
204 226 255
204 226 255
204 226 255
204 226 255
204 226 255
204 226 255
204 226 255
204 226 255
204 226 255
204 226 255
205 226 255
205 226 255
205 226 255
205 226 255
205 226 255
205 226 255
205 226 255
205 226 255
205 227 255
205 227 255
205 227 255
205 227 255
205 227 255
205 227 255
205 227 255
205 227 255
205 227 255
205 227 255
205 227 255
206 227 255
206 227 255
206 227 255
206 227 255
206 227 255
206 227 255
206 227 255
206 227 255
206 227 255
206 227 255
206 227 255
206 227 255
206 227 255
206 227 255
206 227 255
206 227 255
206 227 255
206 227 255
207 227 255
207 227 255
207 227 255
207 227 255
207 228 255
207 228 255
207 228 255
207 228 255
207 228 255
207 228 255
207 228 255
207 228 255
207 228 255
207 228 255
207 228 255
207 228 255
207 228 255
207 228 255
208 228 255
208 228 255
201 218 239
183 191 199
167 166 159
159 153 117
150 138 86
152 142 91
157 147 93
154 143 87
155 145 90
155 146 92
157 148 94
152 140 85
154 143 90
156 149 95
151 143 92
160 149 94
144 135 85
158 148 93
158 147 91
155 145 92
157 150 96
155 147 94
156 147 92
154 145 92
155 144 91
161 152 97
157 149 95
156 147 92
158 150 95
153 141 86
154 144 89
152 142 89
162 153 98
159 150 93
156 146 92
155 146 93
152 142 89
159 151 97
161 151 94
155 145 91
151 140 87
159 150 94
153 143 91
161 149 91
158 150 93
162 151 93
156 145 92
155 146 93
154 144 90
153 140 85
155 143 87
157 146 89
158 147 92
156 142 86
151 140 85
154 142 86
156 145 90
155 144 90
162 152 95
155 144 90
158 146 88
156 146 88
159 147 89
151 139 85
155 141 84
154 141 82
150 135 82
147 131 76
158 151 120
173 173 163
188 196 200
201 215 230
211 230 255
211 230 255
211 230 255
211 230 255
211 230 255
211 230 255
211 230 255
211 230 255
211 230 255
211 230 255
211 230 255
211 230 255
211 230 255
211 230 255
212 230 255
212 230 255
212 230 255
212 230 255
211 230 255
211 230 255
211 230 255
211 230 255
211 230 255
211 230 255
211 230 255
211 230 255
211 230 255
210 229 254
210 229 254
211 230 252
210 229 252
211 230 255
209 229 253
210 229 254
208 228 250
208 228 253
209 229 254
209 229 254
208 228 255
208 228 255
207 228 255
207 227 255
207 228 255
206 227 255
207 228 255
205 227 255
205 226 255
206 227 255
205 227 255
203 226 255
204 226 254
204 226 255
204 226 255
204 226 255
202 225 255
203 225 255
202 225 255
202 225 255
202 225 255
202 225 255
200 224 254
202 225 255
200 224 255
200 224 255
201 224 255
200 224 255
201 224 255
200 224 254
200 224 255
200 224 254
200 224 255
200 224 255
199 224 255
200 224 255
199 224 255
199 223 255
199 223 255
199 224 255
198 223 255
200 224 255
199 224 255
201 225 255
201 224 255
200 224 255
201 224 255
201 225 255
201 224 255
202 225 255
202 225 255
202 225 255
203 226 255
203 225 254
204 226 255
203 225 252
204 226 253
204 226 253
204 226 253
205 226 253
205 227 254
206 226 250
208 228 253
207 228 253
207 227 254
208 228 255
208 228 255
208 228 255
207 228 255
207 228 255
207 228 255
207 228 255
207 228 255
207 228 255
207 228 255
207 228 255
207 228 255
207 228 255
207 228 255
207 228 255
207 228 255
207 228 255
207 227 255
207 227 255
207 227 255
207 227 255
206 227 255
206 227 255
206 227 255
206 227 255
206 227 255
206 227 255
206 227 255
206 227 255
206 227 255
206 227 255
206 227 255
206 227 255
206 227 255
206 227 255
206 227 255
206 227 255
206 227 255
206 227 255
205 227 255
205 227 255
205 227 255
205 227 255
205 227 255
205 227 255
205 227 255
205 227 255
205 227 255
205 227 255
205 227 255
205 226 255
205 226 255
205 226 255
205 226 255
205 226 255
205 226 255
205 226 255
205 226 255
205 226 255
204 226 255
204 226 255
204 226 255
204 226 255
204 226 255
204 226 255
204 226 255
204 226 255
204 226 255
204 226 255
204 226 255
204 226 255
204 226 255
204 226 255
204 226 255
204 226 255
204 226 255
204 226 255
204 226 255
204 226 255
204 226 255
204 226 255
204 226 255
204 226 255
203 226 255
203 226 255
203 226 255
203 226 255
203 226 255
203 226 255
203 226 255
203 226 255
203 226 255
203 226 255
203 226 255
203 226 255
203 226 255
203 226 255
203 226 255
203 226 255
203 226 255
203 226 255
203 226 255
203 226 255
203 226 255
203 226 255
203 226 255
203 226 255
203 226 255
203 226 255
203 226 255
203 226 255
203 226 255
203 226 255
203 226 255
203 226 255
203 226 255
203 226 255
203 226 255
203 226 255
203 226 255
203 226 255
203 226 255
203 226 255
203 226 255
203 226 255
203 226 255
203 226 255
203 226 255
203 226 255
203 226 255
203 226 255
203 226 255
203 226 255
203 226 255
203 226 255
203 226 255
203 226 255
203 226 255
203 226 255
204 226 255
204 226 255
204 226 255
204 226 255
204 226 255
204 226 255
204 226 255
204 226 255
204 226 255
204 226 255
204 226 255
204 226 255
204 226 255
204 226 255
204 226 255
204 226 255
204 226 255
204 226 255
204 226 255
204 226 255
204 226 255
204 226 255
204 226 255
204 226 255
205 226 255
205 226 255
205 226 255
205 226 255
205 226 255
205 226 255
205 226 255
205 226 255
205 226 255
205 227 255
205 227 255
205 227 255
205 227 255
205 227 255
205 227 255
205 227 255
205 227 255
205 227 255
205 227 255
205 227 255
206 227 255
206 227 255
206 227 255
206 227 255
206 227 255
206 227 255
206 227 255
206 227 255
206 227 255
206 227 255
206 227 255
206 227 255
206 227 255
206 227 255
206 227 255
206 227 255
206 227 255
206 227 255
207 227 255
207 227 255
207 227 255
207 227 255
207 228 255
207 228 255
207 228 255
207 228 255
207 228 255
207 228 255
207 228 255
207 228 255
207 228 255
207 228 255
207 228 255
207 228 255
207 228 255
207 228 255
208 228 255
208 228 255
205 224 249
186 198 208
167 169 155
165 162 134
158 150 95
158 148 92
155 145 91
157 148 95
151 140 87
158 149 94
155 145 91
159 151 96
160 151 96
157 150 97
160 153 99
155 146 93
151 143 91
148 137 84
157 147 92
159 151 95
157 150 96
153 145 91
155 146 92
156 146 93
152 142 90
157 148 93
158 150 95
150 138 85
157 149 95
154 143 89
157 147 93
155 145 91
163 157 101
161 151 95
159 151 96
151 142 90
154 143 88
156 146 92
153 143 90
161 153 97
158 147 93
160 150 93
158 147 94
155 146 92
159 150 94
154 143 89
161 152 96
164 152 93
158 148 92
157 148 94
153 142 88
162 153 98
158 150 97
157 147 93
156 146 93
158 149 95
150 139 86
158 148 92
156 145 89
160 150 91
153 140 84
157 145 91
156 144 89
157 145 89
160 150 93
152 141 87
157 145 87
151 142 88
152 139 82
155 142 86
155 145 89
155 144 85
153 141 83
159 148 91
157 148 89
154 142 84
163 156 117
181 185 181
190 199 203
205 222 245
211 230 255
211 230 255
211 230 255
211 230 255
211 230 255
211 230 255
212 230 255
212 230 255
212 230 255
212 230 255
212 230 255
212 230 255
212 230 255
212 230 255
212 230 255
212 230 255
212 230 255
212 230 255
211 230 255
211 230 254
213 231 255
210 229 253
212 230 254
210 229 253
209 229 255
210 229 254
208 228 253
208 228 252
208 228 253
208 228 252
208 228 255
208 228 255
208 228 255
208 228 255
206 227 255
206 227 255
205 227 255
205 227 255
205 227 255
204 226 255
204 226 255
205 226 255
205 226 255
203 225 255
203 226 255
202 225 255
203 225 255
202 225 255
202 225 255
201 224 255
201 225 255
200 224 255
201 224 255
201 224 255
201 224 255
200 224 255
200 224 255
199 223 255
199 224 255
199 223 255
199 223 255
199 223 255
198 223 255
198 223 255
198 223 255
199 223 255
199 223 255
197 222 255
198 223 255
198 223 255
197 222 255
198 223 255
197 222 255
197 222 254
198 223 254
198 223 255
198 223 255
198 223 255
197 222 255
198 223 255
199 223 255
198 223 255
199 223 255
199 223 255
200 224 255
200 224 254
201 224 255
200 224 254
199 224 255
201 224 254
202 225 255
200 224 255
202 225 254
204 226 255
204 226 252
204 226 253
205 227 254
204 225 248
206 227 253
207 227 250
207 227 254
208 228 254
208 228 255
208 228 255
208 228 255
208 228 255
207 228 255
207 228 255
207 228 255
207 228 255
207 228 255
207 228 255
207 228 255
207 228 255
207 228 255
207 228 255
207 228 255
207 228 255
207 228 255
207 228 255
207 227 255
207 227 255
207 227 255
207 227 255
206 227 255
206 227 255
206 227 255
206 227 255
206 227 255
206 227 255
206 227 255
206 227 255
206 227 255
206 227 255
206 227 255
206 227 255
206 227 255
206 227 255
206 227 255
206 227 255
206 227 255
206 227 255
205 227 255
205 227 255
205 227 255
205 227 255
205 227 255
205 227 255
205 227 255
205 227 255
205 227 255
205 227 255
205 227 255
205 227 255
205 226 255
205 226 255
205 226 255
205 226 255
205 226 255
205 226 255
205 226 255
205 226 255
205 226 255
204 226 255
204 226 255
204 226 255
204 226 255
204 226 255
204 226 255
204 226 255
204 226 255
204 226 255
204 226 255
204 226 255
204 226 255
204 226 255
204 226 255
204 226 255
204 226 255
204 226 255
204 226 255
204 226 255
204 226 255
204 226 255
204 226 255
204 226 255
204 226 255
204 226 255
204 226 255
204 226 255
204 226 255
204 226 255
203 226 255
203 226 255
203 226 255
203 226 255
203 226 255
203 226 255
203 226 255
203 226 255
203 226 255
203 226 255
203 226 255
203 226 255
203 226 255
203 226 255
203 226 255
203 226 255
203 226 255
203 226 255
203 226 255
203 226 255
203 226 255
203 226 255
203 226 255
203 226 255
203 226 255
203 226 255
203 226 255
203 226 255
203 226 255
203 226 255
203 226 255
203 226 255
203 226 255
203 226 255
203 226 255
203 226 255
204 226 255
204 226 255
204 226 255
204 226 255
204 226 255
204 226 255
204 226 255
204 226 255
204 226 255
204 226 255
204 226 255
204 226 255
204 226 255
204 226 255
204 226 255
204 226 255
204 226 255
204 226 255
204 226 255
204 226 255
204 226 255
204 226 255
204 226 255
204 226 255
204 226 255
204 226 255
204 226 255
204 226 255
204 226 255
204 226 255
205 226 255
205 226 255
205 226 255
205 226 255
205 226 255
205 226 255
205 226 255
205 226 255
205 227 255
205 227 255
205 227 255
205 227 255
205 227 255
205 227 255
205 227 255
205 227 255
205 227 255
205 227 255
205 227 255
205 227 255
206 227 255
206 227 255
206 227 255
206 227 255
206 227 255
206 227 255
206 227 255
206 227 255
206 227 255
206 227 255
206 227 255
206 227 255
206 227 255
206 227 255
206 227 255
206 227 255
206 227 255
206 227 255
207 227 255
207 227 255
207 227 255
207 227 255
207 228 255
207 228 255
207 228 255
207 228 255
207 228 255
207 228 255
207 228 255
207 228 255
207 228 255
207 228 255
207 228 255
207 228 255
207 228 255
207 228 255
208 228 255
208 228 255
208 228 255
200 216 234
175 179 173
162 157 129
145 133 82
150 137 82
153 142 89
156 146 90
155 146 92
153 144 91
160 152 97
158 148 93
153 143 90
151 141 90
157 147 92
156 147 95
151 140 86
157 147 92
160 151 96
158 150 96
157 149 94
155 144 89
157 150 96
159 152 97
153 146 94
161 155 99
152 144 93
160 154 99
160 149 93
150 141 89
156 147 93
154 146 92
160 151 95
154 144 92
154 145 92
154 146 93
160 151 96
157 148 93
156 149 95
162 155 99
157 149 97
162 153 95
160 152 98
160 151 94
159 150 94
159 149 92
157 148 94
159 150 94
161 153 98
163 155 99
160 152 98
162 153 97
152 143 89
158 149 93
163 154 98
153 145 92
155 146 89
161 152 97
161 152 96
153 144 93
158 150 95
157 147 92
159 150 94
152 142 86
161 150 92
161 152 96
158 148 94
163 152 93
159 149 93
158 145 88
155 144 87
151 143 91
157 145 87
155 144 88
154 143 87
151 138 82
158 147 92
155 143 85
158 146 90
156 145 90
155 145 90
158 145 88
150 136 81
153 140 83
168 161 135
186 193 194
198 211 226
211 229 254
212 230 255
212 230 255
212 230 255
212 230 255
212 230 255
212 230 255
212 230 255
212 230 255
212 230 255
212 230 255
211 230 255
212 230 255
210 229 252
211 230 254
212 230 254
210 229 250
211 229 253
208 228 250
208 228 250
208 228 253
208 228 252
209 229 255
208 228 255
208 228 255
209 229 255
208 228 255
207 228 255
206 227 255
207 227 255
206 227 255
205 227 255
205 226 254
205 226 255
205 226 255
204 226 255
204 226 254
202 225 255
202 225 255
202 225 255
202 225 255
202 225 255
202 225 255
201 225 255
201 224 255
201 224 255
200 224 255
200 223 254
199 223 255
199 223 255
199 223 255
199 223 255
198 223 254
199 223 255
198 223 255
197 222 255
197 222 255
197 222 255
198 223 255
197 222 255
197 222 255
197 222 255
196 222 255
196 222 255
196 222 255
196 222 255
196 222 255
196 221 255
196 222 255
196 221 255
196 222 255
196 222 255
196 222 255
196 222 255
196 222 255
196 222 255
196 222 255
196 222 255
197 222 255
196 222 255
197 222 255
197 222 255
198 223 255
198 223 255
197 222 255
199 223 255
199 223 255
200 224 255
199 224 255
201 224 255
201 224 255
202 225 255
202 225 255
204 226 255
203 225 254
204 226 254
204 226 253
203 225 250
205 226 252
205 226 250
210 229 255
208 228 255
208 228 255
208 228 255
208 228 255
208 228 255
208 228 255
207 228 255
207 228 255
207 228 255
207 228 255
207 228 255
207 228 255
207 228 255
207 228 255
207 228 255
207 228 255
207 228 255
207 228 255
207 228 255
207 228 255
207 227 255
207 227 255
207 227 255
207 227 255
206 227 255
206 227 255
206 227 255
206 227 255
206 227 255
206 227 255
206 227 255
206 227 255
206 227 255
206 227 255
206 227 255
206 227 255
206 227 255
206 227 255
206 227 255
206 227 255
206 227 255
206 227 255
206 227 255
205 227 255
205 227 255
205 227 255
205 227 255
205 227 255
205 227 255
205 227 255
205 227 255
205 227 255
205 227 255
205 227 255
205 227 255
205 226 255
205 226 255
205 226 255
205 226 255
205 226 255
205 226 255
205 226 255
205 226 255
205 226 255
204 226 255
204 226 255
204 226 255
204 226 255
204 226 255
204 226 255
204 226 255
204 226 255
204 226 255
204 226 255
204 226 255
204 226 255
204 226 255
204 226 255
204 226 255
204 226 255
204 226 255
204 226 255
204 226 255
204 226 255
204 226 255
204 226 255
204 226 255
204 226 255
204 226 255
204 226 255
204 226 255
204 226 255
204 226 255
204 226 255
204 226 255
204 226 255
204 226 255
204 226 255
204 226 255
204 226 255
204 226 255
204 226 255
204 226 255
204 226 255
204 226 255
204 226 255
204 226 255
204 226 255
204 226 255
204 226 255
204 226 255
204 226 255
204 226 255
204 226 255
204 226 255
204 226 255
204 226 255
204 226 255
204 226 255
204 226 255
204 226 255
204 226 255
204 226 255
204 226 255
204 226 255
204 226 255
204 226 255
204 226 255
204 226 255
204 226 255
204 226 255
204 226 255
204 226 255
204 226 255
204 226 255
204 226 255
204 226 255
204 226 255
204 226 255
204 226 255
204 226 255
204 226 255
204 226 255
204 226 255
204 226 255
204 226 255
204 226 255
204 226 255
205 226 255
205 226 255
205 226 255
205 226 255
205 226 255
205 226 255
205 226 255
205 226 255
205 226 255
205 227 255
205 227 255
205 227 255
205 227 255
205 227 255
205 227 255
205 227 255
205 227 255
205 227 255
205 227 255
205 227 255
205 227 255
206 227 255
206 227 255
206 227 255
206 227 255
206 227 255
206 227 255
206 227 255
206 227 255
206 227 255
206 227 255
206 227 255
206 227 255
206 227 255
206 227 255
206 227 255
206 227 255
206 227 255
206 227 255
206 227 255
207 227 255
207 227 255
207 227 255
207 227 255
207 228 255
207 228 255
207 228 255
207 228 255
207 228 255
207 228 255
207 228 255
207 228 255
207 228 255
207 228 255
207 228 255
207 228 255
207 228 255
207 228 255
208 228 255
208 228 255
208 228 255
208 228 255
193 207 222
176 181 178
161 156 120
149 138 86
151 138 83
153 143 91
158 146 89
152 144 93
156 146 91
149 138 85
158 150 94
161 152 97
153 144 91
156 147 94
159 153 98
161 152 95
149 138 85
161 153 98
157 148 94
158 149 95
153 145 92
156 149 96
160 152 99
158 151 96
158 150 95
163 156 99
155 148 96
157 147 92
163 157 102
156 148 95
165 158 100
159 150 96
158 150 96
160 152 97
161 153 97
159 150 95
155 147 93
161 154 99
158 150 95
161 154 99
160 150 94
159 151 97
152 142 89
158 149 95
159 149 93
156 147 93
158 148 93
161 152 96
156 146 92
161 151 95
158 149 94
165 157 100
162 154 99
156 148 93
155 145 92
161 151 94
164 155 98
162 152 94
161 150 92
162 154 96
154 144 89
161 154 96
153 143 89
155 143 86
158 150 96
161 153 96
159 150 93
166 158 102
160 150 94
158 149 92
157 147 90
159 148 92
160 149 91
156 147 90
159 149 92
158 147 89
156 147 93
159 151 95
155 142 84
159 146 89
160 149 93
157 145 88
152 138 82
151 143 86
157 146 92
157 145 88
153 140 80
159 147 88
150 138 80
162 156 125
176 179 170
200 213 229
212 230 255
212 230 255
212 230 255
212 230 255
212 230 255
212 230 255
212 230 255
211 230 254
211 230 253
211 230 252
211 229 253
210 229 253
210 229 252
210 229 255
210 229 254
209 228 253
209 229 255
208 228 255
208 228 254
208 228 255
207 228 255
207 228 255
207 228 255
206 227 255
206 227 255
205 227 255
205 226 255
205 226 255
205 226 255
203 226 254
203 225 255
203 225 255
203 225 255
203 225 255
201 225 254
201 224 255
201 224 255
201 224 255
201 224 255
200 224 255
200 224 255
199 224 255
199 223 255
199 223 255
199 223 255
198 223 255
198 223 255
197 222 255
197 222 255
198 223 255
196 222 255
196 222 255
196 222 255
196 222 255
195 221 255
195 221 255
196 222 255
195 221 255
195 221 255
195 221 255
195 221 255
195 221 255
194 221 255
194 221 255
195 221 255
194 221 255
194 221 255
194 221 255
194 221 255
194 221 255
194 221 255
194 221 255
195 221 255
194 221 255
194 221 255
194 221 255
195 221 255
195 221 255
195 221 255
194 221 255
195 221 254
196 222 255
196 222 255
196 222 255
197 222 255
198 223 255
198 223 255
198 223 255
200 224 255
199 223 255
200 224 255
201 225 255
202 225 255
203 225 255
203 225 255
203 225 254
204 226 254
204 226 253
205 226 253
207 227 252
206 227 253
208 228 253
208 228 255
208 228 255
208 228 255
208 228 255
208 228 255
208 228 255
207 228 255
207 228 255
207 228 255
207 228 255
207 228 255
207 228 255
207 228 255
207 228 255
207 228 255
207 228 255
207 228 255
207 228 255
207 228 255
207 228 255
207 227 255
207 227 255
207 227 255
207 227 255
207 227 255
206 227 255
206 227 255
206 227 255
206 227 255
206 227 255
206 227 255
206 227 255
206 227 255
206 227 255
206 227 255
206 227 255
206 227 255
206 227 255
206 227 255
206 227 255
206 227 255
206 227 255
206 227 255
206 227 255
205 227 255
205 227 255
205 227 255
205 227 255
205 227 255
205 227 255
205 227 255
205 227 255
205 227 255
205 227 255
205 227 255
205 227 255
205 227 255
205 226 255
205 226 255
205 226 255
205 226 255
205 226 255
205 226 255
205 226 255
205 226 255
205 226 255
205 226 255
204 226 255
204 226 255
204 226 255
204 226 255
204 226 255
204 226 255
204 226 255
204 226 255
204 226 255
204 226 255
204 226 255
204 226 255
204 226 255
204 226 255
204 226 255
204 226 255
204 226 255
204 226 255
204 226 255
204 226 255
204 226 255
204 226 255
204 226 255
204 226 255
204 226 255
204 226 255
204 226 255
204 226 255
204 226 255
204 226 255
204 226 255
204 226 255
204 226 255
204 226 255
204 226 255
204 226 255
204 226 255
204 226 255
204 226 255
204 226 255
204 226 255
204 226 255
204 226 255
204 226 255
204 226 255
204 226 255
204 226 255
204 226 255
204 226 255
204 226 255
204 226 255
204 226 255
204 226 255
204 226 255
204 226 255
204 226 255
204 226 255
204 226 255
204 226 255
204 226 255
204 226 255
204 226 255
204 226 255
204 226 255
204 226 255
204 226 255
204 226 255
204 226 255
204 226 255
204 226 255
204 226 255
205 226 255
205 226 255
205 226 255
205 226 255
205 226 255
205 226 255
205 226 255
205 226 255
205 226 255
205 227 255
205 227 255
205 227 255
205 227 255
205 227 255
205 227 255
205 227 255
205 227 255
205 227 255
205 227 255
205 227 255
205 227 255
205 227 255
205 227 255
206 227 255
206 227 255
206 227 255
206 227 255
206 227 255
206 227 255
206 227 255
206 227 255
206 227 255
206 227 255
206 227 255
206 227 255
206 227 255
206 227 255
206 227 255
206 227 255
206 227 255
206 227 255
206 227 255
207 227 255
207 227 255
207 227 255
207 227 255
207 228 255
207 228 255
207 228 255
207 228 255
207 228 255
207 228 255
207 228 255
207 228 255
207 228 255
207 228 255
207 228 255
207 228 255
207 228 255
207 228 255
208 228 255
208 228 255
208 228 255
208 228 255
208 228 255
197 212 228
179 186 187
163 159 133
148 134 79
151 142 89
152 142 89
150 139 87
152 145 93
153 144 91
158 150 94
154 144 90
150 140 88
156 150 96
159 152 97
156 150 97
157 150 96
159 150 95
159 150 96
152 143 91
161 154 99
156 150 98
161 156 102
160 152 97
158 150 96
160 152 97
160 154 100
159 153 99
152 141 88
163 154 98
159 152 95
157 147 92
159 152 99
162 155 101
160 152 98
162 154 99
162 154 98
160 151 97
162 154 99
164 159 103
160 152 97
161 156 102
158 147 91
159 150 96
162 154 99
160 153 99
161 154 99
160 150 95
163 155 100
161 154 99
165 158 102
163 154 97
162 154 99
161 151 93
158 150 96
161 153 98
165 157 99
163 155 99
162 155 99
160 152 96
162 153 97
161 153 95
156 146 93
160 150 94
159 152 97
158 150 93
164 155 97
158 149 93
159 150 94
158 146 89
159 150 95
162 152 96
162 152 94
161 149 90
159 149 91
162 152 92
161 150 93
165 157 97
159 147 91
160 151 93
155 145 89
160 150 94
152 141 87
159 148 90
158 148 89
159 149 90
161 150 92
152 139 84
157 147 90
159 146 85
156 146 90
151 139 84
158 147 89
156 143 83
154 139 82
158 147 89
156 148 110
185 191 194
206 222 240
212 230 255
211 230 254
212 230 253
211 230 254
210 229 253
211 230 254
210 229 252
209 229 253
209 228 250
209 229 254
209 229 255
209 229 255
209 229 255
208 228 255
207 228 255
207 228 255
206 227 255
207 228 255
205 227 255
205 227 255
205 226 255
205 227 255
204 226 255
203 225 255
203 226 255
203 225 255
203 226 255
202 225 255
202 225 255
201 224 255
202 225 255
201 224 255
200 224 255
200 224 255
199 223 255
199 223 255
199 223 255
199 223 255
198 223 255
199 223 255
198 223 255
197 222 255
197 222 255
196 222 255
196 222 255
196 222 255
196 222 255
195 221 255
195 221 255
195 221 255
194 221 255
195 221 255
195 221 255
194 221 255
194 221 255
193 220 255
194 221 255
193 220 255
193 220 255
193 220 255
193 220 255
192 220 255
193 220 255
193 220 255
193 220 255
193 220 255
192 219 255
192 220 255
192 220 255
192 220 255
192 220 255
192 220 255
193 220 255
193 220 255
193 220 255
193 220 255
193 220 255
193 220 255
195 221 255
194 221 255
194 221 255
195 221 255
196 222 255
195 221 255
195 221 255
196 222 255
198 223 255
197 222 255
198 223 254
198 223 255
200 224 255
199 223 254
200 224 255
202 225 255
204 226 254
204 226 255
205 226 252
204 226 254
203 225 253
207 228 255
207 228 255
208 228 254
208 228 255
208 228 255
208 228 255
208 228 255
208 228 255
208 228 255
208 228 255
207 228 255
207 228 255
207 228 255
207 228 255
207 228 255
207 228 255
207 228 255
207 228 255
207 228 255
207 228 255
207 228 255
207 228 255
207 228 255
207 228 255
207 227 255
207 227 255
207 227 255
207 227 255
206 227 255
206 227 255
206 227 255
206 227 255
206 227 255
206 227 255
206 227 255
206 227 255
206 227 255
206 227 255
206 227 255
206 227 255
206 227 255
206 227 255
206 227 255
206 227 255
206 227 255
206 227 255
206 227 255
206 227 255
206 227 255
205 227 255
205 227 255
205 227 255
205 227 255
205 227 255
205 227 255
205 227 255
205 227 255
205 227 255
205 227 255
205 227 255
205 227 255
205 227 255
205 226 255
205 226 255
205 226 255
205 226 255
205 226 255
205 226 255
205 226 255
205 226 255
205 226 255
205 226 255
205 226 255
205 226 255
204 226 255
204 226 255
204 226 255
204 226 255
204 226 255
204 226 255
204 226 255
204 226 255
204 226 255
204 226 255
204 226 255
204 226 255
204 226 255
204 226 255
204 226 255
204 226 255
204 226 255
204 226 255
204 226 255
204 226 255
204 226 255
204 226 255
204 226 255
204 226 255
204 226 255
204 226 255
204 226 255
204 226 255
204 226 255
204 226 255
204 226 255
204 226 255
204 226 255
204 226 255
204 226 255
204 226 255
204 226 255
204 226 255
204 226 255
204 226 255
204 226 255
204 226 255
204 226 255
204 226 255
204 226 255
204 226 255
204 226 255
204 226 255
204 226 255
204 226 255
204 226 255
204 226 255
204 226 255
204 226 255
204 226 255
204 226 255
205 226 255
205 226 255
205 226 255
205 226 255
205 226 255
205 226 255
205 226 255
205 226 255
205 226 255
205 226 255
205 226 255
205 226 255
205 227 255
205 227 255
205 227 255
205 227 255
205 227 255
205 227 255
205 227 255
205 227 255
205 227 255
205 227 255
205 227 255
205 227 255
205 227 255
205 227 255
206 227 255
206 227 255
206 227 255
206 227 255
206 227 255
206 227 255
206 227 255
206 227 255
206 227 255
206 227 255
206 227 255
206 227 255
206 227 255
206 227 255
206 227 255
206 227 255
206 227 255
206 227 255
206 227 255
207 227 255
207 227 255
207 227 255
207 227 255
207 227 255
207 228 255
207 228 255
207 228 255
207 228 255
207 228 255
207 228 255
207 228 255
207 228 255
207 228 255
207 228 255
207 228 255
207 228 255
207 228 255
207 228 255
208 228 255
208 228 255
208 228 255
208 228 255
208 228 255
208 228 255
204 223 247
184 193 203
165 161 137
148 134 82
152 141 87
149 139 87
159 150 95
155 144 90
155 146 91
160 153 98
155 147 94
153 144 91
158 150 96
151 142 90
162 153 97
156 149 96
156 149 95
159 151 97
156 148 94
157 149 95
155 147 94
155 147 95
160 152 97
161 154 97
156 148 96
157 150 96
155 148 96
162 152 95
161 154 100
160 152 96
158 149 94
157 150 97
158 150 96
161 156 102
157 151 98
160 153 99
161 154 100
160 154 99
161 153 98
164 158 102
163 157 102
166 160 104
166 161 106
160 153 98
161 154 98
161 154 99
158 151 96
159 148 91
160 153 99
161 154 98
161 153 98
161 154 98
162 152 96
160 151 96
161 154 100
155 146 93
161 153 97
161 152 95
163 156 99
165 157 101
157 147 92
160 152 98
160 151 95
163 154 98
162 154 98
160 153 98
167 159 100
157 148 93
157 149 93
157 148 93
156 147 90
158 148 89
160 151 94
165 156 100
156 147 91
159 152 98
162 154 96
159 149 91
157 146 88
157 148 90
159 150 94
155 143 89
158 148 93
164 154 97
158 148 92
159 146 89
156 145 90
156 143 87
159 148 91
156 143 85
159 148 87
158 145 87
153 141 86
157 144 87
155 145 88
152 137 82
154 142 85
148 134 80
151 140 84
156 143 85
144 131 75
166 162 139
212 231 255
212 230 253
211 230 253
210 229 250
209 229 253
209 229 254
211 230 255
210 229 254
210 229 255
208 228 255
209 228 255
209 229 255
206 227 254
207 228 255
207 227 255
206 227 255
205 226 255
205 227 255
204 226 254
205 226 255
204 226 255
203 226 255
203 226 255
202 225 255
202 225 255
202 225 255
201 224 255
201 225 255
201 224 255
200 224 255
201 224 255
199 223 255
199 224 255
198 223 255
198 223 255
198 223 255
198 223 255
197 222 255
197 222 255
196 222 255
196 222 255
196 222 255
195 221 255
195 221 255
196 221 255
195 221 255
194 221 255
194 221 255
193 220 255
194 220 255
193 220 255
193 220 255
193 220 255
192 220 255
192 220 255
192 220 255
192 220 255
192 219 255
191 219 255
192 220 255
191 219 255
191 219 255
191 219 255
191 219 255
191 219 255
191 219 255
191 219 255
191 219 255
191 219 255
191 219 255
191 219 255
191 219 255
191 219 255
191 219 255
191 219 255
191 219 255
191 219 255
192 220 255
191 219 255
192 220 255
192 220 255
193 220 255
193 220 255
194 220 255
194 221 255
195 221 255
195 221 255
194 221 255
196 222 255
196 222 255
198 223 255
197 222 255
199 223 255
200 224 255
202 225 255
201 224 254
202 225 254
203 226 255
203 225 250
206 227 254
206 227 253
206 227 254
209 228 254
208 228 255
208 228 255
208 228 255
208 228 255
208 228 255
208 228 255
208 228 255
208 228 255
208 228 255
207 228 255
207 228 255
207 228 255
207 228 255
207 228 255
207 228 255
207 228 255
207 228 255
207 228 255
207 228 255
207 228 255
207 228 255
207 228 255
207 228 255
207 227 255
207 227 255
207 227 255
207 227 255
207 227 255
206 227 255
206 227 255
206 227 255
206 227 255
206 227 255
206 227 255
206 227 255
206 227 255
206 227 255
206 227 255
206 227 255
206 227 255
206 227 255
206 227 255
206 227 255
206 227 255
206 227 255
206 227 255
206 227 255
206 227 255
206 227 255
205 227 255
205 227 255
205 227 255
205 227 255
205 227 255
205 227 255
205 227 255
205 227 255
205 227 255
205 227 255
205 227 255
205 227 255
205 227 255
205 227 255
205 227 255
205 226 255
205 226 255
205 226 255
205 226 255
205 226 255
205 226 255
205 226 255
205 226 255
205 226 255
205 226 255
205 226 255
205 226 255
205 226 255
205 226 255
205 226 255
204 226 255
205 226 255
204 226 255
204 226 255
204 226 255
204 226 255
204 226 255
204 226 255
204 226 255
204 226 255
204 226 255
204 226 255
204 226 255
204 226 255
204 226 255
204 226 255
204 226 255
204 226 255
204 226 255
204 226 255
204 226 255
204 226 255
204 226 255
204 226 255
204 226 255
204 226 255
204 226 255
204 226 255
204 226 255
204 226 255
204 226 255
204 226 255
204 226 255
204 226 255
204 226 255
204 226 255
205 226 255
205 226 255
205 226 255
205 226 255
205 226 255
205 226 255
205 226 255
205 226 255
205 226 255
205 226 255
205 226 255
205 226 255
205 226 255
205 226 255
205 226 255
205 227 255
205 227 255
205 227 255
205 227 255
205 227 255
205 227 255
205 227 255
205 227 255
205 227 255
205 227 255
205 227 255
205 227 255
205 227 255
205 227 255
205 227 255
206 227 255
206 227 255
206 227 255
206 227 255
206 227 255
206 227 255
206 227 255
206 227 255
206 227 255
206 227 255
206 227 255
206 227 255
206 227 255
206 227 255
206 227 255
206 227 255
206 227 255
206 227 255
206 227 255
206 227 255
206 227 255
207 227 255
207 227 255
207 227 255
207 227 255
207 227 255
207 228 255
207 228 255
207 228 255
207 228 255
207 228 255
207 228 255
207 228 255
207 228 255
207 228 255
207 228 255
207 228 255
207 228 255
207 228 255
207 228 255
208 228 255
208 228 255
208 228 255
208 228 255
208 228 255
208 228 255
208 228 255
208 228 255
198 213 230
174 177 169
156 147 102
155 143 89
158 149 93
156 148 94
153 144 89
152 144 92
153 144 90
154 146 93
156 149 96
152 143 92
158 151 97
154 144 91
160 154 99
160 150 94
157 149 95
155 148 96
157 150 96
156 149 95
154 147 95
164 158 103
160 152 97
156 148 94
159 149 94
160 151 96
160 153 98
161 154 100
160 153 99
160 152 97
158 153 100
158 151 97
166 157 101
164 160 104
162 157 102
159 154 100
164 155 99
160 153 98
161 157 103
157 150 95
165 159 103
157 149 95
164 156 99
158 149 95
159 152 98
159 150 95
157 150 96
167 160 102
162 154 99
162 156 100
162 156 101
165 157 100
164 157 101
160 152 95
161 154 99
160 153 99
159 151 98
159 149 91
166 157 100
161 153 98
158 150 95
161 153 99
163 154 99
165 156 99
159 150 95
159 148 90
165 157 99
160 150 93
164 157 100
161 151 94
164 155 97
166 157 98
165 156 99
163 153 95
164 157 101
157 147 92
162 153 98
161 151 92
158 148 93
157 146 90
159 151 94
163 156 97
161 153 95
162 153 94
154 142 86
162 154 95
163 155 96
160 149 90
162 151 91
154 142 84
154 142 85
153 142 88
152 139 82
158 147 88
159 150 92
159 148 91
154 142 84
157 148 90
153 138 79
152 139 82
155 144 86
149 138 81
155 143 86
152 139 85
211 229 252
211 230 254
210 229 255
211 230 255
210 229 255
209 229 254
210 229 255
209 229 255
208 228 255
207 228 255
207 228 255
206 227 255
206 227 254
205 227 255
205 226 255
205 227 255
205 226 255
203 225 255
204 226 255
204 226 255
203 225 254
203 225 255
202 225 255
201 225 255
201 224 255
201 224 255
201 224 255
200 224 255
200 224 255
199 223 255
199 223 255
198 223 255
199 223 255
197 222 255
197 222 255
196 222 255
197 222 255
196 222 255
195 221 255
195 221 255
195 221 255
195 221 255
195 221 255
194 221 255
193 220 255
194 221 255
193 220 255
193 220 255
193 220 255
192 220 255
192 220 255
192 219 255
192 220 255
191 219 255
191 219 255
191 219 255
191 219 255
191 219 255
190 218 255
190 219 255
190 219 255
190 218 255
190 218 255
189 218 255
190 218 255
189 218 255
190 218 255
189 218 255
189 218 255
189 218 255
190 219 255
189 218 255
190 218 255
189 218 255
190 218 255
190 218 255
190 218 255
190 218 255
191 219 255
190 218 255
190 219 255
191 219 255
191 219 255
191 219 255
192 220 255
192 220 255
193 220 255
194 221 255
194 221 255
194 221 255
194 221 255
195 221 255
197 222 255
197 222 255
198 223 255
199 224 255
200 224 255
202 225 255
202 225 255
203 225 254
204 226 254
204 226 253
206 227 254
207 228 254
208 228 255
208 228 255
208 228 255
208 228 255
208 228 255
208 228 255
208 228 255
208 228 255
208 228 255
208 228 255
208 228 255
208 228 255
207 228 255
207 228 255
207 228 255
207 228 255
207 228 255
207 228 255
207 228 255
207 228 255
207 228 255
207 228 255
207 228 255
207 228 255
207 228 255
207 228 255
207 228 255
207 227 255
207 227 255
207 227 255
207 227 255
207 227 255
206 227 255
206 227 255
206 227 255
206 227 255
206 227 255
206 227 255
206 227 255
206 227 255
206 227 255
206 227 255
206 227 255
206 227 255
206 227 255
206 227 255
206 227 255
206 227 255
206 227 255
206 227 255
206 227 255
206 227 255
206 227 255
206 227 255
205 227 255
205 227 255
205 227 255
205 227 255
205 227 255
205 227 255
205 227 255
205 227 255
205 227 255
205 227 255
205 227 255
205 227 255
205 227 255
205 227 255
205 227 255
205 227 255
205 227 255
205 227 255
205 226 255
205 226 255
205 226 255
205 226 255
205 226 255
205 226 255
205 226 255
205 226 255
205 226 255
205 226 255
205 226 255
205 226 255
205 226 255
205 226 255
205 226 255
205 226 255
205 226 255
205 226 255
205 226 255
205 226 255
205 226 255
205 226 255
205 226 255
205 226 255
205 226 255
205 226 255
205 226 255
205 226 255
205 226 255
205 226 255
205 226 255
205 226 255
205 226 255
205 226 255
205 226 255
205 226 255
205 226 255
205 226 255
205 226 255
205 226 255
205 226 255
205 226 255
205 226 255
205 226 255
205 226 255
205 226 255
205 226 255
205 226 255
205 227 255
205 227 255
205 227 255
205 227 255
205 227 255
205 227 255
205 227 255
205 227 255
205 227 255
205 227 255
205 227 255
205 227 255
205 227 255
205 227 255
205 227 255
205 227 255
205 227 255
205 227 255
206 227 255
206 227 255
206 227 255
206 227 255
206 227 255
206 227 255
206 227 255
206 227 255
206 227 255
206 227 255
206 227 255
206 227 255
206 227 255
206 227 255
206 227 255
206 227 255
206 227 255
206 227 255
206 227 255
206 227 255
206 227 255
206 227 255
207 227 255
207 227 255
207 227 255
207 227 255
207 227 255
207 228 255
207 228 255
207 228 255
207 228 255
207 228 255
207 228 255
207 228 255
207 228 255
207 228 255
207 228 255
207 228 255
207 228 255
207 228 255
207 228 255
207 228 255
208 228 255
208 228 255
208 228 255
208 228 255
208 228 255
208 228 255
208 228 255
208 228 255
208 228 255
207 227 253
187 197 207
166 161 132
153 143 90
154 143 89
158 148 92
152 144 91
151 139 86
152 143 90
158 150 96
153 144 91
152 143 92
159 153 99
154 145 92
160 153 99
161 155 100
161 154 99
162 156 101
162 156 101
159 152 99
160 152 98
161 155 101
159 152 97
158 152 98
159 153 99
156 148 95
155 149 96
156 147 93
159 150 95
158 153 99
157 151 99
158 151 98
161 156 103
165 158 101
164 159 103
159 152 98
160 153 99
164 160 106
160 154 101
162 155 100
159 150 96
162 156 101
159 152 98
159 152 98
166 160 104
162 156 100
165 159 103
164 156 99
164 157 102
160 154 101
164 159 103
161 154 99
164 156 100
161 155 99
160 151 96
161 153 99
155 147 93
165 158 101
161 154 99
159 150 96
160 153 96
158 150 95
166 158 100
161 153 97
153 144 91
165 156 100
159 150 94
160 151 95
159 150 94
163 153 96
165 157 99
160 152 98
158 150 93
165 155 96
159 150 94
162 155 101
160 152 94
161 152 95
168 158 99
159 152 97
164 156 99
162 153 95
160 150 93
159 149 92
161 153 95
155 144 88
159 149 91
164 155 95
162 151 93
159 147 90
150 139 83
158 148 90
163 153 94
157 148 91
156 145 89
160 148 91
161 150 90
156 145 87
163 152 93
158 148 89
157 145 89
151 141 84
156 143 86
152 139 80
156 144 87
159 148 90
158 146 85
210 229 253
211 230 255
209 228 254
209 229 255
209 229 254
209 229 255
207 228 254
207 228 254
207 228 255
207 228 255
206 227 254
206 227 255
206 227 255
205 226 254
204 226 255
204 226 255
204 226 255
203 226 255
204 226 255
202 225 255
202 225 255
202 225 255
201 225 255
201 224 255
201 224 255
200 224 255
200 224 255
199 223 255
199 223 255
198 223 255
198 223 255
198 223 255
197 222 255
197 222 255
197 222 255
196 222 255
196 222 255
195 221 255
195 221 255
195 221 255
194 221 255
194 221 255
193 220 255
194 220 255
193 220 255
193 220 255
193 220 255
192 220 255
192 219 255
192 219 255
191 219 255
191 219 255
190 219 255
191 219 255
190 219 255
191 219 255
190 218 255
190 218 255
189 218 255
189 218 255
189 218 255
188 218 255
189 218 255
189 218 255
188 218 255
188 217 255
188 218 255
188 218 255
188 218 255
189 218 255
188 218 255
188 217 255
188 217 255
188 218 255
188 218 255
188 218 255
188 218 255
189 218 255
188 218 255
189 218 255
189 218 255
190 218 255
189 218 255
190 219 255
190 218 255
190 219 255
191 219 255
191 219 255
192 220 255
192 220 255
192 220 255
194 221 255
193 220 255
194 221 255
196 221 255
197 222 254
198 223 255
198 223 255
199 223 255
201 224 254
202 225 255
202 225 255
203 225 254
205 226 255
206 227 252
206 227 254
208 228 255
208 228 253
208 228 255
208 228 255
208 228 255
208 228 255
208 228 255
208 228 255
208 228 255
208 228 255
208 228 255
208 228 255
208 228 255
208 228 255
208 228 255
207 228 255
207 228 255
207 228 255
207 228 255
207 228 255
207 228 255
207 228 255
207 228 255
207 228 255
207 228 255
207 228 255
207 228 255
207 228 255
207 228 255
207 228 255
207 227 255
207 227 255
207 227 255
207 227 255
207 227 255
206 227 255
206 227 255
206 227 255
206 227 255
206 227 255
206 227 255
206 227 255
206 227 255
206 227 255
206 227 255
206 227 255
206 227 255
206 227 255
206 227 255
206 227 255
206 227 255
206 227 255
206 227 255
206 227 255
206 227 255
206 227 255
206 227 255
206 227 255
206 227 255
205 227 255
205 227 255
205 227 255
205 227 255
205 227 255
205 227 255
205 227 255
205 227 255
205 227 255
205 227 255
205 227 255
205 227 255
205 227 255
205 227 255
205 227 255
205 227 255
205 227 255
205 227 255
205 227 255
205 227 255
205 227 255
205 227 255
205 227 255
205 227 255
205 227 255
205 226 255
205 226 255
205 226 255
205 226 255
205 226 255
205 226 255
205 226 255
205 226 255
205 226 255
205 226 255
205 226 255
205 226 255
205 226 255
205 226 255
205 226 255
205 226 255
205 226 255
205 226 255
205 226 255
205 226 255
205 227 255
205 227 255
205 227 255
205 227 255
205 227 255
205 227 255
205 227 255
205 227 255
205 227 255
205 227 255
205 227 255
205 227 255
205 227 255
205 227 255
205 227 255
205 227 255
205 227 255
205 227 255
205 227 255
205 227 255
205 227 255
205 227 255
205 227 255
205 227 255
205 227 255
205 227 255
206 227 255
206 227 255
206 227 255
206 227 255
206 227 255
206 227 255
206 227 255
206 227 255
206 227 255
206 227 255
206 227 255
206 227 255
206 227 255
206 227 255
206 227 255
206 227 255
206 227 255
206 227 255
206 227 255
206 227 255
206 227 255
206 227 255
206 227 255
207 227 255
207 227 255
207 227 255
207 227 255
207 227 255
207 227 255
207 228 255
207 228 255
207 228 255
207 228 255
207 228 255
207 228 255
207 228 255
207 228 255
207 228 255
207 228 255
207 228 255
207 228 255
207 228 255
207 228 255
208 228 255
208 228 255
208 228 255
208 228 255
208 228 255
208 228 255
208 228 255
208 228 255
208 228 255
208 228 255
208 228 255
208 228 255
206 225 249
185 192 197
158 150 113
155 146 92
156 145 90
155 146 92
158 150 95
156 147 94
157 147 93
155 144 90
152 143 91
157 148 92
161 154 98
160 152 98
158 152 98
158 150 95
156 149 97
156 147 95
155 148 96
162 156 100
157 151 98
160 153 98
157 151 98
162 155 100
162 156 101
160 153 98
161 156 102
161 154 100
162 155 100
157 149 96
161 154 100
160 153 98
162 155 101
158 151 97
158 151 97
164 159 104
167 160 104
160 154 101
163 156 101
164 155 98
162 156 101
161 155 99
167 161 105
162 154 98
160 154 99
158 150 95
167 161 106
164 160 104
164 157 100
158 150 96
168 160 102
164 154 99
163 155 99
163 156 100
158 149 94
159 149 92
164 156 100
164 156 99
161 154 97
166 161 105
157 149 94
164 158 103
166 159 101
160 153 98
160 154 100
166 159 103
162 154 98
162 153 97
164 155 98
162 153 96
166 157 99
164 156 99
164 155 98
163 153 98
167 162 105
162 154 96
166 156 97
169 160 100
157 146 90
160 153 96
162 152 94
156 146 90
162 152 93
159 151 96
160 152 92
163 153 97
160 151 94
158 147 90
157 149 94
161 151 95
161 151 93
157 147 88
162 153 93
161 153 94
161 152 94
156 143 87
162 151 93
160 151 94
158 148 88
164 156 99
159 146 87
161 151 93
160 148 87
158 149 93
158 148 92
160 153 93
157 147 89
153 140 82
157 143 85
210 230 255
210 229 255
209 228 255
208 228 254
208 228 255
209 228 255
207 228 255
207 228 255
206 227 255
206 227 255
205 227 254
205 226 254
204 226 255
204 226 254
204 226 254
203 226 255
203 225 255
203 225 255
202 225 255
201 225 255
201 224 255
201 224 255
200 224 255
201 224 255
199 223 255
199 223 255
199 223 255
198 223 255
198 223 255
197 222 255
197 222 255
197 222 255
196 222 255
196 222 255
195 221 255
195 221 255
195 221 255
194 221 255
195 221 255
194 220 255
193 220 255
194 220 255
193 220 255
193 220 255
193 220 255
192 220 255
192 219 255
191 219 255
191 219 255
191 219 255
190 219 255
190 219 255
190 219 255
189 218 255
189 218 255
189 218 255
189 218 255
189 218 255
189 218 255
188 218 255
188 218 255
188 218 255
188 217 255
188 217 255
187 217 255
187 217 255
187 217 255
187 217 255
187 217 255
187 217 255
187 217 255
187 217 255
187 217 255
187 217 255
187 217 255
187 217 255
187 217 255
187 217 255
187 217 255
188 217 255
188 217 255
187 217 255
188 217 255
188 218 255
189 218 255
189 218 255
190 218 255
190 218 255
190 219 255
190 219 255
191 219 255
192 219 255
192 220 255
192 220 255
193 220 255
194 221 255
194 221 255
196 222 255
197 222 255
197 222 255
198 223 255
200 224 255
201 224 255
202 225 255
204 226 255
202 225 252
205 227 255
204 226 249
207 227 253
209 228 255
208 228 255
208 228 255
208 228 255
208 228 255
208 228 255
208 228 255
208 228 255
208 228 255
208 228 255
208 228 255
208 228 255
208 228 255
208 228 255
208 228 255
208 228 255
207 228 255
207 228 255
207 228 255
207 228 255
207 228 255
207 228 255
207 228 255
207 228 255
207 228 255
207 228 255
207 228 255
207 228 255
207 228 255
207 228 255
207 228 255
207 228 255
207 227 255
207 227 255
207 227 255
207 227 255
207 227 255
206 227 255
206 227 255
206 227 255
206 227 255
206 227 255
206 227 255
206 227 255
206 227 255
206 227 255
206 227 255
206 227 255
206 227 255
206 227 255
206 227 255
206 227 255
206 227 255
206 227 255
206 227 255
206 227 255
206 227 255
206 227 255
206 227 255
206 227 255
206 227 255
206 227 255
206 227 255
206 227 255
205 227 255
205 227 255
205 227 255
205 227 255
205 227 255
205 227 255
205 227 255
205 227 255
205 227 255
205 227 255
205 227 255
205 227 255
205 227 255
205 227 255
205 227 255
205 227 255
205 227 255
205 227 255
205 227 255
205 227 255
205 227 255
205 227 255
205 227 255
205 227 255
205 227 255
196 218 249
197 219 250
202 224 254
204 226 255
205 227 255
205 227 255
205 227 255
205 227 255
205 227 255
205 227 255
205 227 255
205 227 255
205 227 255
205 227 255
205 227 255
205 227 255
205 227 255
205 227 255
205 227 255
205 227 255
205 227 255
205 227 255
205 227 255
205 227 255
205 227 255
205 227 255
205 227 255
205 227 255
205 227 255
206 227 255
206 227 255
206 227 255
206 227 255
206 227 255
206 227 255
206 227 255
206 227 255
206 227 255
206 227 255
206 227 255
206 227 255
206 227 255
206 227 255
206 227 255
206 227 255
206 227 255
206 227 255
206 227 255
206 227 255
206 227 255
206 227 255
206 227 255
206 227 255
206 227 255
206 227 255
206 227 255
207 227 255
207 227 255
207 227 255
207 227 255
207 227 255
207 228 255
207 228 255
207 228 255
207 228 255
207 228 255
207 228 255
207 228 255
207 228 255
207 228 255
207 228 255
207 228 255
207 228 255
207 228 255
207 228 255
207 228 255
207 228 255
208 228 255
208 228 255
208 228 255
208 228 255
208 228 255
208 228 255
208 228 255
208 228 255
208 228 255
208 228 255
208 228 255
208 228 255
208 228 255
208 228 255
205 223 247
185 193 194
160 152 104
156 144 90
151 138 85
154 141 87
162 154 97
159 152 97
159 152 98
159 151 95
161 153 97
159 151 96
156 150 98
155 147 94
160 151 96
159 152 98
163 157 103
156 148 96
162 156 101
160 155 102
161 153 98
154 149 97
160 154 99
160 152 99
158 152 97
164 159 103
161 155 101
162 156 102
163 156 101
166 160 104
163 156 100
161 155 100
163 157 102
164 159 104
163 157 102
160 154 101
157 151 98
162 156 102
161 154 100
165 157 101
165 160 105
158 151 97
164 157 100
167 162 106
162 154 97
164 157 102
162 154 98
164 157 101
163 158 102
168 162 104
166 160 104
163 156 101
162 156 102
163 157 103
161 153 97
162 155 101
169 162 105
163 156 99
171 165 106
162 155 98
168 159 101
163 156 101
162 155 99
160 153 98
161 153 97
165 158 99
166 156 96
163 156 98
169 163 106
165 158 98
158 150 96
161 155 102
160 151 96
166 158 103
159 149 92
164 156 99
164 156 99
162 153 96
162 153 96
166 158 100
166 159 101
164 157 99
163 153 96
162 152 92
167 159 101
164 156 98
157 148 92
157 148 91
159 151 95
164 155 98
157 148 93
161 149 90
160 151 91
162 153 94
161 149 88
163 154 97
165 155 97
162 152 91
162 152 92
164 154 95
157 148 92
157 147 88
163 151 90
158 146 90
158 147 87
157 146 87
155 144 87
156 145 86
158 146 88
153 140 83
162 152 91
210 229 255
209 229 255
208 228 254
208 228 255
208 228 255
207 228 255
207 227 254
206 227 255
206 227 255
206 227 255
205 227 255
204 226 255
204 226 255
204 226 255
203 226 255
202 225 255
203 225 255
202 225 255
201 225 255
201 224 255
201 224 255
200 224 255
199 223 255
199 223 255
199 223 255
199 223 255
198 223 255
198 223 255
197 222 255
197 222 255
197 222 255
196 222 255
196 222 255
196 222 255
195 221 255
194 221 255
194 221 255
194 221 255
194 220 255
194 220 255
193 220 255
193 220 255
192 220 255
192 219 255
192 219 255
191 219 255
191 219 255
191 219 255
190 219 255
190 219 255
190 218 255
189 218 255
189 218 255
189 218 255
189 218 255
188 218 255
188 218 255
188 217 255
188 217 255
187 217 255
187 217 255
187 217 255
187 217 255
187 217 255
187 217 255
186 217 255
186 217 255
186 217 255
186 217 255
186 217 255
186 216 255
186 216 255
185 216 255
186 216 255
186 216 255
186 216 255
186 217 255
185 216 255
186 217 255
186 216 255
186 217 255
187 217 255
187 217 255
187 217 255
187 217 255
187 217 255
187 217 255
188 217 255
188 218 255
189 218 255
189 218 255
190 218 255
190 218 255
191 219 255
191 219 255
192 220 255
193 220 255
194 221 255
194 221 255
195 221 255
196 222 255
198 223 255
199 223 255
200 224 255
202 225 255
202 225 255
203 225 255
205 226 255
205 227 253
208 228 253
208 228 253
208 228 255
208 228 255
208 228 255
208 228 255
208 228 255
208 228 255
208 228 255
208 228 255
208 228 255
208 228 255
208 228 255
208 228 255
208 228 255
208 228 255
208 228 255
208 228 255
208 228 255
208 228 255
208 228 255
207 228 255
207 228 255
207 228 255
207 228 255
207 228 255
207 228 255
207 228 255
207 228 255
207 228 255
207 228 255
207 228 255
207 228 255
207 228 255
207 228 255
207 228 255
207 228 255
207 228 255
207 227 255
207 227 255
207 227 255
207 227 255
207 227 255
206 227 255
206 227 255
206 227 255
206 227 255
206 227 255
206 227 255
206 227 255
206 227 255
206 227 255
206 227 255
206 227 255
206 227 255
206 227 255
206 227 255
206 227 255
206 227 255
206 227 255
206 227 255
206 227 255
206 227 255
206 227 255
206 227 255
206 227 255
206 227 255
206 227 255
206 227 255
206 227 255
206 227 255
206 227 255
206 227 255
206 227 255
206 227 255
206 227 255
206 227 255
205 227 255
205 227 255
205 227 255
205 226 255
192 214 246
166 189 229
158 181 223
125 150 204
121 147 204
94 123 191
67 103 176
62 99 175
62 98 174
62 99 177
63 100 178
61 98 175
65 101 180
79 111 185
92 121 187
109 136 194
134 158 208
142 166 214
164 186 227
188 210 243
204 225 254
205 227 255
205 227 255
205 227 255
206 227 255
206 227 255
206 227 255
206 227 255
206 227 255
206 227 255
206 227 255
206 227 255
206 227 255
206 227 255
206 227 255
206 227 255
206 227 255
206 227 255
206 227 255
206 227 255
206 227 255
206 227 255
206 227 255
206 227 255
206 227 255
206 227 255
206 227 255
206 227 255
206 227 255
206 227 255
206 227 255
206 227 255
206 227 255
206 227 255
206 227 255
206 227 255
206 227 255
206 227 255
207 227 255
207 227 255
207 227 255
207 227 255
207 227 255
207 227 255
207 228 255
207 228 255
207 228 255
207 228 255
207 228 255
207 228 255
207 228 255
207 228 255
207 228 255
207 228 255
207 228 255
207 228 255
207 228 255
207 228 255
207 228 255
207 228 255
208 228 255
208 228 255
208 228 255
208 228 255
208 228 255
208 228 255
208 228 255
208 228 255
208 228 255
208 228 255
208 228 255
208 228 255
208 228 255
208 228 255
208 228 255
208 228 255
208 228 255
205 225 252
179 186 187
161 153 116
153 142 89
158 149 94
154 144 90
155 145 91
149 141 91
156 147 93
154 145 92
159 151 96
163 157 102
158 150 96
160 151 95
163 156 100
158 152 98
160 153 100
159 152 99
156 148 95
158 151 97
157 149 96
165 159 104
162 158 104
160 153 98
160 154 99
159 153 99
163 156 101
162 157 103
163 158 102
163 158 103
159 153 100
163 158 104
162 156 101
161 156 101
166 162 107
168 162 104
166 160 104
162 157 102
162 155 101
166 160 104
162 156 100
165 159 103
166 161 106
162 156 101
162 156 101
167 163 106
164 157 103
166 159 103
166 158 102
164 157 102
162 155 100
161 156 103
166 159 103
163 157 101
169 163 106
162 154 100
167 159 100
168 160 102
165 158 103
164 159 103
165 155 96
166 159 103
165 157 96
169 162 106
162 154 98
166 157 99
169 163 104
165 157 100
164 158 101
164 157 100
165 159 103
168 160 103
157 150 94
166 158 100
166 157 100
164 156 100
168 160 101
163 154 99
160 151 93
163 154 96
162 153 95
164 155 96
162 153 97
161 152 96
162 153 94
154 144 88
162 154 97
164 157 100
163 154 96
162 154 97
164 155 96
162 155 99
163 155 98
163 154 96
159 148 91
164 154 95
163 155 98
159 148 91
162 152 94
158 147 86
166 157 98
160 149 90
167 158 96
163 153 91
153 141 83
161 151 93
161 151 93
154 143 83
166 157 95
159 149 91
162 151 91
163 151 89
156 144 87
210 229 255
209 228 255
208 228 255
208 228 255
207 227 255
206 227 255
206 227 254
205 227 255
205 227 255
205 226 255
204 226 255
204 226 255
203 226 255
203 226 255
203 225 255
202 225 255
202 225 255
202 225 255
201 224 255
200 224 255
200 224 255
199 223 255
199 223 255
199 223 255
198 223 255
198 223 255
198 223 255
197 222 255
197 222 255
197 222 255
196 222 255
195 221 255
195 221 255
195 221 255
194 221 255
194 221 255
194 221 255
194 220 255
193 220 255
193 220 255
192 220 255
192 220 255
191 219 255
191 219 255
191 219 255
191 219 255
190 219 255
190 219 255
190 218 255
190 218 255
189 218 255
189 218 255
189 218 255
188 218 255
188 218 255
188 217 255
188 217 255
187 217 255
187 217 255
187 217 255
186 217 255
186 217 255
186 217 255
186 216 255
186 216 255
186 216 255
185 216 255
185 216 255
185 216 255
185 216 255
185 216 255
185 216 255
185 216 255
185 216 255
185 216 255
185 216 255
185 216 255
185 216 255
185 216 255
185 216 255
185 216 255
185 216 255
185 216 255
185 216 255
186 216 255
186 217 255
186 217 255
186 217 255
187 217 255
187 217 255
188 217 255
189 218 255
188 218 255
189 218 255
189 218 255
191 219 255
191 219 255
191 219 255
193 220 255
193 220 255
194 220 255
195 221 255
196 222 255
197 222 255
197 222 255
199 224 255
201 224 254
202 225 255
204 226 255
206 227 255
206 227 255
207 228 254
208 228 254
209 229 255
208 228 255
208 228 255
208 228 255
208 228 255
208 228 255
208 228 255
208 228 255
208 228 255
208 228 255
208 228 255
208 228 255
208 228 255
208 228 255
208 228 255
208 228 255
208 228 255
208 228 255
208 228 255
208 228 255
208 228 255
208 228 255
207 228 255
207 228 255
207 228 255
207 228 255
207 228 255
207 228 255
207 228 255
207 228 255
207 228 255
207 228 255
207 228 255
207 228 255
207 228 255
207 228 255
207 228 255
207 228 255
207 228 255
207 227 255
207 227 255
207 227 255
207 227 255
207 227 255
207 227 255
206 227 255
206 227 255
206 227 255
206 227 255
206 227 255
206 227 255
206 227 255
206 227 255
206 227 255
206 227 255
206 227 255
206 227 255
206 227 255
206 227 255
206 227 255
206 227 255
206 227 255
206 227 255
206 227 255
206 227 255
206 227 255
206 227 255
206 227 255
206 227 255
206 227 255
206 227 255
206 227 255
203 224 254
186 208 242
145 169 216
124 149 205
65 101 179
61 98 174
62 99 175
63 100 176
63 100 178
62 98 170
61 98 173
62 99 175
62 99 175
63 99 174
62 99 177
62 98 172
62 99 175
63 100 179
61 98 173
61 98 173
62 99 175
62 99 174
62 99 179
62 99 176
61 99 180
70 105 180
124 149 203
157 180 224
173 195 233
198 219 250
206 227 255
206 227 255
206 227 255
206 227 255
206 227 255
206 227 255
206 227 255
206 227 255
206 227 255
206 227 255
206 227 255
206 227 255
206 227 255
206 227 255
206 227 255
206 227 255
206 227 255
206 227 255
206 227 255
206 227 255
206 227 255
206 227 255
206 227 255
206 227 255
206 227 255
206 227 255
206 227 255
207 227 255
207 227 255
207 227 255
207 227 255
207 227 255
207 227 255
207 228 255
207 228 255
207 228 255
207 228 255
207 228 255
207 228 255
207 228 255
207 228 255
207 228 255
207 228 255
207 228 255
207 228 255
207 228 255
207 228 255
207 228 255
207 228 255
207 228 255
208 228 255
208 228 255
208 228 255
208 228 255
208 228 255
208 228 255
208 228 255
208 228 255
208 228 255
208 228 255
208 228 255
208 228 255
208 228 255
208 228 255
208 228 255
208 228 255
208 228 255
208 228 255
208 228 255
208 228 255
209 228 255
189 200 210
155 143 91
156 145 91
153 143 89
155 145 91
154 146 93
159 150 94
160 152 97
152 145 93
153 144 92
161 152 96
160 152 97
159 151 96
156 147 93
162 155 99
158 152 99
160 153 98
159 151 96
160 154 102
165 158 103
161 156 102
161 156 102
162 158 104
162 156 102
158 151 98
160 154 100
161 154 100
163 157 103
160 153 99
163 157 101
162 157 102
160 156 102
162 157 102
161 155 100
162 156 102
159 153 99
163 155 99
164 156 99
163 158 103
164 158 103
160 154 99
167 162 105
165 160 104
167 161 105
161 154 100
165 159 102
162 154 99
162 156 100
163 154 99
165 158 103
167 162 105
157 150 95
164 159 104
163 157 101
167 161 103
164 157 100
164 159 102
167 159 102
164 156 101
165 157 99
162 156 100
161 155 101
164 155 99
163 156 99
162 155 97
164 157 102
167 161 103
166 160 104
166 159 103
168 160 102
165 157 100
165 158 101
163 156 100
171 163 104
166 158 100
162 155 100
165 158 101
167 158 100
160 151 93
164 156 99
161 153 97
165 156 98
166 157 97
160 152 97
163 154 97
164 156 94
157 147 93
162 152 94
165 157 98
164 157 98
161 152 95
162 153 95
166 157 99
156 145 89
161 152 94
162 151 91
164 154 96
159 147 89
164 155 96
165 155 97
165 157 98
163 154 95
156 144 85
160 149 91
162 151 90
163 150 90
161 150 91
157 145 87
157 145 88
160 152 95
160 149 87
163 153 94
159 147 90
157 147 88
208 228 255
208 228 255
207 228 255
207 228 255
206 227 255
205 227 254
205 227 255
205 227 255
204 226 255
205 226 255
204 226 255
204 226 255
202 225 255
203 225 255
202 225 255
202 225 255
201 225 255
201 224 255
200 224 255
200 224 255
199 223 255
199 223 255
199 223 255
199 223 255
198 223 255
198 223 255
197 222 255
197 222 255
196 222 255
196 222 255
196 221 255
195 221 255
195 221 255
194 221 255
194 221 255
194 220 255
194 220 255
193 220 255
192 220 255
192 220 255
192 220 255
191 219 255
191 219 255
191 219 255
190 219 255
190 219 255
190 218 255
189 218 255
189 218 255
189 218 255
189 218 255
188 218 255
188 217 255
188 218 255
188 217 255
188 217 255
188 218 255
189 218 254
189 218 254
191 219 254
192 219 253
190 218 252
188 217 252
189 218 254
190 217 248
190 218 250
191 219 250
190 218 254
191 219 252
187 216 246
189 217 252
188 217 249
188 218 253
189 218 255
186 216 252
186 216 254
185 216 255
184 215 255
184 216 255
184 215 255
184 215 255
184 215 255
184 216 255
184 215 255
184 216 255
185 216 255
185 216 255
185 216 255
185 216 255
186 216 255
186 216 255
187 217 255
187 217 255
187 217 255
188 218 255
188 218 255
189 218 255
189 218 255
190 219 255
190 219 255
192 219 255
192 220 255
194 220 255
195 221 255
195 221 255
197 222 255
198 223 255
199 223 255
201 224 255
202 225 255
201 224 254
204 226 254
205 226 254
207 227 252
208 228 253
208 228 255
209 229 255
209 229 255
209 228 255
209 228 255
208 228 255
208 228 255
208 228 255
208 228 255
208 228 255
208 228 255
208 228 255
208 228 255
208 228 255
208 228 255
208 228 255
208 228 255
208 228 255
208 228 255
208 228 255
208 228 255
208 228 255
208 228 255
208 228 255
208 228 255
208 228 255
207 228 255
207 228 255
207 228 255
207 228 255
207 228 255
207 228 255
207 228 255
207 228 255
207 228 255
207 228 255
207 228 255
207 228 255
207 228 255
207 228 255
207 228 255
207 228 255
207 228 255
207 228 255
207 227 255
207 227 255
207 227 255
207 227 255
207 227 255
207 227 255
207 227 255
206 227 255
206 227 255
206 227 255
206 227 255
206 227 255
206 227 255
206 227 255
206 227 255
206 227 255
206 227 255
206 227 255
206 227 255
206 227 255
206 227 255
206 227 255
206 227 255
200 222 252
171 193 231
133 157 206
73 107 181
62 98 173
62 99 170
63 99 175
62 99 174
62 98 169
62 99 175
62 99 173
62 99 176
62 99 176
62 99 173
62 99 173
62 98 172
62 99 177
62 99 177
61 98 171
62 99 172
61 98 171
62 99 175
62 99 172
62 99 175
62 98 173
62 99 173
62 99 172
62 99 175
62 99 176
62 99 174
61 98 176
62 98 175
71 105 177
135 159 210
176 198 236
199 221 251
206 227 255
206 227 255
206 227 255
206 227 255
206 227 255
206 227 255
206 227 255
206 227 255
206 227 255
206 227 255
206 227 255
206 227 255
206 227 255
206 227 255
206 227 255
206 227 255
207 227 255
207 227 255
207 227 255
207 227 255
207 227 255
207 227 255
207 227 255
207 228 255
207 228 255
207 228 255
207 228 255
207 228 255
207 228 255
207 228 255
207 228 255
207 228 255
207 228 255
207 228 255
207 228 255
207 228 255
207 228 255
207 228 255
207 228 255
207 228 255
207 228 255
207 228 255
208 228 255
208 228 255
208 228 255
208 228 255
208 228 255
208 228 255
208 228 255
208 228 255
208 228 255
208 228 255
208 228 255
208 228 255
208 228 255
208 228 255
208 228 255
208 228 255
208 228 255
208 228 255
208 228 255
208 228 255
209 228 255
209 228 255
209 229 255
209 229 255
191 203 218
160 154 120
158 146 90
152 140 87
158 148 93
153 143 90
159 151 97
157 150 98
162 156 100
161 152 96
160 151 95
158 152 99
154 148 97
160 151 96
161 154 99
161 153 97
159 152 97
156 148 95
157 150 97
159 154 102
159 151 97
158 152 98
164 159 103
156 149 96
162 156 102
159 153 100
155 147 94
159 153 98
165 159 103
162 155 100
163 155 100
166 161 107
161 153 97
165 158 103
161 154 100
161 152 96
158 153 101
164 158 103
167 163 107
167 162 106
162 154 99
164 158 103
168 162 106
166 160 105
166 161 106
165 157 101
165 160 104
164 158 103
162 156 101
161 153 98
164 156 100
164 159 102
165 160 104
166 158 101
166 159 102
167 161 105
167 161 104
169 162 104
169 162 105
165 158 103
167 160 103
163 155 100
168 160 101
166 160 103
168 162 104
164 158 102
168 160 101
165 157 101
162 154 98
169 164 105
163 153 95
166 158 101
167 159 100
166 158 100
165 158 102
164 157 102
166 159 99
162 154 98
167 160 103
169 160 100
159 149 93
167 159 101
162 153 96
161 152 94
167 160 103
163 155 95
165 157 99
168 160 99
165 157 99
157 147 89
165 156 97
160 150 92
165 156 98
167 157 95
162 153 93
168 161 102
164 154 94
164 156 99
163 154 94
160 149 91
162 152 92
163 157 98
163 154 94
160 151 93
158 147 85
160 150 91
164 153 94
161 150 90
162 153 94
160 147 88
160 150 92
160 149 89
161 150 90
154 145 88
159 149 90
154 141 82
208 228 255
207 228 255
207 227 255
206 227 255
206 227 255
206 227 255
205 226 255
205 226 255
204 226 255
204 226 255
203 226 255
203 225 255
202 225 255
202 225 255
202 225 255
201 224 255
201 224 255
200 224 255
200 224 255
200 224 255
199 223 255
199 223 255
198 223 255
198 223 255
198 223 255
197 222 255
197 222 255
196 222 255
196 222 255
196 222 255
195 221 255
195 221 255
194 221 255
194 221 255
194 221 255
193 220 255
193 220 255
192 220 255
192 220 255
192 219 255
192 219 255
191 219 255
191 219 255
190 219 255
190 219 255
190 218 255
190 218 255
189 218 255
189 217 253
192 220 255
192 219 253
193 219 249
193 220 250
194 220 249
194 220 249
195 220 248
195 220 249
195 220 248
196 221 250
194 219 241
196 221 250
197 221 246
196 221 249
195 221 250
194 220 244
196 221 245
194 220 249
195 221 248
195 221 253
195 221 250
193 219 244
194 220 248
195 220 246
196 221 248
192 218 245
194 220 250
195 221 252
194 220 250
193 220 255
190 218 250
188 217 250
188 217 252
188 217 255
185 216 254
184 215 255
184 216 255
184 215 255
184 216 255
184 216 255
185 216 255
185 216 255
185 216 255
185 216 255
186 217 255
186 217 255
187 217 255
188 217 255
188 217 255
189 218 255
190 218 255
190 218 255
190 219 255
192 219 255
193 220 255
193 220 255
194 221 255
196 222 255
197 222 255
197 222 254
200 224 255
200 224 255
202 225 255
204 226 255
205 226 255
204 226 252
208 228 250
208 228 254
209 229 255
209 229 255
209 229 255
209 229 255
209 229 255
209 229 255
209 228 255
208 228 255
208 228 255
208 228 255
208 228 255
208 228 255
208 228 255
208 228 255
208 228 255
208 228 255
208 228 255
208 228 255
208 228 255
208 228 255
208 228 255
208 228 255
208 228 255
208 228 255
208 228 255
208 228 255
208 228 255
208 228 255
208 228 255
207 228 255
207 228 255
207 228 255
207 228 255
207 228 255
207 228 255
207 228 255
207 228 255
207 228 255
207 228 255
207 228 255
207 228 255
207 228 255
207 228 255
207 228 255
207 228 255
207 228 255
207 228 255
207 228 255
207 228 255
207 227 255
207 227 255
207 227 255
207 227 255
207 227 255
207 227 255
207 227 255
207 227 255
207 227 255
207 227 255
206 227 255
206 227 255
206 227 255
206 227 255
173 195 233
130 155 205
76 109 179
62 99 179
62 99 176
62 99 175
62 99 172
62 99 176
62 99 176
62 99 176
62 99 174
62 99 173
62 98 167
62 99 176
62 99 173
62 98 173
62 99 173
62 99 174
63 100 178
62 99 172
62 98 167
62 99 172
62 99 172
61 98 171
62 99 175
62 99 171
62 98 172
62 99 172
62 99 172
62 98 170
62 99 174
62 98 172
62 98 172
62 98 171
62 98 177
62 98 175
62 99 178
76 108 181
133 157 208
179 201 238
206 227 255
206 227 255
206 227 255
206 227 255
206 227 255
207 227 255
207 227 255
207 227 255
207 227 255
207 227 255
207 227 255
207 227 255
207 227 255
207 227 255
207 228 255
207 228 255
207 228 255
207 228 255
207 228 255
207 228 255
207 228 255
207 228 255
207 228 255
207 228 255
207 228 255
207 228 255
207 228 255
207 228 255
207 228 255
207 228 255
207 228 255
207 228 255
207 228 255
207 228 255
208 228 255
208 228 255
208 228 255
208 228 255
208 228 255
208 228 255
208 228 255
208 228 255
208 228 255
208 228 255
208 228 255
208 228 255
208 228 255
208 228 255
208 228 255
208 228 255
208 228 255
208 228 255
208 228 255
208 228 255
208 228 255
209 228 255
209 228 255
209 229 255
209 229 255
209 229 255
209 229 255
209 229 255
204 221 244
167 165 144
150 139 87
151 142 89
161 153 99
157 146 91
155 147 94
160 154 100
152 139 86
162 153 97
158 151 96
158 149 94
158 151 97
151 143 92
153 145 93
155 149 97
161 153 99
161 155 101
159 154 100
158 151 97
152 144 92
161 155 101
164 157 100
159 154 101
159 150 95
161 155 102
163 158 103
165 160 105
162 156 101
162 155 99
161 155 101
163 157 102
162 155 99
165 159 103
164 158 104
163 158 103
165 161 105
165 158 103
167 161 105
164 158 103
163 157 102
165 161 105
166 160 105
164 158 103
164 156 100
165 160 104
163 158 104
169 163 105
165 158 102
168 162 105
170 163 105
166 161 105
166 158 101
167 162 106
163 157 102
166 161 105
164 158 104
164 157 102
160 150 94
165 158 103
165 161 106
163 154 98
167 160 102
166 158 102
167 160 103
166 157 99
170 161 103
168 161 104
166 160 103
163 156 99
162 155 99
165 158 102
163 157 100
167 160 103
166 160 103
168 162 104
168 161 101
165 156 98
167 158 98
168 162 102
166 159 101
169 162 102
164 154 95
168 160 101
164 156 95
171 165 103
165 158 98
163 154 97
167 159 98
169 161 102
168 158 96
168 159 100
165 155 97
161 153 95
164 155 98
163 154 95
164 154 96
161 150 92
165 156 95
164 155 95
166 158 97
163 153 95
160 149 88
162 153 97
164 155 97
161 152 92
165 157 95
160 148 92
159 148 90
158 147 86
160 149 90
162 153 94
158 146 88
162 153 94
164 154 95
158 147 86
161 148 90
154 141 84
207 228 255
207 228 255
206 227 255
206 227 255
206 227 255
205 226 255
205 226 255
204 226 255
204 226 255
203 226 255
203 225 255
203 225 255
202 225 255
201 225 255
201 224 255
201 224 255
200 224 255
200 224 255
199 224 255
199 223 255
199 223 255
199 223 255
198 223 255
197 222 255
197 222 255
197 222 255
196 222 255
196 222 255
195 221 255
195 221 255
195 221 255
194 221 255
194 221 255
194 221 255
193 220 255
193 220 255
193 220 255
192 220 255
192 220 255
192 219 255
191 219 255
191 219 255
190 219 255
191 219 254
192 219 248
193 220 253
194 220 250
194 219 248
197 222 248
198 222 252
197 222 249
196 221 249
197 222 249
199 223 252
198 222 245
196 221 242
197 222 250
197 221 242
196 221 252
195 220 245
198 222 250
197 221 248
196 220 242
195 220 241
194 220 246
196 221 248
195 221 250
196 221 245
196 220 237
195 220 242
195 221 250
197 221 248
195 220 245
196 221 248
194 220 250
195 220 241
193 219 246
195 220 245
194 220 250
194 219 244
191 217 237
196 221 245
194 220 249
191 218 249
195 221 252
191 217 245
190 219 254
187 217 254
185 216 252
184 215 255
184 215 255
184 215 255
185 216 255
185 216 255
185 216 255
185 216 255
186 217 255
186 217 255
187 217 255
188 217 255
188 218 255
189 218 255
190 218 255
190 219 255
191 219 255
192 220 255
193 220 255
194 221 255
195 221 255
197 222 255
198 222 254
200 224 255
200 224 255
201 224 255
204 226 255
205 227 255
207 228 254
207 227 250
209 229 255
209 229 255
209 229 255
209 229 255
209 229 255
209 229 255
209 229 255
209 229 255
209 229 255
209 229 255
209 228 255
209 228 255
208 228 255
208 228 255
208 228 255
208 228 255
208 228 255
208 228 255
208 228 255
208 228 255
208 228 255
208 228 255
208 228 255
208 228 255
208 228 255
208 228 255
208 228 255
208 228 255
208 228 255
208 228 255
208 228 255
208 228 255
208 228 255
208 228 255
208 228 255
207 228 255
207 228 255
207 228 255
207 228 255
207 228 255
207 228 255
207 228 255
207 228 255
207 228 255
207 228 255
207 228 255
207 228 255
207 228 255
207 228 255
207 228 255
207 228 255
207 228 255
207 228 255
207 228 255
207 228 255
207 228 255
207 228 255
207 228 255
207 228 255
204 225 254
162 185 226
102 130 191
61 98 174
63 99 177
62 99 174
62 99 175
61 98 171
62 99 172
62 99 171
62 99 170
62 98 172
62 99 171
62 99 171
62 99 174
62 99 172
62 99 174
61 98 169
63 99 174
62 98 172
62 99 172
62 99 173
61 98 176
62 99 174
62 99 173
62 99 174
62 99 173
62 99 170
62 98 171
62 99 172
62 98 170
62 99 170
61 97 167
61 98 176
62 99 172
62 98 173
62 99 172
61 98 166
62 99 173
62 99 175
61 98 172
62 99 175
63 99 177
106 133 191
167 189 229
206 227 255
207 228 255
207 228 255
207 228 255
207 228 255
207 228 255
207 228 255
207 228 255
207 228 255
207 228 255
207 228 255
207 228 255
207 228 255
207 228 255
207 228 255
207 228 255
207 228 255
207 228 255
207 228 255
207 228 255
207 228 255
207 228 255
207 228 255
207 228 255
207 228 255
208 228 255
208 228 255
208 228 255
208 228 255
208 228 255
208 228 255
208 228 255
208 228 255
208 228 255
208 228 255
208 228 255
208 228 255
208 228 255
208 228 255
208 228 255
208 228 255
208 228 255
208 228 255
208 228 255
208 228 255
208 228 255
208 228 255
208 228 255
209 228 255
209 228 255
209 229 255
209 229 255
209 229 255
209 229 255
209 229 255
209 229 255
209 229 255
209 229 255
207 226 250
185 194 198
152 138 84
159 151 97
157 147 92
155 146 92
155 147 94
152 141 88
162 153 98
157 151 97
155 147 93
159 151 97
158 153 100
160 152 97
159 153 99
154 145 94
160 153 99
159 152 98
156 149 96
159 152 98
161 155 102
162 155 100
159 151 96
165 158 103
161 157 103
162 158 103
159 154 102
164 160 105
162 156 102
164 158 103
163 157 102
164 158 102
165 160 105
165 161 106
167 160 104
163 158 104
165 158 102
169 166 110
163 157 102
166 160 104
164 158 103
161 154 99
166 160 104
165 158 103
165 161 105
166 161 106
169 164 107
166 159 102
164 160 104
163 157 101
164 155 99
168 159 101
163 157 101
166 159 103
167 161 104
168 161 105
165 158 102
165 160 104
168 162 105
166 160 105
167 160 103
169 162 104
167 161 103
170 163 104
172 164 106
165 157 98
169 163 105
169 162 103
165 158 100
167 159 101
168 159 100
165 157 99
169 163 106
164 158 101
163 156 98
168 161 103
170 163 104
166 158 99
160 152 93
169 161 102
159 151 94
163 154 98
168 160 102
165 158 100
166 158 99
167 161 103
164 156 100
168 159 101
163 156 97
166 159 101
167 158 99
163 154 97
163 154 97
170 161 101
162 153 95
163 155 97
160 150 93
162 154 94
164 156 99
166 157 97
157 147 89
160 153 94
162 154 95
164 156 97
163 155 94
162 152 92
163 155 94
164 153 93
161 152 92
162 152 95
158 146 86
165 156 94
159 148 89
169 159 97
160 150 91
166 157 97
153 141 80
160 151 90
163 153 93
160 150 91
207 228 255
206 227 255
207 228 255
206 227 255
205 227 255
205 227 255
204 226 255
204 226 255
203 226 255
203 225 255
203 225 255
202 225 255
202 225 255
201 225 255
201 224 255
201 224 255
200 224 255
200 224 255
199 223 255
199 223 255
198 223 255
198 223 255
198 223 255
197 222 255
197 222 255
196 222 255
196 222 255
196 222 255
195 221 255
195 221 255
195 221 255
195 221 255
194 221 255
193 220 255
193 220 255
193 220 255
192 220 255
192 220 255
192 219 255
191 218 253
195 221 253
195 220 248
199 223 249
198 222 250
197 221 246
197 222 248
197 221 242
198 222 245
198 222 246
197 221 248
197 221 244
197 221 244
196 220 242
198 222 246
197 222 250
198 222 249
199 223 249
197 222 249
199 223 249
198 223 252
198 222 250
195 219 238
198 222 249
197 221 245
196 220 242
195 220 248
198 222 252
196 221 248
199 222 249
197 222 250
198 222 252
196 221 248
196 220 238
196 221 249
194 220 248
196 221 246
196 221 252
197 222 249
195 220 241
195 220 246
194 219 244
193 219 241
195 221 249
196 221 248
193 219 245
196 221 245
194 220 246
195 220 244
190 218 244
193 219 248
191 218 248
187 217 254
185 216 253
184 215 255
184 216 255
185 216 255
185 216 255
185 216 255
186 217 255
186 217 255
187 217 255
187 217 255
188 217 255
189 218 255
190 218 255
191 219 255
192 219 255
192 220 255
193 220 255
194 221 255
197 222 255
196 222 255
198 223 255
199 223 255
201 224 255
203 226 255
205 227 255
206 227 253
207 227 254
208 228 254
209 229 255
209 229 255
209 229 255
209 229 255
209 229 255
209 229 255
209 229 255
209 229 255
209 229 255
209 229 255
209 229 255
209 229 255
209 229 255
209 228 255
209 228 255
208 228 255
208 228 255
208 228 255
208 228 255
208 228 255
208 228 255
208 228 255
208 228 255
208 228 255
208 228 255
208 228 255
208 228 255
208 228 255
208 228 255
208 228 255
208 228 255
208 228 255
208 228 255
208 228 255
208 228 255
208 228 255
208 228 255
208 228 255
208 228 255
208 228 255
207 228 255
207 228 255
207 228 255
207 228 255
207 228 255
207 228 255
207 228 255
207 228 255
207 228 255
207 228 255
207 228 255
207 228 255
207 228 255
207 228 255
207 228 255
204 225 254
161 184 225
83 115 183
62 99 172
62 98 172
62 99 174
62 98 170
62 99 175
62 98 170
62 98 165
62 99 173
62 98 170
62 99 174
62 99 174
62 99 169
62 99 174
61 97 163
62 99 175
62 99 172
63 99 171
61 98 167
63 100 176
62 99 174
62 99 176
62 99 168
62 99 173
61 98 167
62 99 174
62 99 173
62 98 169
62 98 169
61 97 165
62 98 167
62 99 173
63 99 172
62 99 172
62 98 172
62 99 175
62 99 175
63 99 173
62 98 173
63 99 172
61 98 167
62 99 175
62 99 172
61 98 174
62 98 173
96 124 182
171 192 230
204 225 254
207 228 255
207 228 255
207 228 255
207 228 255
207 228 255
207 228 255
207 228 255
207 228 255
207 228 255
207 228 255
207 228 255
207 228 255
207 228 255
207 228 255
207 228 255
208 228 255
208 228 255
208 228 255
208 228 255
208 228 255
208 228 255
208 228 255
208 228 255
208 228 255
208 228 255
208 228 255
208 228 255
208 228 255
208 228 255
208 228 255
208 228 255
208 228 255
208 228 255
208 228 255
208 228 255
208 228 255
208 228 255
208 228 255
208 228 255
208 228 255
209 228 255
209 229 255
209 229 255
209 229 255
209 229 255
209 229 255
209 229 255
209 229 255
209 229 255
209 229 255
209 229 255
209 229 255
209 229 255
209 229 255
200 214 231
159 154 122
151 138 85
153 141 87
155 144 89
157 149 96
153 146 94
151 142 91
152 143 91
159 151 98
155 149 97
158 149 95
160 155 101
158 150 95
159 152 98
163 159 105
160 155 102
160 154 100
162 157 103
161 157 102
157 150 98
161 155 99
159 154 101
160 154 100
162 158 104
163 158 105
163 157 102
163 158 103
166 162 108
162 155 101
161 154 100
162 154 98
166 160 104
162 156 102
167 160 103
168 162 106
164 158 103
164 159 104
166 160 103
165 159 103
166 162 106
167 164 110
167 161 105
165 157 100
166 160 104
165 159 104
165 159 103
167 160 103
164 156 100
169 163 107
164 156 101
167 160 104
161 156 102
168 161 104
167 161 104
167 161 103
168 162 104
162 156 100
168 161 104
170 165 107
165 159 103
167 162 104
166 158 102
168 160 103
165 158 101
169 162 104
166 159 102
170 163 104
170 163 104
171 164 105
167 160 103
165 157 98
166 161 105
166 160 102
173 167 108
165 158 101
165 158 102
167 158 98
168 160 99
166 158 100
166 159 100
167 159 101
168 162 101
168 160 100
166 159 102
168 160 100
164 155 96
168 161 102
162 153 97
166 159 101
172 165 105
168 160 98
169 162 102
167 157 98
165 156 97
165 156 96
165 157 97
167 159 101
165 157 96
167 156 92
164 156 99
163 153 95
165 155 94
167 160 101
163 154 94
161 152 95
163 155 95
164 156 95
164 152 90
163 152 89
166 157 95
160 152 89
161 151 91
162 153 97
160 150 91
161 151 88
167 156 95
161 151 90
154 143 85
155 145 85
164 153 92
207 228 255
206 227 255
206 227 255
206 227 255
205 226 255
204 226 255
204 226 255
203 226 255
203 225 255
202 225 255
202 225 255
202 225 255
202 225 255
201 224 255
200 224 255
200 224 255
200 224 255
199 224 255
199 223 255
199 223 255
198 223 255
198 223 255
198 223 255
197 222 255
196 222 255
196 222 255
196 222 255
195 221 255
195 221 255
195 221 255
194 221 255
194 221 255
193 220 255
193 220 255
193 220 255
193 220 254
194 221 254
195 220 248
199 223 250
199 222 248
199 223 252
199 223 253
198 222 248
200 223 249
200 223 250
200 224 252
199 222 246
198 222 249
200 223 248
198 222 246
197 221 246
198 222 249
200 224 254
200 223 252
197 221 242
201 224 252
199 223 249
200 223 250
198 222 245
199 222 246
198 222 246
200 223 250
200 223 252
200 223 249
200 223 250
198 222 249
199 223 248
198 222 249
198 222 248
199 223 248
198 222 249
197 222 250
197 222 249
197 221 245
198 222 253
197 221 248
198 222 248
198 222 248
199 223 252
197 221 246
200 223 252
196 220 242
195 220 245
196 221 246
197 222 249
196 221 248
196 221 248
197 221 249
197 222 250
194 220 252
194 219 244
195 221 252
194 220 252
194 221 253
188 217 252
188 217 255
185 216 254
185 216 255
185 216 255
185 216 255
186 216 255
187 217 255
187 217 255
188 217 255
189 218 255
189 218 255
190 219 255
191 219 255
191 219 255
193 220 255
194 221 255
195 221 255
196 222 255
197 222 255
198 223 255
200 224 255
203 225 255
203 225 255
205 227 254
206 227 254
208 228 253
210 229 255
209 229 255
209 229 255
209 229 255
209 229 255
209 229 255
209 229 255
209 229 255
209 229 255
209 229 255
209 229 255
209 229 255
209 229 255
209 229 255
209 229 255
209 229 255
209 229 255
209 229 255
209 229 255
209 228 255
208 228 255
208 228 255
208 228 255
208 228 255
208 228 255
208 228 255
208 228 255
208 228 255
208 228 255
208 228 255
208 228 255
208 228 255
208 228 255
208 228 255
208 228 255
208 228 255
208 228 255
208 228 255
208 228 255
208 228 255
208 228 255
208 228 255
208 228 255
208 228 255
208 228 255
208 228 255
208 228 255
208 228 255
207 228 255
207 228 255
207 228 255
207 228 255
207 228 255
177 198 235
91 120 188
62 98 169
62 99 177
62 98 170
62 99 173
62 99 172
62 99 171
62 99 167
62 99 172
62 99 172
63 100 177
62 99 170
63 99 176
63 100 174
62 99 176
62 99 168
62 98 169
62 98 168
63 100 176
63 99 174
62 98 169
62 99 175
63 99 170
62 98 166
62 98 166
62 99 173
62 98 174
62 99 173
63 99 173
62 99 173
62 98 169
62 98 165
62 99 167
62 99 174
62 99 170
61 97 162
61 97 163
62 99 171
63 99 176
61 97 166
62 98 171
62 98 171
62 99 176
62 98 168
62 98 174
62 99 174
62 99 172
61 97 169
61 96 168
90 120 184
185 206 238
207 228 255
207 228 255
207 228 255
207 228 255
207 228 255
207 228 255
208 228 255
208 228 255
208 228 255
208 228 255
208 228 255
208 228 255
208 228 255
208 228 255
208 228 255
208 228 255
208 228 255
208 228 255
208 228 255
208 228 255
208 228 255
208 228 255
208 228 255
208 228 255
208 228 255
208 228 255
208 228 255
208 228 255
208 228 255
208 228 255
208 228 255
208 228 255
208 228 255
209 228 255
209 228 255
209 229 255
209 229 255
209 229 255
209 229 255
209 229 255
209 229 255
209 229 255
209 229 255
209 229 255
209 229 255
209 229 255
209 229 255
209 229 255
209 229 255
209 229 255
209 229 255
208 227 252
180 185 180
156 144 91
154 143 86
154 147 94
149 139 87
157 148 93
158 149 93
152 142 90
152 141 90
155 147 94
153 144 93
155 147 94
157 152 100
157 149 96
158 152 99
159 151 96
157 151 97
157 151 96
157 150 97
161 153 98
156 150 97
158 153 100
161 154 99
163 157 103
163 157 103
161 156 103
163 157 102
166 161 104
162 157 103
163 157 102
163 157 101
166 159 102
161 155 100
165 159 103
166 160 104
163 158 103
165 159 103
159 153 99
163 157 101
163 155 100
164 159 104
166 161 105
164 158 102
166 160 104
169 163 106
163 157 103
165 161 106
164 159 103
167 163 107
167 161 105
168 161 104
166 160 103
167 160 103
167 161 104
169 163 106
165 158 100
165 158 101
164 159 103
168 162 104
167 161 104
168 162 105
168 161 105
169 164 107
167 161 105
167 160 101
166 160 104
170 163 105
168 161 103
167 161 104
173 166 108
162 154 98
171 165 107
171 164 104
169 163 106
166 160 103
168 161 103
166 158 98
163 156 100
168 161 104
169 162 102
163 158 100
165 155 94
171 163 103
165 157 97
168 162 103
169 164 106
165 157 100
165 157 99
163 157 101
164 156 95
165 158 98
166 158 97
162 154 96
168 159 98
168 160 100
166 156 96
169 159 98
162 156 96
168 161 101
171 163 101
165 156 94
161 151 92
167 159 97
163 154 93
166 157 93
168 159 99
163 155 96
160 149 91
169 162 104
164 155 95
160 151 93
163 154 94
163 153 91
162 152 92
162 153 95
161 150 86
161 151 94
164 155 94
157 145 84
160 150 93
160 148 86
158 147 88
206 227 255
205 227 255
205 227 255
204 226 255
204 226 255
204 226 255
203 226 255
203 225 255
203 225 255
202 225 255
202 225 255
201 225 255
202 225 255
201 224 255
200 224 255
200 224 255
200 224 255
199 223 255
199 223 255
199 223 255
198 223 255
197 223 255
197 222 255
197 222 255
196 222 255
196 222 255
196 222 255
195 221 255
195 221 255
195 221 255
194 221 255
194 221 255
194 220 255
195 221 252
196 220 246
200 224 253
200 223 246
201 224 252
198 222 249
198 221 242
200 223 248
201 225 254
200 223 246
197 221 244
200 223 246
200 223 249
200 223 249
199 222 248
199 223 246
200 223 250
199 223 249
201 224 249
200 224 254
202 224 250
199 223 252
202 224 249
201 224 249
199 223 249
197 221 240
198 222 245
197 221 244
197 221 240
194 219 241
197 221 246
195 220 245
195 219 234
194 219 237
194 219 230
196 221 242
196 221 244
195 220 242
193 218 231
195 219 240
195 220 238
196 221 246
194 219 236
193 218 236
195 219 236
196 220 234
195 220 240
194 219 233
195 221 249
195 219 237
197 221 246
197 221 246
198 222 249
197 222 252
199 223 253
195 220 245
196 221 250
196 220 244
195 220 249
195 220 249
194 220 245
195 220 245
194 220 249
193 220 250
191 218 245
187 217 252
185 216 255
185 216 255
185 216 255
186 216 255
187 217 255
187 217 255
188 217 255
189 218 255
190 218 255
190 218 255
191 219 255
192 220 255
193 220 255
194 221 255
195 221 255
197 222 255
198 223 255
200 224 255
202 225 255
202 225 255
204 226 255
205 227 253
208 228 255
208 228 252
209 229 255
209 229 255
209 229 255
209 229 255
209 229 255
209 229 255
209 229 255
209 229 255
209 229 255
209 229 255
209 229 255
209 229 255
209 229 255
209 229 255
209 229 255
209 229 255
209 229 255
209 229 255
209 229 255
209 229 255
209 229 255
209 229 255
209 229 255
209 228 255
208 228 255
208 228 255
208 228 255
208 228 255
208 228 255
208 228 255
208 228 255
208 228 255
208 228 255
208 228 255
208 228 255
208 228 255
208 228 255
208 228 255
208 228 255
208 228 255
208 228 255
208 228 255
208 228 255
208 228 255
208 228 255
208 228 255
208 228 255
208 228 255
208 228 255
193 214 244
115 141 198
63 99 177
62 99 173
62 99 172
62 99 173
62 99 174
63 99 167
62 98 168
63 99 176
61 97 163
62 98 168
62 99 168
62 99 167
63 100 176
62 99 166
62 99 172
62 98 163
63 99 174
61 98 164
61 98 162
62 99 172
62 99 172
62 99 171
62 98 163
62 99 169
62 99 167
62 99 167
62 99 174
61 98 165
63 99 170
63 99 168
62 98 166
62 98 166
62 98 168
62 98 167
62 98 170
62 98 169
62 98 170
63 99 168
62 99 172
62 98 169
62 98 170
63 99 171
62 98 171
62 98 170
62 98 170
61 98 170
61 98 172
62 98 170
62 98 165
62 98 170
61 97 168
62 98 174
128 152 202
182 203 235
208 228 255
208 228 255
208 228 255
208 228 255
208 228 255
208 228 255
208 228 255
208 228 255
208 228 255
208 228 255
208 228 255
208 228 255
208 228 255
208 228 255
208 228 255
208 228 255
208 228 255
208 228 255
208 228 255
208 228 255
208 228 255
208 228 255
208 228 255
208 228 255
208 228 255
209 228 255
209 229 255
209 229 255
209 229 255
209 229 255
209 229 255
209 229 255
209 229 255
209 229 255
209 229 255
209 229 255
209 229 255
209 229 255
209 229 255
209 229 255
209 229 255
209 229 255
209 229 255
209 229 255
209 229 255
209 229 255
209 229 255
209 229 255
201 217 236
166 162 132
151 139 85
153 143 90
158 149 93
151 143 92
154 145 93
158 152 98
158 151 97
157 150 97
153 144 91
155 148 95
164 157 102
153 146 93
152 146 95
162 157 103
160 152 97
161 154 98
155 149 96
161 156 101
160 154 100
164 160 106
165 159 103
162 156 102
162 157 103
161 156 103
158 151 98
167 162 107
165 161 106
164 159 105
168 163 107
159 153 100
164 157 102
165 159 104
167 162 107
167 161 105
165 159 103
167 161 104
168 163 107
167 160 104
169 162 105
171 166 109
170 165 107
166 162 107
172 166 109
166 161 105
165 159 103
169 162 104
168 161 104
163 159 105
167 159 102
164 158 102
169 162 105
169 164 108
169 163 106
168 161 105
169 162 105
167 162 106
167 160 104
171 165 107
168 161 104
168 161 103
169 164 107
163 154 99
169 163 106
167 160 103
168 161 104
168 161 102
171 164 107
170 163 104
167 159 100
167 161 103
173 166 108
171 164 106
169 161 103
170 163 103
164 157 100
169 163 106
170 162 104
166 159 101
169 163 104
163 157 101
167 158 101
171 162 102
169 161 101
167 160 100
167 160 101
167 160 104
169 162 103
169 160 102
167 161 101
168 160 100
164 157 97
166 157 96
166 158 99
161 150 91
165 155 96
169 159 96
163 154 93
158 147 88
165 157 96
166 157 95
165 156 95
168 159 99
165 157 96
170 163 104
159 149 90
165 158 95
162 153 92
166 157 96
166 155 92
167 158 96
169 161 100
169 160 100
164 155 94
164 154 92
160 151 93
163 152 91
168 159 100
161 152 90
159 150 91
162 152 92
166 159 98
157 144 81
206 227 255
205 227 255
205 227 255
205 226 255
204 226 255
204 226 255
204 226 255
203 225 255
203 225 255
202 225 255
201 225 254
201 225 255
201 224 255
201 224 255
200 224 255
200 224 255
199 223 255
199 223 255
198 223 255
199 223 255
198 223 255
198 223 255
197 222 255
197 222 255
196 222 255
196 222 255
196 222 255
195 221 255
195 221 255
194 221 255
196 221 253
196 221 253
200 224 252
200 224 250
201 224 252
200 223 246
201 224 249
200 223 248
200 223 245
198 222 246
200 223 246
199 223 249
199 222 246
201 224 249
198 221 242
199 223 250
202 224 249
201 224 249
199 223 246
201 224 249
203 225 250
202 224 249
199 222 245
198 221 241
197 221 241
199 222 248
198 221 242
196 220 236
197 221 241
197 221 242
196 219 230
197 221 240
198 222 246
195 219 228
198 222 246
197 221 242
198 222 246
195 220 241
196 220 234
196 220 244
194 219 236
196 220 242
198 222 249
195 219 233
197 221 245
194 219 234
196 221 242
194 218 233
196 220 242
195 219 237
195 220 242
196 220 241
194 219 236
194 219 236
193 219 241
194 219 238
195 221 249
195 220 238
196 221 249
196 221 245
196 221 248
194 220 248
195 221 249
195 221 248
194 220 248
196 221 249
195 220 249
193 219 245
193 220 252
193 220 250
192 219 250
187 217 253
185 216 255
185 216 255
186 216 255
187 217 255
187 217 255
188 217 255
188 218 255
189 218 255
190 219 255
191 219 255
193 220 255
194 221 255
195 221 255
196 222 255
197 222 255
199 224 255
200 224 254
203 226 255
206 227 255
205 227 255
207 227 252
208 228 255
210 229 254
210 229 255
210 229 255
210 229 255
210 229 255
210 229 255
209 229 255
209 229 255
209 229 255
209 229 255
209 229 255
209 229 255
209 229 255
209 229 255
209 229 255
209 229 255
209 229 255
209 229 255
209 229 255
209 229 255
209 229 255
209 229 255
209 229 255
209 229 255
209 229 255
209 229 255
209 229 255
209 229 255
209 228 255
209 228 255
208 228 255
208 228 255
208 228 255
208 228 255
208 228 255
208 228 255
208 228 255
208 228 255
208 228 255
208 228 255
208 228 255
208 228 255
208 228 255
208 228 255
208 228 255
208 228 255
205 225 254
155 177 217
76 109 181
63 99 176
61 98 169
62 99 172
62 99 168
61 98 170
63 99 172
62 99 168
62 98 168
62 99 170
61 97 164
62 99 169
62 98 164
62 98 168
62 98 165
62 98 166
62 99 169
62 99 171
62 99 172
63 99 171
62 98 172
62 98 167
62 98 166
62 98 166
62 98 167
62 98 164
63 99 171
60 97 160
62 98 168
61 98 164
62 98 165
62 98 168
62 99 173
62 98 165
61 98 168
62 99 170
62 98 166
61 98 164
62 99 171
62 98 165
62 98 170
62 98 169
62 99 172
62 97 164
61 97 165
63 98 171
62 98 170
61 97 165
61 97 170
61 98 172
61 97 164
62 98 168
62 98 172
62 98 169
62 97 171
61 96 165
160 181 221
207 227 255
208 228 255
208 228 255
208 228 255
208 228 255
208 228 255
208 228 255
208 228 255
208 228 255
208 228 255
208 228 255
208 228 255
208 228 255
208 228 255
208 228 255
208 228 255
209 228 255
209 228 255
209 229 255
209 229 255
209 229 255
209 229 255
209 229 255
209 229 255
209 229 255
209 229 255
209 229 255
209 229 255
209 229 255
209 229 255
209 229 255
209 229 255
209 229 255
209 229 255
209 229 255
209 229 255
209 229 255
209 229 255
209 229 255
209 229 255
209 229 255
210 229 255
210 229 255
210 229 255
210 229 255
210 229 255
194 204 214
144 132 82
156 143 86
153 141 87
155 148 95
152 143 93
156 146 91
157 151 97
146 138 89
156 149 97
150 144 94
160 154 100
153 147 96
151 145 94
156 150 97
162 156 101
162 156 102
155 149 97
160 155 101
160 152 97
161 155 101
158 153 101
161 156 101
160 155 103
158 150 97
165 160 105
158 152 99
159 153 100
163 157 103
164 158 104
158 152 99
164 161 107
163 158 103
160 153 100
164 157 102
169 164 107
166 160 104
164 158 103
171 167 109
167 162 106
168 162 105
164 159 104
166 159 103
170 164 106
170 165 109
169 164 107
167 161 104
170 161 103
169 162 104
169 164 108
164 159 104
167 160 103
167 161 103
166 159 102
168 161 104
164 156 100
168 164 106
171 164 107
170 165 108
165 158 100
169 163 106
165 159 103
169 162 105
171 164 105
169 161 105
171 164 104
170 163 105
173 167 108
172 166 107
170 164 106
166 158 99
169 163 104
173 167 109
166 160 103
172 165 106
168 162 104
165 160 101
168 161 104
165 159 100
169 161 101
169 161 102
169 161 101
171 163 104
170 165 108
167 159 100
168 161 103
168 161 103
171 162 101
168 158 96
165 156 99
170 163 101
170 162 100
164 155 97
166 157 96
172 164 104
162 153 94
170 163 102
162 153 95
165 157 99
164 155 95
168 161 99
173 163 101
161 152 93
168 160 98
167 160 98
168 159 99
165 156 95
164 154 96
168 160 101
160 149 89
165 155 95
165 155 92
161 152 94
166 158 97
163 153 92
160 150 91
161 153 92
164 155 96
161 152 92
167 157 93
166 155 94
165 155 96
165 156 93
165 153 92
165 155 95
206 227 255
205 227 255
205 226 255
204 226 255
204 226 255
204 226 255
203 226 255
203 225 255
202 225 255
202 225 255
202 225 255
201 225 255
201 224 255
201 224 255
200 224 255
200 224 255
199 223 255
199 223 255
199 223 255
198 223 255
198 223 255
198 223 255
197 222 255
197 222 255
197 222 255
196 222 255
196 222 255
196 221 254
199 223 253
200 223 252
202 225 250
201 224 249
202 224 248
199 222 248
203 225 254
199 222 240
200 223 245
199 221 245
200 223 242
202 224 246
200 223 241
202 224 250
200 223 248
201 224 249
203 225 250
203 225 250
199 222 244
203 225 252
200 222 241
199 222 241
197 220 237
197 221 238
197 220 231
198 222 245
195 218 228
199 222 240
196 219 231
198 222 242
197 221 238
195 219 234
197 221 241
197 221 238
198 221 244
198 221 238
199 222 245
196 221 240
198 221 241
197 220 236
198 222 245
197 220 241
197 221 240
197 221 242
196 220 237
197 221 240
198 222 244
197 221 242
196 220 240
195 220 241
198 222 246
196 220 238
197 221 245
197 221 244
198 222 248
197 222 250
195 219 233
196 221 245
196 220 242
194 219 240
194 220 241
194 219 240
195 220 242
195 220 242
194 220 242
197 222 246
196 221 250
198 223 255
197 222 254
196 221 248
196 221 248
194 219 241
194 220 249
193 220 246
194 220 249
190 219 254
187 217 255
185 216 255
186 217 255
187 217 255
188 217 255
188 218 255
189 218 255
190 219 255
192 219 255
192 220 255
194 221 255
194 221 255
195 221 255
196 222 255
198 223 255
201 224 255
202 225 255
204 226 255
205 226 255
206 227 254
208 227 248
210 229 254
210 230 255
210 229 255
210 229 255
210 229 255
210 229 255
210 229 255
210 229 255
210 229 255
210 229 255
210 229 255
209 229 255
209 229 255
209 229 255
209 229 255
209 229 255
209 229 255
209 229 255
209 229 255
209 229 255
209 229 255
209 229 255
209 229 255
209 229 255
209 229 255
209 229 255
209 229 255
209 229 255
209 229 255
209 229 255
209 229 255
209 229 255
209 229 255
209 229 255
209 229 255
209 228 255
209 228 255
209 228 255
208 228 255
208 228 255
208 228 255
208 228 255
208 228 255
208 228 255
198 218 248
108 135 191
62 99 175
62 99 172
62 98 171
62 98 169
62 98 167
63 99 168
62 98 170
62 99 174
62 98 168
62 99 171
62 98 169
63 99 169
62 99 167
63 99 171
62 99 172
62 98 169
62 98 165
63 99 171
63 99 170
62 98 162
61 97 163
62 98 167
62 98 165
63 100 171
62 98 166
63 99 169
62 98 169
62 98 168
62 98 164
63 99 170
64 100 172
62 98 167
62 98 162
61 97 159
62 98 166
60 96 160
62 98 168
63 99 167
61 97 168
61 98 162
62 98 171
62 98 172
62 99 172
62 99 174
62 99 171
61 97 165
62 98 167
62 98 165
63 99 168
61 96 165
62 98 166
62 98 169
61 97 168
62 99 172
61 97 164
62 99 172
62 99 176
62 97 170
131 155 203
201 221 250
208 228 255
208 228 255
208 228 255
208 228 255
208 228 255
208 228 255
208 228 255
209 228 255
209 229 255
209 229 255
209 229 255
209 229 255
209 229 255
209 229 255
209 229 255
209 229 255
209 229 255
209 229 255
209 229 255
209 229 255
209 229 255
209 229 255
209 229 255
209 229 255
209 229 255
209 229 255
209 229 255
209 229 255
209 229 255
209 229 255
209 229 255
209 229 255
209 229 255
209 229 255
210 229 255
210 229 255
210 229 255
210 229 255
210 229 255
210 229 255
210 229 255
210 229 255
207 225 251
179 182 174
152 140 86
153 142 89
150 138 84
159 152 98
154 143 88
157 149 96
151 142 90
153 144 93
157 150 97
153 146 95
162 156 102
156 151 97
161 153 98
158 154 102
155 150 99
165 160 105
160 154 100
154 147 95
163 157 102
160 155 101
162 156 102
161 156 103
159 153 100
160 154 100
163 157 103
166 160 104
165 159 104
163 157 102
167 162 106
164 159 103
162 157 103
161 154 99
165 160 105
163 157 102
168 164 107
165 160 105
168 161 105
171 164 107
172 167 109
165 159 104
162 155 100
166 159 103
167 164 109
165 158 101
171 165 108
171 166 109
167 161 106
170 164 107
166 159 103
168 161 104
170 164 105
168 163 107
173 167 108
170 164 107
169 163 103
170 164 107
170 164 106
170 164 107
170 165 109
169 164 106
168 163 106
169 163 105
168 163 105
166 160 101
171 165 106
168 164 108
167 160 103
171 165 104
171 163 103
168 162 104
167 162 104
170 164 105
172 165 104
167 160 102
167 161 102
170 164 105
172 165 106
169 162 104
172 165 106
171 160 99
166 159 100
170 162 104
168 160 100
165 159 98
168 161 101
168 161 102
167 160 103
166 159 98
166 160 101
168 162 104
170 160 100
166 158 102
167 159 101
168 159 97
171 164 104
165 157 99
167 160 99
165 159 97
164 157 99
164 155 96
171 163 102
168 160 98
166 158 96
164 157 96
163 155 97
164 156 97
164 155 97
163 154 90
166 156 92
163 155 96
166 157 97
163 155 95
165 155 95
166 157 95
163 153 93
163 153 91
161 152 93
163 154 94
163 152 90
163 152 90
162 153 95
162 153 89
160 149 87
164 153 93
163 155 94
205 227 255
205 227 255
205 226 255
204 226 255
204 226 255
203 226 255
203 226 255
203 225 255
202 225 255
202 225 255
202 225 255
201 224 255
201 224 255
200 224 255
200 224 255
200 224 255
200 224 255
199 223 255
199 223 255
198 223 255
198 223 255
197 222 255
197 222 255
197 222 255
197 222 255
197 222 255
198 223 252
201 224 249
201 224 249
201 224 253
202 224 250
202 224 249
203 226 254
201 223 246
203 224 245
204 226 255
201 224 246
204 225 248
201 223 249
200 223 244
202 224 241
200 222 237
205 226 253
202 224 248
200 223 242
198 221 234
198 222 240
199 223 245
199 222 240
198 221 240
199 222 240
199 222 242
199 222 241
200 223 242
200 222 240
197 221 234
199 222 244
199 222 241
199 223 246
198 222 240
199 222 241
198 221 238
200 223 246
198 221 242
200 223 248
200 223 248
199 222 246
199 222 242
200 223 249
199 222 238
198 222 238
196 219 233
197 221 238
201 224 249
198 221 238
198 222 245
199 223 248
197 221 241
197 221 241
200 223 248
197 221 240
197 221 241
197 221 242
198 222 244
198 222 248
197 221 241
195 220 240
196 220 238
194 219 234
197 221 242
196 220 241
194 219 236
194 219 238
195 221 248
193 217 226
195 220 238
197 221 245
198 222 250
197 221 248
196 221 248
196 221 245
196 221 249
194 220 246
193 220 249
193 219 246
193 220 252
188 218 254
186 216 255
187 217 255
187 217 255
188 218 255
189 218 255
190 218 255
191 219 255
192 219 255
193 220 255
195 221 255
196 221 255
196 222 255
199 223 255
200 224 255
201 225 255
203 225 255
205 227 255
205 226 252
206 227 250
211 230 254
210 229 255
210 229 255
210 229 255
210 229 255
210 229 255
210 229 255
210 229 255
210 229 255
210 229 255
210 229 255
210 229 255
210 229 255
210 229 255
210 229 255
210 229 255
209 229 255
209 229 255
209 229 255
209 229 255
209 229 255
209 229 255
209 229 255
209 229 255
209 229 255
209 229 255
209 229 255
209 229 255
209 229 255
209 229 255
209 229 255
209 229 255
209 229 255
209 229 255
209 229 255
209 229 255
209 229 255
209 229 255
209 229 255
209 229 255
209 229 255
209 229 255
165 187 226
73 106 174
62 98 164
62 98 166
62 98 166
63 99 173
62 98 168
61 97 160
62 99 170
62 99 170
62 99 175
62 99 170
62 98 165
62 99 165
63 99 170
62 99 169
62 98 163
63 99 172
63 100 170
62 99 167
61 98 166
62 98 165
62 98 165
62 98 167
62 98 160
62 98 161
61 98 169
62 99 167
63 99 167
62 98 164
63 99 168
63 99 172
62 98 164
62 98 166
63 99 171
62 99 165
61 97 159
62 98 164
62 98 166
62 98 164
63 99 168
62 98 163
62 98 169
62 98 168
62 98 168
62 98 169
62 98 166
62 97 167
63 99 168
61 97 165
63 99 172
61 97 163
62 98 167
62 98 173
61 98 166
61 97 165
63 99 172
61 97 168
61 97 165
62 98 169
61 97 164
62 97 169
88 116 179
184 205 237
209 229 255
209 229 255
209 229 255
209 229 255
209 229 255
209 229 255
209 229 255
209 229 255
209 229 255
209 229 255
209 229 255
209 229 255
209 229 255
209 229 255
209 229 255
209 229 255
209 229 255
209 229 255
209 229 255
209 229 255
209 229 255
209 229 255
209 229 255
209 229 255
209 229 255
209 229 255
210 229 255
210 229 255
210 229 255
210 229 255
210 229 255
210 229 255
210 229 255
210 229 255
210 229 255
210 229 255
210 229 255
210 229 255
210 229 255
210 229 255
200 215 234
163 157 129
156 147 92
155 143 90
157 146 91
153 143 90
152 144 93
150 140 89
156 148 96
154 147 94
159 154 101
156 150 98
159 152 97
154 145 92
159 153 100
156 150 97
162 155 99
157 153 102
155 149 97
160 154 101
163 158 103
162 156 102
156 151 98
164 157 102
163 158 103
160 154 101
161 156 103
163 159 104
165 161 107
161 154 99
163 158 104
163 157 102
166 162 107
167 160 104
167 163 107
165 161 105
163 158 103
166 161 106
170 166 109
167 159 102
166 161 106
168 162 106
164 158 103
170 165 107
167 161 105
172 167 110
168 162 104
170 166 107
166 159 102
166 161 105
169 162 105
169 164 107
168 162 105
167 161 104
170 164 107
169 162 103
168 161 105
166 161 105
168 161 102
171 164 105
172 166 107
167 159 102
173 169 110
170 163 104
171 165 108
170 164 106
168 163 106
170 162 102
169 162 102
175 168 107
171 164 104
165 158 99
170 163 103
171 166 106
169 163 105
169 162 104
168 161 103
172 165 104
168 160 100
164 157 98
170 163 99
169 162 102
171 164 103
170 163 103
168 159 99
168 158 96
172 165 105
167 159 97
170 164 104
170 164 107
168 160 100
169 162 103
173 166 107
169 162 102
170 163 102
167 159 94
163 156 95
164 157 99
168 160 98
166 157 95
165 155 92
164 155 97
168 161 100
164 157 98
169 161 101
165 157 98
167 160 101
165 156 95
166 157 96
165 157 98
165 157 97
164 153 90
166 159 97
165 157 96
165 156 95
168 161 100
167 158 95
169 161 97
161 152 91
166 156 94
165 157 95
161 154 96
161 152 93
158 150 89
164 153 90
166 156 93
168 158 95
163 152 91
206 227 255
205 226 255
205 226 255
205 226 255
204 226 255
204 226 255
203 225 255
203 225 255
202 225 255
202 225 255
202 225 255
201 224 255
201 224 255
200 224 255
200 224 255
200 224 255
199 223 255
199 223 255
199 223 255
198 223 255
198 223 255
198 223 255
197 222 255
198 223 255
199 223 250
202 225 249
202 224 249
201 224 244
201 224 252
203 225 252
201 224 245
200 223 240
203 225 248
201 224 248
201 224 246
202 224 248
203 225 248
201 224 249
202 223 245
201 223 244
199 221 237
203 225 250
198 221 237
197 220 233
198 221 242
200 223 244
199 222 238
198 221 236
199 222 237
199 222 241
200 223 241
199 222 242
198 221 233
201 223 242
201 224 246
200 223 244
197 220 237
201 224 249
202 224 249
199 222 241
202 224 248
199 223 244
200 223 242
199 223 245
201 224 250
201 223 245
200 223 246
199 222 244
200 223 244
200 223 242
198 222 242
200 223 249
200 222 242
200 222 241
199 223 245
197 220 234
199 222 242
200 223 242
199 222 242
200 223 249
199 223 249
199 223 246
199 222 244
197 221 237
197 221 242
200 223 249
199 223 248
198 222 244
197 221 246
199 223 252
197 221 244
195 219 237
195 220 237
195 220 244
196 221 242
195 220 241
195 219 236
195 220 238
195 220 240
198 222 248
196 221 244
195 220 245
196 221 249
194 219 238
198 222 246
196 221 245
193 220 250
193 220 250
189 218 254
186 217 255
187 217 255
188 217 255
189 218 255
189 218 255
190 219 255
192 219 255
192 220 255
194 221 255
195 221 255
196 222 255
198 223 255
200 224 255
201 224 255
203 225 255
205 226 255
207 227 255
207 228 253
209 229 253
210 229 255
210 229 255
210 229 255
210 229 255
210 229 255
210 229 255
210 229 255
210 229 255
210 229 255
210 229 255
210 229 255
210 229 255
210 229 255
210 229 255
210 229 255
210 229 255
210 229 255
210 229 255
210 229 255
210 229 255
210 229 255
209 229 255
209 229 255
209 229 255
209 229 255
209 229 255
209 229 255
209 229 255
209 229 255
209 229 255
209 229 255
209 229 255
209 229 255
209 229 255
209 229 255
209 229 255
209 229 255
209 229 255
209 229 255
148 170 216
62 98 170
62 98 172
62 98 167
61 97 160
62 99 171
63 99 169
62 98 166
62 98 168
62 99 167
62 98 161
63 99 170
62 99 169
62 98 162
62 98 162
62 98 169
62 99 172
62 99 168
63 99 163
62 99 167
63 99 170
62 98 161
62 98 168
63 99 164
62 98 165
62 99 167
62 98 161
62 98 167
61 98 170
63 98 165
62 98 167
62 98 164
62 98 165
61 97 158
62 98 161
62 98 167
63 100 175
61 98 169
62 98 165
62 98 169
62 99 172
61 97 159
62 98 171
62 98 162
63 99 167
61 97 162
61 97 162
62 98 165
61 98 168
62 97 161
63 98 168
62 97 164
62 98 171
61 97 165
62 98 164
62 98 166
60 95 157
62 97 163
61 98 170
62 98 167
61 97 159
61 96 162
61 96 167
61 97 170
61 95 164
159 181 219
208 228 254
209 229 255
209 229 255
209 229 255
209 229 255
209 229 255
209 229 255
209 229 255
209 229 255
209 229 255
209 229 255
209 229 255
209 229 255
209 229 255
209 229 255
209 229 255
209 229 255
209 229 255
210 229 255
210 229 255
210 229 255
210 229 255
210 229 255
210 229 255
210 229 255
210 229 255
210 229 255
210 229 255
210 229 255
210 229 255
210 229 255
210 229 255
210 229 255
210 229 255
210 229 255
210 229 255
210 229 255
210 229 255
200 214 231
160 151 109
150 138 86
150 140 88
151 140 86
156 147 94
157 148 95
156 146 92
155 149 97
153 146 94
157 152 99
154 149 98
159 153 100
157 147 92
154 150 99
155 150 99
158 152 100
162 156 102
159 155 102
161 156 103
153 147 95
163 157 103
159 154 101
160 155 102
161 156 102
160 155 102
162 156 100
161 157 104
161 157 103
163 157 103
170 165 108
166 160 103
167 161 105
164 158 103
168 161 104
167 161 104
166 161 106
168 162 105
167 160 103
166 160 103
169 163 106
171 166 108
169 164 107
171 166 109
167 162 105
167 158 99
168 163 107
172 168 110
167 161 104
167 162 105
171 165 106
170 162 104
166 161 104
168 163 105
169 163 105
165 160 103
172 167 109
166 160 102
168 163 105
168 164 104
171 166 107
168 160 104
168 162 104
171 165 107
169 161 102
170 165 108
169 164 105
168 164 106
168 162 104
168 163 104
169 164 106
171 164 105
173 166 105
173 167 105
166 160 102
169 163 106
170 162 101
170 161 100
166 160 100
169 162 102
173 165 103
167 160 100
171 163 99
169 162 101
172 165 104
167 158 99
171 163 103
168 161 103
168 162 101
167 160 101
169 161 100
167 158 98
168 159 100
163 157 97
172 165 105
170 161 100
168 163 102
169 163 105
168 161 101
169 161 100
170 160 97
168 159 98
168 159 95
165 158 95
171 162 100
168 161 100
172 163 100
168 161 100
165 157 95
164 157 95
166 157 97
169 161 99
163 155 93
162 152 90
166 158 94
165 156 93
171 163 98
167 159 97
162 154 95
164 157 97
167 158 99
164 153 89
165 156 97
164 154 92
165 156 94
167 158 97
166 156 95
160 149 88
166 158 98
205 227 255
205 226 255
205 226 255
204 226 255
204 226 255
203 226 255
203 226 255
203 225 255
202 225 255
202 225 255
202 225 255
201 224 255
201 224 255
201 224 255
200 224 255
200 224 255
200 224 255
199 223 255
199 223 255
198 223 255
198 223 255
198 222 252
201 224 249
203 225 249
201 223 248
201 224 245
203 225 250
204 225 252
202 224 249
202 224 248
202 224 246
204 225 249
203 225 245
205 226 252
203 225 252
204 225 249
204 225 249
206 227 253
203 225 248
200 223 242
199 222 237
201 224 246
199 222 241
199 221 236
200 222 240
201 223 238
200 222 240
202 224 246
201 224 246
199 222 238
201 223 244
200 222 237
200 222 240
201 224 249
201 223 245
199 222 238
201 223 244
200 222 241
200 222 240
201 223 242
201 224 245
202 225 249
201 224 248
201 223 242
199 222 241
202 224 246
198 221 234
199 222 242
202 224 245
201 224 246
200 223 240
200 223 244
198 221 240
200 223 248
201 223 246
200 223 242
200 223 245
199 222 240
200 223 248
200 223 248
202 225 252
198 221 245
200 222 241
201 224 249
198 221 236
199 223 248
198 221 238
199 222 242
196 220 238
197 221 238
197 221 242
196 220 236
198 222 242
196 221 246
197 221 242
196 220 238
196 221 242
196 221 244
195 220 240
196 221 245
195 220 244
199 223 250
196 221 244
200 223 250
197 222 252
196 221 246
195 220 248
196 221 245
195 220 242
194 220 248
189 218 254
187 217 255
188 218 255
189 218 255
189 218 255
191 219 255
191 219 255
193 220 255
193 220 255
195 221 255
196 222 255
197 222 255
199 223 255
201 224 255
202 225 255
205 226 255
206 227 255
208 228 252
209 229 253
211 230 254
210 230 255
210 230 255
210 230 255
210 229 255
210 229 255
210 229 255
210 229 255
210 229 255
210 229 255
210 229 255
210 229 255
210 229 255
210 229 255
210 229 255
210 229 255
210 229 255
210 229 255
210 229 255
210 229 255
210 229 255
210 229 255
210 229 255
210 229 255
210 229 255
210 229 255
210 229 255
210 229 255
210 229 255
209 229 255
209 229 255
209 229 255
209 229 255
209 229 255
209 229 255
209 229 255
203 223 251
126 150 198
62 99 171
63 99 168
62 99 167
61 98 168
62 99 171
62 98 164
62 98 162
62 98 167
62 98 166
62 98 166
63 99 168
62 99 166
62 97 159
62 98 165
62 98 165
62 98 169
62 98 165
62 98 161
63 100 171
62 99 167
62 98 161
63 99 166
62 98 168
62 99 168
62 99 169
62 98 167
62 98 163
62 98 163
62 98 168
62 98 164
62 98 161
62 98 161
62 99 167
63 99 165
62 98 163
62 98 164
62 98 167
62 98 168
62 98 167
62 99 167
61 97 161
62 98 167
62 98 162
62 98 164
61 98 160
61 97 162
62 98 164
61 96 159
61 96 161
63 99 169
62 97 166
62 97 163
61 97 156
61 97 161
62 98 163
62 98 163
62 97 165
61 97 160
63 99 168
62 98 169
62 98 171
61 95 164
62 98 168
61 97 169
60 94 161
61 96 167
139 161 205
209 229 255
209 229 255
209 229 255
209 229 255
209 229 255
209 229 255
209 229 255
209 229 255
209 229 255
210 229 255
210 229 255
210 229 255
210 229 255
210 229 255
210 229 255
210 229 255
210 229 255
210 229 255
210 229 255
210 229 255
210 229 255
210 229 255
210 229 255
210 229 255
210 229 255
210 229 255
210 229 255
210 229 255
210 229 255
210 229 255
210 229 255
210 229 255
210 229 255
210 230 255
210 230 255
211 230 255
186 193 199
156 146 95
154 144 91
154 144 90
158 150 95
155 144 91
147 138 87
150 142 90
152 143 92
158 152 99
150 143 94
161 153 97
151 144 93
161 154 99
159 151 98
160 155 102
158 152 98
158 153 100
167 162 106
157 154 103
159 154 100
158 152 99
158 152 99
157 153 102
160 156 104
160 156 103
164 159 104
161 157 104
157 150 99
164 160 105
167 162 106
166 162 107
166 160 105
168 162 105
165 160 105
165 160 104
166 158 102
168 163 108
164 158 103
166 161 106
169 164 107
166 161 104
169 165 109
166 162 106
166 161 107
164 159 104
168 162 105
167 161 103
168 164 108
171 165 107
169 164 107
167 158 101
166 159 101
165 159 102
172 167 108
170 162 103
170 163 105
167 161 103
166 160 102
167 161 102
170 164 106
169 161 102
172 167 107
173 166 107
172 165 106
172 165 106
170 164 106
170 163 104
173 167 106
172 163 101
167 160 102
172 165 105
170 163 103
173 166 105
169 162 103
167 159 101
168 160 103
169 163 104
173 167 107
171 164 105
174 168 107
170 162 102
170 163 102
172 165 103
171 163 102
168 161 99
166 159 97
171 164 103
167 160 100
169 162 98
170 164 102
172 165 104
169 162 101
172 165 101
170 163 99
166 158 93
169 162 101
172 165 104
166 159 98
169 160 98
171 164 103
169 161 97
167 159 97
166 160 95
169 160 100
173 165 104
170 162 100
161 153 93
169 162 102
165 155 94
168 159 93
168 160 99
167 157 95
169 158 96
166 158 95
169 159 95
168 159 96
163 153 90
164 155 94
164 155 94
165 156 95
161 150 87
168 159 96
166 158 95
165 156 89
165 155 91
164 155 91
165 156 96
166 157 94
160 150 87
205 227 255
205 226 255
205 227 255
204 226 255
204 226 255
204 226 255
203 225 255
203 225 255
202 225 255
202 225 255
202 225 255
201 225 255
201 224 255
201 224 255
200 224 255
200 224 255
200 224 255
199 223 255
199 223 255
199 223 255
202 224 252
204 226 250
204 226 253
204 226 252
203 225 249
203 225 250
205 226 249
203 225 248
204 225 250
203 224 246
205 226 250
203 224 246
202 224 240
203 225 249
203 224 244
205 226 249
202 224 248
200 223 241
200 222 237
199 222 238
200 222 238
201 223 244
200 222 238
199 221 233
203 225 249
200 222 240
202 224 244
202 224 244
202 224 246
200 222 238
202 224 246
202 224 249
202 224 244
201 223 240
201 223 244
202 224 245
202 224 246
198 220 240
202 224 242
202 224 249
200 223 244
200 222 240
201 223 246
200 223 244
201 223 244
201 223 246
203 225 250
202 224 245
201 223 240
202 224 248
202 224 245
201 223 245
202 224 249
201 224 250
201 224 246
200 222 242
202 224 242
202 224 246
198 221 237
201 224 249
199 222 244
200 223 245
200 223 249
199 222 244
201 224 252
200 223 245
200 222 240
198 220 237
200 223 250
199 222 244
198 222 245
199 222 249
199 222 244
198 221 241
198 222 242
197 221 241
197 221 240
198 221 245
196 220 241
196 220 242
196 221 245
194 220 241
195 220 240
199 223 253
198 222 246
198 222 250
199 222 248
196 221 245
195 220 245
196 221 245
197 221 249
194 220 250
189 217 253
188 218 255
188 218 255
189 218 255
190 219 255
191 219 255
193 220 255
194 221 255
195 221 255
196 222 255
197 222 255
199 223 255
200 224 255
203 225 255
203 225 255
207 228 255
208 228 254
211 229 253
211 229 254
211 230 255
211 230 255
211 230 255
211 230 255
211 230 255
211 230 255
210 230 255
210 230 255
210 230 255
210 229 255
210 229 255
210 229 255
210 229 255
210 229 255
210 229 255
210 229 255
210 229 255
210 229 255
210 229 255
210 229 255
210 229 255
210 229 255
210 229 255
210 229 255
210 229 255
210 229 255
210 229 255
210 229 255
210 229 255
210 229 255
210 229 255
210 229 255
210 229 255
203 222 250
121 146 199
62 98 166
62 98 162
62 99 170
62 99 166
62 98 165
62 98 164
62 99 169
63 99 169
61 98 166
62 98 170
61 98 164
62 98 161
63 99 171
63 99 169
63 99 168
62 98 167
62 98 163
62 98 165
61 97 161
62 98 162
61 97 158
62 98 164
62 99 169
62 98 162
61 97 160
62 98 158
62 98 164
63 99 162
62 98 161
62 98 165
62 98 162
62 98 164
63 99 168
61 97 160
62 98 161
62 98 165
63 99 166
61 97 162
62 98 166
62 99 164
62 98 159
62 98 166
62 98 170
62 98 166
60 96 156
62 98 162
61 98 165
62 98 166
62 98 165
61 96 155
61 97 164
62 98 166
62 99 168
62 98 163
62 97 162
61 97 164
61 97 162
61 97 163
61 97 165
62 98 163
61 97 160
60 95 157
62 97 166
62 97 164
61 95 162
61 96 159
60 95 159
60 95 161
108 133 188
205 224 252
210 229 255
210 229 255
210 229 255
210 229 255
210 229 255
210 229 255
210 229 255
210 229 255
210 229 255
210 229 255
210 229 255
210 229 255
210 229 255
210 229 255
210 229 255
210 229 255
210 229 255
210 229 255
210 229 255
210 229 255
210 229 255
210 229 255
210 229 255
210 229 255
210 229 255
210 230 255
210 230 255
211 230 255
211 230 255
211 230 255
211 230 255
211 230 255
211 230 255
184 189 188
157 145 90
154 144 90
147 137 87
147 138 90
153 145 91
152 143 91
160 153 99
154 146 93
155 147 95
155 149 97
155 147 94
152 145 93
153 148 96
150 142 92
153 148 97
161 155 102
150 144 93
156 151 98
158 155 103
159 154 101
159 153 100
162 155 100
158 155 102
163 156 102
156 149 96
161 156 103
161 155 101
158 153 101
161 156 103
168 163 107
165 159 104
163 158 104
168 161 104
166 160 104
166 160 104
168 162 107
167 162 107
165 159 104
169 163 107
171 164 107
165 160 104
167 161 103
172 167 108
168 163 107
167 163 108
170 164 108
170 164 107
171 165 105
169 162 104
170 164 105
170 164 106
168 160 103
168 160 102
173 168 110
166 161 103
171 165 106
174 167 107
171 164 104
169 163 104
169 163 105
169 162 102
171 164 106
171 166 107
173 167 107
172 167 108
170 163 104
173 166 107
170 165 104
171 164 104
170 163 105
167 160 99
171 163 104
174 167 106
169 162 102
172 165 104
174 168 108
171 163 102
172 167 107
169 162 104
173 167 107
170 162 103
168 161 102
174 169 107
168 162 102
169 160 99
172 165 105
173 165 104
172 164 102
168 161 102
171 164 102
168 159 98
167 158 99
169 162 101
170 162 101
167 158 97
169 162 102
168 159 98
166 158 96
166 158 96
168 161 98
167 158 98
170 163 101
166 159 97
168 158 98
165 158 95
166 157 95
166 158 97
166 157 96
169 161 99
169 161 100
169 161 99
168 160 99
169 160 97
169 160 97
162 154 93
166 157 96
170 161 101
165 157 95
164 154 89
163 155 93
166 156 93
161 152 91
171 161 100
168 158 93
166 158 93
166 156 91
164 156 97
162 153 90
164 153 92
161 153 91
205 227 255
205 226 255
205 226 255
204 226 255
204 226 255
203 226 255
203 226 255
203 225 255
202 225 255
202 225 255
202 225 255
201 225 255
201 225 255
201 224 255
200 224 255
200 224 255
200 224 255
198 222 252
200 223 250
203 225 250
205 226 249
204 226 253
204 225 249
204 225 250
203 225 245
205 226 249
204 226 252
205 226 252
204 226 250
203 224 249
204 225 245
205 226 250
205 226 252
204 226 252
203 224 240
201 223 237
202 224 244
200 222 236
203 225 246
200 222 240
202 223 241
200 223 242
203 224 245
202 224 245
203 225 246
201 223 242
202 224 242
202 223 241
204 225 250
203 225 246
202 224 246
202 223 242
202 224 242
201 223 241
204 226 252
201 223 242
202 223 245
202 224 248
204 225 249
200 222 242
205 226 253
202 223 244
202 224 242
201 223 240
203 225 249
202 223 245
200 222 238
201 223 242
202 224 246
203 225 246
203 225 246
202 224 245
202 224 244
203 225 250
200 222 244
203 225 253
201 224 249
200 222 242
202 224 246
203 225 253
201 224 245
202 224 248
200 223 245
202 224 245
200 223 244
202 224 249
201 224 246
199 222 237
202 225 252
200 223 245
199 222 242
197 220 234
201 224 252
198 221 244
197 220 238
200 223 246
198 221 240
197 221 241
198 221 244
197 221 242
195 219 237
197 221 242
198 222 245
196 220 236
197 221 245
194 218 230
197 221 245
198 222 246
200 223 248
198 222 248
196 221 246
195 220 246
198 222 252
193 220 253
189 218 255
189 218 255
190 218 255
190 219 255
192 219 255
193 220 255
194 221 255
194 221 255
196 222 255
198 223 255
199 223 255
201 224 255
202 225 255
204 226 254
206 227 255
207 227 253
207 227 252
211 230 254
211 230 255
211 230 255
211 230 255
211 230 255
211 230 255
211 230 255
211 230 255
211 230 255
211 230 255
211 230 255
211 230 255
211 230 255
210 230 255
210 230 255
210 230 255
210 229 255
210 229 255
210 229 255
210 229 255
210 229 255
210 229 255
210 229 255
210 229 255
210 229 255
210 229 255
210 229 255
210 229 255
210 229 255
210 229 255
210 229 255
210 229 255
206 225 252
93 122 183
63 99 164
62 98 171
62 99 171
62 98 166
62 98 170
62 99 172
62 99 168
62 98 164
62 99 166
62 99 169
60 96 149
62 98 159
62 98 166
63 99 168
62 98 162
61 97 155
62 98 163
62 98 169
62 98 162
62 98 163
62 98 160
63 99 166
61 98 162
61 97 160
61 97 159
62 98 167
62 98 165
62 99 167
62 97 154
63 99 169
62 98 169
62 98 160
62 98 162
62 99 164
60 96 156
61 97 160
63 99 168
62 98 166
62 98 163
62 98 165
62 98 165
62 99 168
62 98 159
62 98 164
61 97 160
62 99 169
61 97 158
62 98 162
62 98 163
61 96 158
62 98 162
61 97 159
62 97 164
62 98 163
62 98 168
62 98 161
61 97 161
61 97 160
62 98 164
62 98 168
61 97 163
62 99 170
62 98 165
62 97 161
61 97 162
61 96 161
60 95 161
60 95 160
61 96 161
60 94 165
108 133 185
198 217 245
210 229 255
210 229 255
210 229 255
210 229 255
210 229 255
210 229 255
210 229 255
210 229 255
210 229 255
210 229 255
210 229 255
210 229 255
210 229 255
210 229 255
210 229 255
210 229 255
210 230 255
210 230 255
211 230 255
211 230 255
211 230 255
211 230 255
211 230 255
211 230 255
211 230 255
211 230 255
211 230 255
211 230 255
211 230 255
211 230 255
211 230 255
189 197 200
151 139 86
153 144 91
150 141 89
154 147 95
154 145 93
152 143 90
147 141 93
153 147 97
153 147 95
158 151 98
156 149 96
153 147 96
161 157 103
159 153 101
152 146 95
155 150 99
157 151 98
155 147 94
157 152 101
160 154 101
159 153 101
158 152 99
163 159 105
160 154 102
161 155 102
161 155 101
160 154 101
162 158 106
163 157 102
159 153 100
167 162 107
165 159 104
166 161 106
166 163 108
167 164 108
167 162 107
164 158 103
162 157 101
161 156 104
162 157 102
169 165 110
171 165 107
170 165 108
170 164 106
166 161 106
167 161 104
170 164 106
171 165 107
168 163 106
168 161 102
171 165 109
172 167 109
171 165 105
170 164 106
169 162 103
165 159 104
173 166 107
171 166 108
171 165 105
171 165 108
170 164 105
169 161 103
170 165 106
169 163 106
175 169 107
172 166 107
169 163 105
173 166 107
173 168 107
170 164 104
172 164 103
169 163 104
168 163 104
172 165 105
171 165 106
169 163 104
176 169 108
165 159 97
171 164 104
167 160 98
171 165 106
168 161 103
173 166 105
169 161 100
167 158 95
168 161 101
168 162 101
165 158 99
168 160 101
171 165 104
171 164 102
169 163 103
170 164 102
168 160 100
167 160 98
171 164 103
171 164 102
171 164 101
168 161 96
168 159 95
169 161 100
170 163 101
167 160 98
163 154 93
165 159 99
165 157 92
167 160 96
165 156 93
168 161 97
164 156 94
170 162 101
167 158 93
165 157 95
167 158 93
163 153 91
170 161 99
160 151 91
167 159 93
167 156 94
161 153 91
160 151 91
167 158 92
166 156 97
167 155 93
162 152 89
167 158 96
165 156 91
166 157 94
164 152 92
165 155 90
166 156 94
205 227 255
205 227 255
205 226 255
204 226 255
204 226 255
204 226 255
203 226 255
203 225 255
203 225 255
202 225 255
202 225 255
202 225 255
201 224 255
201 224 255
201 224 255
200 224 255
203 225 254
203 225 249
204 225 248
204 225 249
205 226 249
206 227 252
204 225 242
205 226 249
205 226 250
205 226 248
204 225 245
205 226 245
205 226 249
205 226 252
205 226 249
205 226 248
203 224 240
203 224 244
201 223 241
203 224 246
202 224 242
202 223 241
202 224 242
202 224 242
202 224 244
200 222 231
203 225 249
201 223 241
203 225 245
203 225 244
204 225 249
203 224 244
202 223 241
203 224 244
204 225 244
204 225 248
203 224 245
200 222 241
202 224 245
202 224 245
204 225 249
204 225 249
201 223 242
203 225 249
204 226 249
202 224 245
203 224 242
200 222 240
205 226 249
200 222 237
203 225 245
202 224 245
202 224 242
202 224 246
202 223 242
203 225 249
202 223 238
202 223 242
202 224 245
202 223 245
203 224 244
203 225 249
202 224 244
202 224 245
202 224 248
202 224 246
200 223 245
203 225 252
201 224 248
200 223 241
202 224 246
201 224 244
203 225 250
201 223 246
200 223 248
201 223 244
199 222 240
200 222 245
199 222 244
200 223 245
200 223 242
199 223 245
200 223 246
199 223 248
197 220 234
198 221 238
197 220 238
198 222 245
198 222 242
197 221 241
195 220 237
197 222 248
197 221 245
200 223 248
199 223 253
197 222 252
197 221 244
196 221 245
197 222 253
193 220 252
190 218 255
190 218 255
191 219 255
192 219 255
193 220 255
194 221 255
195 221 255
197 222 255
198 223 255
199 223 255
200 224 255
203 225 255
204 226 255
207 227 255
208 228 255
210 229 252
212 230 255
211 230 255
211 230 255
211 230 255
211 230 255
211 230 255
211 230 255
211 230 255
211 230 255
211 230 255
211 230 255
211 230 255
211 230 255
211 230 255
211 230 255
211 230 255
211 230 255
211 230 255
211 230 255
211 230 255
210 230 255
210 230 255
210 230 255
210 230 255
210 229 255
210 229 255
210 229 255
210 229 255
210 229 255
210 229 255
203 223 251
107 134 190
62 98 164
61 98 170
62 99 173
62 99 172
62 98 167
62 99 170
62 98 164
62 98 162
62 98 166
62 98 167
63 99 165
62 99 169
61 97 158
61 98 166
62 98 164
63 99 168
61 97 158
62 98 157
61 97 159
62 98 169
63 99 165
62 98 158
63 99 167
61 97 158
62 98 164
62 98 167
62 98 164
62 98 158
61 97 155
61 97 157
62 98 161
61 97 154
62 98 162
61 97 161
61 97 155
62 98 159
62 97 158
63 99 172
63 99 166
62 98 160
62 98 158
62 98 163
61 96 160
62 98 164
61 97 160
62 98 163
62 98 160
62 97 158
61 97 156
61 98 164
61 97 153
62 98 164
63 98 162
61 97 159
63 99 170
62 98 163
63 98 168
62 98 162
61 97 158
62 98 162
62 97 161
61 96 161
61 96 161
61 97 168
61 97 161
61 96 162
61 97 166
62 97 165
62 96 157
60 96 166
61 96 160
60 95 164
101 127 182
204 224 250
210 229 255
210 229 255
210 229 255
210 229 255
210 229 255
210 229 255
210 229 255
210 230 255
210 230 255
210 230 255
211 230 255
211 230 255
211 230 255
211 230 255
211 230 255
211 230 255
211 230 255
211 230 255
211 230 255
211 230 255
211 230 255
211 230 255
211 230 255
211 230 255
211 230 255
211 230 255
211 230 255
211 230 255
211 230 255
179 185 184
148 139 86
159 150 96
152 142 88
150 142 91
142 133 85
148 143 95
156 149 96
146 139 90
152 146 94
147 141 93
155 149 98
154 147 96
155 150 99
148 140 89
156 152 100
162 157 104
156 151 99
154 148 96
159 152 99
161 155 102
157 151 99
163 157 101
158 154 102
157 152 101
165 162 108
163 159 104
163 158 104
163 157 101
163 158 104
163 157 101
160 156 103
167 161 105
166 161 104
165 159 104
163 156 102
167 160 102
167 162 106
165 161 105
170 164 108
168 162 105
168 163 106
171 165 106
171 165 107
170 166 108
171 166 106
171 165 107
167 162 105
172 166 108
168 163 106
172 166 108
168 161 102
173 168 110
168 163 104
169 164 104
169 165 106
170 165 108
171 165 106
170 164 105
175 170 110
172 166 107
174 168 108
168 163 105
174 167 108
173 166 107
174 166 104
171 166 106
175 167 107
174 167 106
171 166 106
171 165 107
176 169 108
171 165 107
172 166 106
174 168 107
168 163 101
174 166 104
171 164 101
171 165 104
171 164 104
171 166 105
168 160 101
173 167 104
172 166 107
175 168 108
176 170 108
175 168 106
172 164 101
174 166 104
170 163 99
173 166 104
170 163 102
173 166 104
169 160 98
172 165 106
172 164 102
168 162 101
165 157 96
168 159 99
167 160 99
165 156 97
173 166 104
169 163 101
167 159 96
168 161 100
166 157 96
168 160 97
169 161 97
170 162 100
169 160 98
173 166 102
164 157 98
170 161 99
168 159 95
164 153 92
168 161 96
164 155 94
160 151 87
165 158 96
168 159 96
166 157 95
168 159 95
166 156 94
169 159 97
170 161 96
165 152 87
171 161 96
168 157 92
166 156 92
161 150 86
163 155 97
162 153 90
163 153 91
205 227 255
205 227 255
205 226 255
204 226 255
204 226 255
204 226 255
203 226 255
203 225 255
203 225 255
202 225 255
202 225 255
202 225 255
202 225 255
201 224 255
202 225 255
205 226 252
206 227 253
204 226 248
205 226 249
206 226 246
205 226 249
205 226 253
204 226 250
206 227 253
204 225 248
204 225 241
205 226 249
206 227 249
205 226 248
207 227 249
205 226 248
202 223 237
202 224 240
202 223 237
201 223 237
203 225 245
202 223 240
203 225 244
203 224 245
201 223 237
205 226 248
204 225 244
204 225 244
203 224 244
202 223 237
203 224 241
204 225 246
203 224 245
204 225 245
204 225 250
204 225 244
203 224 244
205 226 249
202 224 242
203 224 241
202 223 237
205 226 248
204 226 249
204 225 248
204 225 248
205 226 250
203 225 244
201 222 238
203 224 248
204 225 246
204 225 249
203 225 246
204 225 249
204 225 246
205 226 250
205 226 249
204 226 249
205 226 249
202 224 245
202 224 246
203 224 244
205 226 248
203 224 248
202 224 244
203 225 246
203 225 246
202 224 244
203 224 246
203 224 242
202 223 242
202 223 244
202 224 248
201 224 246
201 224 248
202 224 248
200 223 249
202 224 248
201 223 248
201 223 244
201 223 245
200 223 246
201 223 244
200 223 245
200 223 244
200 223 248
199 222 240
199 222 241
200 223 245
200 223 246
196 220 233
199 222 245
198 222 242
197 221 241
197 221 240
195 219 236
199 223 246
199 222 246
199 223 250
198 222 246
198 222 246
199 223 252
196 221 249
192 219 254
191 219 255
191 219 255
192 219 255
193 220 255
194 221 255
195 221 255
196 222 255
198 223 255
200 224 255
201 224 255
203 225 255
205 226 255
206 227 254
208 228 255
211 230 253
211 230 255
211 230 255
211 230 255
211 230 255
211 230 255
211 230 255
211 230 255
211 230 255
211 230 255
211 230 255
211 230 255
211 230 255
211 230 255
211 230 255
211 230 255
211 230 255
211 230 255
211 230 255
211 230 255
211 230 255
211 230 255
211 230 255
211 230 255
211 230 255
211 230 255
211 230 255
211 230 255
211 230 255
203 222 250
113 139 194
63 99 171
61 97 158
62 99 170
62 97 156
62 98 164
62 98 165
61 97 164
60 96 160
62 98 162
62 98 160
61 97 159
62 98 162
62 98 165
62 98 163
63 99 169
63 99 169
62 98 162
62 98 155
62 98 165
62 98 167
61 97 160
63 99 163
62 98 157
61 97 158
62 97 161
62 98 162
63 99 163
62 97 154
62 98 160
63 100 167
61 97 159
62 99 164
62 98 162
62 98 162
62 98 161
61 97 152
62 98 164
62 98 163
62 98 164
62 98 159
62 98 163
62 98 160
61 97 162
63 99 169
62 97 154
62 97 158
62 97 153
62 97 162
62 98 160
62 97 160
62 98 159
61 96 158
63 98 163
62 98 161
61 96 157
61 96 155
62 97 162
61 97 159
62 99 169
62 98 163
62 98 167
62 97 164
62 98 163
62 98 166
62 97 167
61 96 157
61 96 159
61 96 159
60 95 155
61 96 164
61 96 162
60 94 153
61 96 160
61 96 166
116 139 187
207 226 252
211 230 255
211 230 255
211 230 255
211 230 255
211 230 255
211 230 255
211 230 255
211 230 255
211 230 255
211 230 255
211 230 255
211 230 255
211 230 255
211 230 255
211 230 255
211 230 255
211 230 255
211 230 255
211 230 255
211 230 255
211 230 255
211 230 255
211 230 255
211 230 255
211 230 255
211 230 255
211 230 255
179 181 170
148 136 83
142 130 81
160 151 95
140 131 83
148 138 89
150 142 91
152 146 96
156 147 94
152 144 91
154 147 96
157 153 101
155 149 98
148 142 94
153 148 98
148 143 95
155 150 100
155 152 102
159 156 103
148 140 91
155 150 100
157 152 100
153 149 100
158 154 102
159 154 101
161 157 103
156 152 100
158 154 102
164 159 104
166 160 104
161 157 103
163 157 103
166 162 107
167 163 108
168 162 103
168 164 108
169 164 107
162 158 104
167 160 103
168 163 105
168 163 108
167 163 105
173 168 109
170 165 109
170 165 106
170 164 107
170 164 104
173 167 109
169 165 108
170 165 106
170 165 107
172 165 107
173 167 107
172 167 107
171 165 107
173 167 109
176 169 109
172 166 106
172 166 107
171 164 105
169 164 107
169 164 105
172 165 106
171 165 104
170 162 105
170 165 107
172 167 108
172 165 105
174 168 108
170 162 102
174 168 109
173 167 107
174 168 105
170 163 103
174 168 107
174 166 105
173 166 105
176 169 105
170 165 103
170 162 101
166 160 99
176 168 106
171 165 103
170 161 100
173 165 102
173 166 105
170 165 106
170 162 101
172 166 106
169 162 101
171 164 103
172 164 102
167 159 97
168 162 102
169 162 103
167 160 97
173 163 99
169 161 99
170 162 97
170 162 98
170 161 99
172 163 99
171 165 102
168 159 98
172 164 99
171 163 99
169 159 97
164 157 96
170 162 98
170 162 99
168 160 98
166 158 96
167 158 95
168 157 93
165 157 93
168 160 97
164 155 92
168 160 99
170 161 99
163 156 94
164 156 94
171 161 97
167 159 97
169 159 96
168 159 96
167 157 94
171 162 97
163 152 90
168 158 97
165 154 93
166 156 94
163 153 93
164 154 93
169 159 94
206 227 255
205 227 255
205 227 255
205 226 255
204 226 255
204 226 255
204 226 255
203 226 255
203 225 255
203 225 255
202 225 255
202 225 255
202 225 255
203 225 254
205 226 253
205 226 250
206 227 252
206 226 248
205 226 248
206 226 248
205 226 246
204 224 241
205 226 250
206 226 249
206 226 244
204 225 245
204 225 248
206 226 249
205 226 249
202 223 231
203 224 240
202 223 241
203 224 240
204 225 245
203 225 245
200 221 228
204 225 244
203 225 245
205 226 250
204 224 244
202 224 238
205 226 249
204 225 245
205 226 248
204 225 245
205 226 245
202 223 242
205 226 250
205 226 249
205 226 246
202 223 244
205 226 246
206 227 250
204 225 246
205 226 248
205 226 245
203 225 246
205 226 245
204 225 244
203 224 241
205 226 248
205 226 252
206 226 249
202 224 242
205 226 248
204 225 245
203 224 241
203 224 246
205 225 246
205 226 246
205 226 253
203 225 244
203 225 245
202 223 238
205 226 249
203 224 244
203 225 245
204 225 246
205 226 252
205 226 250
202 223 240
202 224 244
205 226 253
204 225 248
203 224 244
200 222 238
201 223 244
201 223 244
204 226 252
202 224 242
203 225 246
204 225 250
203 225 248
201 223 241
203 225 246
202 224 242
201 223 242
201 224 244
200 222 244
201 224 245
200 223 245
200 223 248
202 224 248
202 224 248
198 221 237
200 223 248
200 223 245
198 222 244
198 221 244
197 221 241
198 222 245
197 221 240
198 222 249
200 223 248
199 222 246
198 222 246
198 222 252
198 223 252
192 219 250
190 219 255
191 219 255
193 220 255
193 220 255
194 221 255
196 222 255
196 222 255
198 223 255
200 224 255
201 225 255
204 226 255
204 226 255
207 228 255
209 228 254
209 228 252
211 230 254
212 230 255
212 230 255
212 230 255
212 230 255
211 230 255
211 230 255
211 230 255
211 230 255
211 230 255
211 230 255
211 230 255
211 230 255
211 230 255
211 230 255
211 230 255
211 230 255
211 230 255
211 230 255
211 230 255
211 230 255
211 230 255
211 230 255
211 230 255
211 230 255
211 230 255
211 230 255
115 140 192
61 97 164
63 99 173
62 98 163
63 99 166
61 97 159
61 97 159
62 98 163
62 99 169
62 98 162
61 97 154
62 98 158
62 97 156
62 99 165
62 98 161
62 98 162
63 99 169
62 98 167
62 99 167
62 98 162
61 97 152
61 97 157
62 98 160
62 98 160
62 97 156
62 98 167
63 99 168
62 98 164
62 98 160
61 97 156
61 98 163
61 97 158
61 97 157
63 99 163
62 98 160
63 99 164
62 98 164
61 97 157
62 98 166
61 96 154
61 97 157
62 97 163
61 97 152
62 99 166
62 97 163
61 97 161
62 98 162
61 97 157
62 98 167
61 96 151
61 97 154
62 98 163
61 97 160
62 98 161
61 97 158
62 98 164
62 97 163
61 97 159
62 98 160
62 97 165
62 98 165
62 97 162
61 97 158
61 97 162
61 96 154
61 97 161
61 97 163
61 96 156
61 96 163
62 97 163
61 95 157
61 96 159
59 93 152
61 95 159
61 96 160
60 94 159
60 94 156
123 146 191
209 228 254
211 230 255
211 230 255
211 230 255
211 230 255
211 230 255
211 230 255
211 230 255
211 230 255
211 230 255
211 230 255
211 230 255
211 230 255
211 230 255
211 230 255
211 230 255
211 230 255
211 230 255
211 230 255
211 230 255
211 230 255
211 230 255
212 230 255
212 230 255
212 230 255
212 230 255
181 184 177
154 142 87
154 142 89
152 142 89
146 136 85
154 146 93
150 142 91
152 145 96
149 142 92
148 142 93
153 146 94
155 151 100
153 149 99
152 146 96
154 149 98
156 151 100
155 150 98
155 151 101
154 149 97
154 151 101
156 151 98
156 150 97
157 152 100
161 157 105
160 154 99
157 152 100
163 158 103
160 156 102
157 152 97
159 154 102
162 157 103
163 158 104
159 155 102
164 161 105
161 157 104
164 160 104
167 161 104
163 159 103
166 159 104
163 158 104
164 159 104
168 162 104
166 162 106
166 160 103
169 163 106
172 165 105
167 162 106
168 163 106
169 164 106
170 164 106
171 165 107
172 168 109
172 165 106
175 169 109
170 164 106
173 166 107
174 168 108
168 162 102
171 165 107
172 167 109
170 165 106
173 168 107
170 163 103
170 164 104
174 168 106
171 167 106
173 167 106
173 166 105
175 169 107
172 166 107
173 166 104
170 162 101
172 165 105
170 163 102
172 164 103
170 163 102
175 168 107
173 167 106
170 164 104
173 167 107
175 168 109
170 165 104
171 165 102
174 167 106
170 165 104
171 161 100
173 166 105
175 168 105
168 161 98
169 161 101
169 161 98
170 162 100
173 166 101
173 166 105
169 162 100
170 163 99
167 159 96
172 166 105
172 165 102
169 162 96
170 163 99
169 160 95
170 161 98
169 161 98
171 164 101
166 157 94
170 160 99
169 162 96
169 160 96
166 156 94
170 162 100
170 162 98
168 160 95
171 163 100
172 164 98
171 163 99
170 163 100
167 159 93
167 158 93
173 165 99
170 163 98
170 162 96
169 161 96
171 163 98
162 151 88
163 153 85
161 151 88
164 154 91
166 156 93
167 158 91
165 154 89
170 162 100
166 156 89
163 154 92
164 154 89
206 227 255
206 227 255
205 227 255
205 226 255
205 226 255
204 226 255
204 226 255
203 226 255
203 226 255
203 225 255
202 225 255
203 225 255
204 225 252
206 227 250
206 226 248
205 226 249
207 227 252
206 227 252
203 224 241
205 225 249
206 227 249
208 228 250
206 227 252
207 227 248
207 227 250
206 227 253
205 226 245
203 224 241
204 225 244
202 223 236
203 224 242
205 226 249
202 223 240
200 221 236
204 225 242
203 224 238
206 227 252
204 225 245
204 225 246
206 226 245
204 224 241
205 226 246
205 225 244
205 226 245
204 225 244
204 225 246
205 226 246
204 225 244
204 225 248
205 225 244
205 226 248
204 225 245
204 225 246
207 227 249
202 223 240
206 226 246
206 226 248
203 224 244
206 226 248
205 225 248
204 225 246
202 223 241
206 227 249
205 226 245
204 225 242
202 223 240
206 227 250
206 227 250
204 225 248
204 225 249
206 226 252
205 226 246
204 224 244
203 224 246
205 225 244
205 226 250
204 226 249
206 226 250
203 224 241
205 227 253
204 225 246
204 225 249
202 223 241
203 224 242
206 227 252
204 225 248
205 226 249
204 226 250
202 224 245
204 225 248
203 225 246
204 225 249
202 224 246
204 225 245
202 224 242
202 224 244
204 225 249
201 223 245
202 224 241
201 224 244
202 225 252
203 225 250
202 225 250
202 224 248
201 223 244
200 223 245
199 222 244
199 222 242
201 224 249
199 222 242
197 220 236
198 221 238
198 221 241
199 222 244
203 225 253
200 223 248
199 223 248
199 223 250
197 221 244
195 221 250
192 219 255
192 219 255
193 220 255
194 221 255
195 221 255
196 222 255
197 222 255
199 223 255
200 224 255
202 225 255
203 226 255
205 227 255
206 227 255
208 228 254
209 229 253
211 230 255
212 230 255
212 230 255
212 230 255
212 230 255
212 230 255
212 230 255
212 230 255
212 230 255
212 230 255
212 230 255
212 230 255
211 230 255
211 230 255
211 230 255
211 230 255
211 230 255
211 230 255
211 230 255
211 230 255
211 230 255
211 230 255
211 230 255
211 230 255
211 230 255
120 144 194
62 98 164
61 98 164
61 98 167
61 97 159
62 98 162
62 99 169
63 99 168
62 98 158
62 98 163
63 99 165
61 97 162
62 99 167
61 98 162
62 98 160
62 98 160
62 98 161
61 97 160
63 99 166
63 99 170
62 98 156
63 98 163
62 98 158
62 98 163
62 98 158
62 98 161
62 98 163
61 97 156
62 98 157
62 98 159
61 96 150
62 98 160
61 97 157
61 97 162
62 98 165
63 98 163
63 99 163
63 99 163
61 97 157
62 98 161
61 97 156
62 98 165
62 98 157
63 99 163
62 98 164
62 98 156
62 98 161
61 97 160
61 97 156
61 97 160
62 98 167
62 98 163
61 97 159
61 97 155
61 97 158
62 97 158
62 98 164
62 97 161
62 97 158
61 97 158
62 97 159
61 96 156
62 97 164
62 98 166
61 97 162
62 98 165
63 98 168
61 96 161
61 96 158
60 94 150
61 95 150
61 96 163
61 96 161
61 97 165
59 94 158
61 94 155
59 92 145
61 95 157
60 93 156
138 159 196
211 230 255
211 230 255
211 230 255
211 230 255
211 230 255
211 230 255
211 230 255
211 230 255
211 230 255
211 230 255
211 230 255
211 230 255
211 230 255
212 230 255
212 230 255
212 230 255
212 230 255
212 230 255
212 230 255
212 230 255
212 230 255
212 230 255
212 230 255
212 230 255
184 192 196
156 147 93
146 134 80
148 139 88
147 137 85
150 141 91
149 141 93
147 141 92
152 144 91
153 146 95
150 143 93
158 152 99
150 145 96
149 144 94
148 142 92
156 152 100
150 145 97
157 152 99
147 143 94
155 149 96
156 150 97
155 151 100
159 155 102
161 156 103
154 150 99
158 154 101
159 153 101
158 153 100
158 154 102
162 157 104
160 153 98
162 157 103
162 157 102
165 160 104
163 158 104
165 162 106
162 157 101
168 164 107
171 166 107
166 160 104
166 162 106
167 161 103
168 164 107
170 166 108
168 163 106
164 159 103
167 162 103
166 161 103
170 162 102
171 166 106
170 165 106
171 164 105
175 169 111
171 165 103
175 169 108
174 170 110
172 167 107
168 162 105
172 164 104
172 166 107
169 164 104
169 165 106
173 168 107
175 167 106
177 171 110
171 166 107
171 167 109
172 166 103
172 165 106
171 164 103
173 168 107
173 168 107
173 167 106
173 167 103
174 168 106
171 163 102
171 165 101
174 166 105
171 165 102
171 166 105
171 164 101
174 168 106
171 165 104
172 166 102
174 168 105
169 164 104
170 162 98
169 162 97
172 164 100
170 162 101
173 166 104
172 165 100
172 164 101
169 163 102
169 163 98
171 163 100
174 166 102
173 165 101
170 163 97
172 163 100
169 159 98
168 160 96
169 161 96
169 159 96
170 163 103
169 162 97
171 163 99
170 162 100
164 156 92
171 163 97
166 158 96
165 155 91
171 164 99
172 164 102
171 163 100
167 159 95
171 162 100
169 161 94
163 155 92
169 160 98
168 161 92
167 158 94
165 157 91
166 157 94
165 156 91
165 155 90
167 158 94
167 158 97
168 160 94
165 155 91
170 161 96
165 158 95
167 158 99
168 159 94
161 153 88
169 160 96
206 227 255
206 227 255
205 227 255
205 227 255
205 226 255
204 226 255
204 226 255
204 226 255
204 226 255
203 225 255
203 226 254
204 225 250
207 227 252
205 226 246
206 226 246
208 228 253
208 228 254
205 226 244
206 226 246
207 227 250
207 227 248
206 226 246
207 227 249
208 228 250
207 227 249
205 225 240
204 225 240
205 225 245
203 224 237
203 223 237
204 225 240
205 225 245
204 225 240
202 223 238
204 225 242
205 225 244
206 226 248
207 227 248
204 225 240
203 224 241
205 226 244
206 226 249
205 226 245
203 223 236
204 224 241
205 226 248
206 226 246
204 225 241
206 226 245
204 225 242
203 223 244
206 226 248
205 226 245
206 226 245
204 225 250
205 226 245
204 225 244
206 226 252
206 227 252
206 227 249
207 227 250
205 225 244
205 225 241
204 224 241
204 225 245
205 226 245
205 225 241
205 225 246
205 226 245
205 226 248
204 225 245
205 225 248
205 226 249
205 226 248
205 226 246
205 226 250
206 226 246
204 225 248
204 225 245
207 227 252
204 225 246
206 227 252
205 226 245
205 226 249
204 225 249
204 225 245
204 225 244
204 225 249
204 225 246
202 224 246
204 225 245
204 225 244
204 225 248
202 224 242
202 224 248
203 225 244
204 225 245
202 223 238
203 225 246
203 224 246
202 224 246
203 224 244
200 222 240
201 224 245
203 224 245
201 224 244
201 223 245
200 222 240
200 223 242
199 221 237
200 223 242
200 223 241
199 222 241
196 220 238
197 220 233
200 223 246
201 224 252
201 224 248
199 222 245
199 222 246
198 222 246
193 220 252
192 220 255
193 220 255
195 221 255
196 222 255
197 222 255
198 223 255
199 223 255
201 224 255
202 225 255
204 226 255
206 227 255
207 228 255
209 229 253
210 229 253
213 231 254
212 230 255
212 230 255
212 230 255
212 230 255
212 230 255
212 230 255
212 230 255
212 230 255
212 230 255
212 230 255
212 230 255
212 230 255
212 230 255
212 230 255
212 230 255
212 230 255
212 230 255
212 230 255
212 230 255
212 230 255
211 230 255
211 230 255
170 190 226
62 98 166
61 97 164
61 97 155
61 98 162
62 98 167
61 97 158
62 98 161
62 98 164
62 98 163
62 98 159
62 98 161
62 98 164
62 98 156
62 98 162
62 98 161
61 97 154
62 99 162
62 98 161
61 97 159
63 99 166
61 97 152
62 99 168
61 97 156
61 97 154
62 98 159
61 97 154
62 98 158
62 98 161
62 98 157
62 98 160
61 97 157
61 97 158
61 97 152
60 96 147
62 98 164
63 99 163
63 98 160
62 98 160
62 98 156
63 99 163
61 97 154
62 98 160
62 97 158
62 98 160
62 98 160
62 98 160
61 97 156
62 97 155
62 98 159
61 96 154
61 97 157
62 97 154
61 96 160
62 97 154
61 97 153
61 97 158
61 97 158
62 97 161
61 97 155
62 97 159
62 98 160
61 97 165
61 97 153
61 97 155
61 96 149
61 97 158
61 97 160
61 96 156
61 96 161
61 96 153
62 97 161
61 96 160
60 94 155
60 95 156
58 92 145
61 96 161
61 95 160
60 95 165
60 94 161
59 92 152
161 181 216
211 230 255
211 230 255
212 230 255
212 230 255
212 230 255
212 230 255
212 230 255
212 230 255
212 230 255
212 230 255
212 230 255
212 230 255
212 230 255
212 230 255
212 230 255
212 230 255
212 230 255
212 230 255
212 230 255
212 230 255
212 230 255
212 230 255
195 205 214
147 135 82
149 138 87
150 140 87
156 150 99
150 142 91
153 145 94
148 142 93
147 140 90
147 142 94
158 152 100
146 140 90
147 143 96
143 136 88
152 148 96
149 145 97
152 146 96
151 148 98
151 148 99
156 151 101
152 147 97
154 150 101
155 151 101
152 146 95
154 152 101
156 152 99
159 155 103
155 151 99
158 154 100
167 162 106
165 161 107
161 156 101
166 160 104
166 161 106
161 157 104
161 159 105
161 157 103
167 161 107
170 164 107
170 165 107
163 157 100
166 160 101
164 160 103
170 165 108
171 164 107
171 166 107
173 168 108
172 166 107
166 161 106
166 160 102
170 163 102
173 166 107
171 165 106
166 161 104
172 167 108
170 165 102
172 166 104
174 168 107
174 169 108
173 168 109
168 162 101
168 162 104
175 168 104
173 167 106
172 166 103
171 166 105
171 165 105
172 166 105
171 165 105
175 169 107
173 167 104
172 166 103
176 169 107
170 162 99
174 167 105
175 168 106
172 166 104
173 167 105
171 164 102
172 164 101
171 165 103
172 166 101
171 165 103
172 166 105
174 166 102
171 166 102
172 165 102
174 167 103
175 169 109
176 167 104
173 165 98
171 164 104
173 166 103
170 163 97
171 165 105
168 163 98
171 163 100
170 163 100
169 162 101
167 162 99
175 167 105
171 163 98
170 162 98
169 162 95
168 161 98
168 162 97
171 163 97
172 165 102
171 164 98
169 161 97
174 167 102
170 164 99
169 162 97
169 160 95
169 160 95
167 158 97
168 160 97
170 163 96
165 156 96
167 158 94
166 157 89
168 161 94
168 159 97
171 163 99
169 158 95
171 163 97
169 160 98
167 158 93
163 154 90
166 156 94
170 161 96
164 155 91
163 152 89
165 158 97
166 156 92
158 149 87
167 156 95
206 227 255
206 227 255
206 227 255
205 227 255
205 227 255
205 226 255
204 226 255
204 226 255
204 226 255
204 226 253
207 227 250
206 227 249
206 227 250
208 228 252
207 227 249
207 227 249
207 227 248
208 228 254
207 227 248
207 227 249
208 228 253
204 224 240
206 226 244
209 229 254
204 224 242
201 222 234
204 224 237
203 223 237
205 225 241
206 226 246
206 226 244
205 225 240
204 225 240
206 226 248
204 224 241
204 225 240
204 224 246
206 226 244
207 227 248
205 225 242
204 224 242
206 226 245
204 224 242
205 225 241
206 226 248
203 223 242
205 225 242
206 227 248
207 227 246
206 226 249
207 227 248
206 226 249
206 226 246
206 226 245
204 224 241
206 226 248
206 226 246
207 227 250
204 224 240
205 226 244
205 225 240
205 226 246
206 226 244
207 227 248
207 227 250
205 226 248
206 227 250
204 225 248
207 226 248
206 226 246
205 225 242
206 226 248
206 226 248
205 226 246
206 226 245
207 227 249
203 223 241
206 226 246
204 224 240
206 226 248
204 225 242
205 226 248
204 225 245
205 225 244
203 224 244
205 226 249
206 226 249
203 224 238
202 223 237
205 226 249
206 226 249
207 227 253
202 223 241
204 225 244
205 226 249
205 226 252
204 225 248
204 225 249
205 226 250
204 225 242
203 225 246
202 223 241
202 224 242
202 224 245
203 225 249
203 224 244
203 225 250
202 224 242
202 224 245
202 224 249
202 224 246
201 223 244
200 223 241
200 223 241
199 222 240
200 222 241
199 222 242
200 223 248
201 224 250
200 223 248
200 224 249
200 223 250
195 221 255
193 220 255
194 221 255
195 221 255
196 222 255
197 222 255
198 223 255
200 224 255
201 224 255
203 225 255
205 226 255
207 228 255
208 228 255
209 229 254
211 230 252
213 231 255
212 231 255
212 231 255
212 231 255
212 231 255
212 231 255
212 230 255
212 230 255
212 230 255
212 230 255
212 230 255
212 230 255
212 230 255
212 230 255
212 230 255
212 230 255
212 230 255
212 230 255
212 230 255
212 230 255
212 230 255
184 203 236
65 101 169
62 98 164
62 98 165
63 99 171
63 99 172
62 98 157
61 97 158
62 98 164
62 98 163
62 98 156
62 97 159
61 97 155
62 98 158
62 98 159
62 98 157
61 97 154
61 97 153
62 98 163
62 98 157
62 98 160
61 98 158
62 98 160
61 97 152
62 98 162
61 97 155
61 97 159
62 98 158
62 98 161
61 96 151
62 98 165
61 97 156
62 97 154
63 99 162
62 98 157
61 97 152
61 97 155
62 98 157
62 97 158
62 98 159
63 99 160
62 98 163
62 98 155
62 98 159
62 98 161
62 98 156
61 97 156
62 97 155
62 97 156
62 97 152
61 97 152
61 96 151
62 97 154
61 97 157
62 96 154
61 97 155
62 97 155
62 97 156
63 98 162
62 97 159
62 98 162
62 98 156
62 97 152
61 97 157
61 97 160
61 97 155
62 97 163
61 96 157
61 96 154
61 96 155
62 97 158
61 96 157
61 96 161
61 96 156
60 95 153
61 95 153
61 96 159
61 95 156
59 93 146
60 95 159
60 94 153
59 91 151
64 96 156
194 213 243
212 230 255
212 230 255
212 230 255
212 230 255
212 230 255
212 230 255
212 230 255
212 230 255
212 230 255
212 230 255
212 230 255
212 230 255
212 230 255
212 230 255
212 230 255
212 230 255
212 231 255
212 231 255
212 231 255
212 231 255
204 219 239
148 136 80
152 140 87
142 132 82
145 136 87
144 137 89
141 133 87
148 141 92
154 147 94
142 138 93
147 141 92
141 135 88
141 136 90
148 142 92
148 144 96
151 146 96
150 144 95
138 134 90
156 153 102
150 147 98
154 150 99
157 154 102
157 153 102
161 156 103
158 154 100
156 153 101
160 155 101
153 149 98
157 153 101
161 156 102
162 158 103
162 156 100
162 158 103
166 160 103
160 156 102
161 157 102
167 163 106
166 163 105
165 159 104
165 161 105
162 157 104
163 158 101
165 160 105
168 161 104
170 166 106
169 163 104
173 168 109
169 163 104
171 166 107
169 164 105
172 164 103
171 165 106
171 167 108
172 166 107
167 161 103
172 166 106
171 166 104
170 163 104
173 167 106
172 166 103
171 164 106
171 166 104
174 168 106
170 166 103
172 167 107
171 164 102
171 164 104
167 162 101
174 169 107
173 166 105
173 167 107
173 165 102
172 167 106
172 166 103
174 167 105
173 168 103
172 164 101
176 169 106
173 166 103
173 168 105
175 168 105
172 166 102
169 162 97
171 163 102
169 160 100
171 165 100
176 170 107
168 161 100
172 167 102
168 161 100
171 164 101
171 164 102
174 165 102
168 161 98
173 166 100
171 165 100
175 168 104
174 167 102
174 166 101
172 165 101
170 164 98
170 163 99
166 159 96
171 162 98
174 166 100
167 160 93
171 162 101
171 163 100
170 163 99
170 162 96
171 163 97
166 157 93
165 155 91
167 158 95
170 161 98
175 165 100
168 159 94
163 156 91
171 163 97
166 158 91
171 162 100
169 161 95
166 157 96
166 160 97
167 160 95
167 158 90
172 163 99
163 153 90
168 158 93
165 156 93
169 160 95
170 161 98
168 159 94
170 161 94
165 155 89
167 158 94
163 154 91
159 150 86
206 227 255
206 227 255
206 227 255
205 227 255
205 227 255
205 227 255
205 226 255
204 226 255
204 225 253
208 228 253
207 227 250
208 228 250
207 227 246
209 228 250
209 229 253
207 227 250
207 227 246
208 228 249
207 227 248
207 227 248
208 228 253
207 227 250
208 228 253
205 225 242
205 225 244
204 224 234
204 224 242
204 224 238
204 224 238
207 227 248
207 227 249
206 226 246
205 225 242
206 226 244
206 227 246
208 227 249
207 227 248
205 225 245
207 227 248
207 227 249
205 226 242
207 226 244
206 226 241
208 227 245
206 225 242
207 227 246
207 227 245
206 226 244
205 225 242
204 224 241
207 227 244
205 225 242
206 227 248
207 227 248
205 226 244
206 226 246
207 227 249
206 226 244
206 226 248
207 227 249
206 226 246
205 225 244
205 225 248
207 227 248
206 225 246
206 226 249
206 227 249
208 228 249
208 228 254
207 227 248
207 227 249
206 226 246
206 226 246
207 226 245
204 225 244
205 226 246
204 225 246
207 227 248
204 224 238
206 226 248
205 225 248
205 225 242
204 225 248
208 228 255
205 225 245
204 224 240
205 226 244
204 225 244
206 226 245
206 227 249
204 225 244
207 227 250
205 226 248
203 224 240
204 225 249
206 227 249
206 227 252
204 225 242
206 227 252
204 225 246
205 226 248
202 224 244
202 223 242
203 224 245
203 224 244
204 225 248
204 226 249
202 224 242
202 223 244
200 222 236
203 225 246
203 225 249
200 222 244
200 222 238
199 222 238
200 223 242
199 222 241
200 222 240
200 222 241
201 224 248
202 224 253
200 222 245
200 223 249
195 220 252
194 220 255
194 221 255
195 221 255
197 222 255
198 223 255
199 223 255
200 224 255
202 225 255
203 226 255
205 227 255
207 228 255
208 228 255
210 229 253
211 230 253
213 231 255
213 231 255
213 231 255
213 231 255
212 231 255
212 231 255
212 231 255
212 231 255
212 231 255
212 231 255
212 231 255
212 231 255
212 231 255
212 231 255
212 231 255
212 230 255
212 230 255
212 230 255
212 230 255
207 226 252
102 129 186
62 98 163
62 98 167
62 98 163
63 99 168
62 98 161
61 97 161
62 98 162
62 98 163
61 96 153
62 98 159
63 99 168
61 97 151
61 97 156
63 99 165
61 97 159
61 97 160
61 97 149
60 96 147
62 97 155
61 97 157
62 98 164
62 98 160
62 98 159
62 98 163
61 98 158
61 97 152
61 97 156
62 98 159
62 98 158
62 97 156
62 98 159
62 98 163
61 97 157
61 97 156
62 98 161
61 97 154
62 98 160
61 97 151
63 99 161
63 99 163
61 97 156
62 97 158
62 98 161
61 97 156
62 97 151
62 98 163
62 98 163
61 97 156
62 98 158
62 98 159
62 98 167
61 97 154
62 97 160
60 96 155
61 96 147
61 96 150
62 97 155
62 98 164
61 97 158
62 97 158
62 97 159
62 97 158
60 95 151
61 96 159
62 97 154
61 96 156
61 97 159
61 96 152
62 97 159
62 96 158
61 97 160
61 96 158
61 96 156
61 95 155
61 95 152
59 93 154
60 95 152
59 93 148
61 96 161
60 95 155
60 94 156
60 92 149
99 125 177
206 224 250
212 230 255
212 230 255
212 230 255
212 230 255
212 231 255
212 231 255
212 231 255
212 231 255
212 231 255
212 231 255
212 231 255
212 231 255
212 231 255
212 231 255
212 231 255
213 231 255
213 231 255
213 231 255
207 223 243
154 146 114
147 135 80
149 138 87
140 129 80
143 133 85
147 141 93
150 142 91
142 135 88
142 139 92
142 137 91
140 138 92
143 138 93
146 141 94
149 141 90
143 139 93
148 143 96
156 150 97
148 143 95
154 150 99
153 148 98
159 157 104
156 151 97
160 156 102
157 153 100
151 147 97
155 152 99
157 151 99
159 155 102
156 153 101
157 152 100
164 161 105
161 156 102
162 155 99
167 162 104
164 161 104
162 159 103
160 156 101
162 159 106
164 159 102
167 162 105
168 162 104
164 159 103
168 164 106
161 155 98
167 161 102
165 160 103
171 166 106
170 164 105
167 161 103
174 167 108
167 161 102
170 164 103
170 165 106
167 160 97
169 165 106
173 169 110
171 166 103
170 165 107
174 168 107
172 166 105
174 168 105
166 159 100
173 167 107
175 169 109
173 168 105
169 164 102
173 168 105
175 168 105
173 168 107
171 165 102
170 164 98
173 166 102
174 168 104
174 168 105
173 167 103
172 165 101
172 166 103
168 161 98
172 166 104
172 165 101
173 166 103
171 164 102
172 165 103
174 167 102
173 166 104
170 163 104
171 163 99
170 164 103
174 168 103
176 169 107
168 162 101
173 167 103
172 164 97
173 166 100
168 161 96
169 163 105
173 164 102
168 161 97
175 168 102
168 161 96
171 164 102
172 166 101
169 162 98
171 163 99
170 164 101
169 161 95
173 164 101
169 161 95
164 156 96
173 165 100
173 165 99
168 160 95
169 160 98
171 162 99
175 167 104
169 160 94
170 161 97
167 161 99
163 153 92
170 161 94
170 163 100
166 155 88
169 161 95
169 160 91
164 155 88
168 160 96
165 156 90
167 158 91
169 159 95
167 158 91
164 156 89
166 157 96
163 153 89
166 156 92
168 159 92
164 154 90
169 159 92
167 158 92
207 227 255
206 227 255
206 227 255
206 227 255
206 227 255
205 227 255
205 227 255
207 228 255
209 228 252
208 228 250
209 228 252
208 227 246
207 227 245
207 227 249
207 227 248
206 226 241
207 227 248
209 228 248
209 228 253
209 228 252
209 228 250
208 227 246
204 224 237
204 224 237
205 225 240
207 226 244
206 226 245
208 228 249
207 227 248
207 227 246
206 226 246
204 224 237
207 227 248
206 226 248
207 227 250
207 227 248
206 225 242
207 227 245
206 226 245
206 225 245
207 227 246
207 227 246
206 226 245
207 227 245
206 225 241
208 228 248
208 228 249
205 225 240
203 223 240
207 226 246
205 225 242
207 226 246
207 226 248
207 227 249
207 227 249
207 227 245
206 226 246
206 226 245
209 228 250
208 228 250
207 227 249
207 227 246
206 226 246
205 225 241
208 227 250
207 227 250
204 224 242
205 225 246
207 226 245
207 227 249
208 227 249
205 224 245
209 228 253
205 225 244
204 224 242
205 225 245
207 227 246
208 228 252
206 226 244
207 227 249
207 227 249
205 225 244
206 226 244
204 224 244
204 225 245
207 227 249
206 226 249
205 225 240
205 225 242
206 226 249
208 228 252
207 227 249
206 227 246
205 226 245
204 225 244
205 225 248
205 226 249
204 225 242
203 224 241
206 227 250
203 224 242
203 224 242
206 227 252
204 225 246
202 224 242
205 226 252
204 226 249
202 224 245
203 225 245
204 226 249
203 225 246
204 226 252
203 224 246
199 221 233
202 223 240
200 223 242
201 223 242
199 222 237
199 222 241
200 222 237
201 223 246
202 224 250
201 223 245
198 222 242
199 223 254
194 221 255
195 221 255
196 222 255
197 222 255
199 223 255
200 224 255
201 224 255
202 225 255
204 226 255
206 227 255
207 228 255
210 229 255
210 229 252
212 231 255
213 231 255
213 231 255
213 231 255
213 231 255
213 231 255
213 231 255
213 231 255
213 231 255
213 231 255
213 231 255
213 231 255
213 231 255
213 231 255
212 231 255
212 231 255
212 231 255
212 231 255
212 231 255
140 162 201
62 97 164
62 97 158
62 98 157
62 98 165
61 97 152
60 96 153
62 98 165
62 98 158
62 98 162
62 98 155
62 98 160
61 97 153
62 98 156
61 97 157
62 98 159
62 98 159
61 96 153
62 98 160
61 97 157
61 97 156
62 97 152
62 97 153
61 97 155
62 98 157
62 99 165
62 98 154
61 97 156
62 98 159
62 98 158
63 99 164
62 97 154
61 97 154
61 97 155
61 97 149
61 97 154
62 98 161
62 97 153
62 98 157
62 98 161
62 98 157
62 98 158
62 98 162
62 99 163
61 96 150
61 97 153
62 98 157
62 98 162
61 97 151
62 98 162
61 97 154
62 97 158
61 96 154
61 97 162
61 96 152
61 97 159
62 98 163
62 98 159
62 97 156
61 96 151
61 96 149
61 96 152
61 96 157
61 96 151
62 98 162
62 97 155
62 97 163
61 96 148
62 96 152
62 97 163
62 97 163
62 98 161
61 96 155
59 93 143
60 95 161
60 94 148
60 94 150
61 96 158
61 96 157
61 94 153
60 93 153
58 91 142
62 97 167
61 95 154
59 92 149
121 143 185
212 231 255
212 231 255
212 231 255
212 231 255
212 231 255
213 231 255
213 231 255
213 231 255
213 231 255
213 231 255
213 231 255
213 231 255
213 231 255
213 231 255
213 231 255
213 231 255
213 231 255
211 228 252
166 164 143
144 137 88
141 134 84
150 142 92
148 141 91
141 134 85
141 133 85
146 140 91
142 138 92
144 138 90
144 136 88
134 130 88
146 142 94
142 136 90
150 145 95
145 142 95
155 150 98
153 150 101
142 138 91
152 146 96
152 149 99
153 148 99
152 147 97
153 148 97
154 151 101
151 147 96
162 158 103
161 155 98
164 160 106
160 157 103
166 161 104
166 161 106
160 155 101
165 159 104
162 157 103
166 162 106
166 161 104
169 164 105
164 160 105
158 155 102
165 161 103
164 160 102
165 158 101
166 162 104
165 160 102
171 166 105
170 166 108
166 161 102
169 164 106
171 167 108
173 168 107
169 165 105
167 163 102
173 168 107
174 168 103
171 166 106
168 163 106
172 166 103
167 161 102
171 165 103
169 164 100
174 169 105
174 168 107
174 168 107
175 168 103
171 165 103
172 165 100
173 167 106
173 169 108
177 170 108
175 169 105
178 172 110
174 168 105
175 169 106
169 164 102
171 165 100
171 165 102
171 166 103
172 165 102
175 168 105
174 168 104
177 171 108
171 163 101
177 170 106
176 169 105
171 163 102
173 165 101
169 163 101
173 167 100
173 167 102
173 164 101
174 167 102
176 169 105
172 165 101
171 163 100
174 167 104
168 161 97
170 163 99
170 161 97
170 163 98
171 165 99
173 165 101
171 163 100
173 165 103
165 158 93
168 162 95
169 162 99
176 166 102
167 160 96
170 161 94
172 164 99
167 159 95
171 164 100
171 164 96
168 160 96
167 160 94
170 161 98
164 155 92
168 159 97
167 159 91
172 164 103
168 158 95
169 161 93
169 160 98
165 157 95
164 156 89
165 157 96
170 160 94
169 160 95
171 162 95
166 156 93
167 159 94
166 157 94
168 159 95
171 160 95
166 158 91
164 154 87
171 161 95
162 154 88
207 228 255
207 227 255
206 227 255
206 227 255
206 227 255
206 227 255
207 228 253
208 227 250
209 228 250
209 228 249
208 228 250
209 229 253
208 228 249
207 227 245
209 228 248
208 227 246
209 228 249
209 228 249
209 228 252
209 228 252
208 227 246
206 226 241
207 227 245
206 226 245
206 226 241
207 226 242
205 225 238
208 228 249
206 226 244
208 227 245
202 222 227
207 227 248
206 226 245
207 226 244
205 225 242
208 227 246
208 227 249
208 227 246
207 226 242
209 228 252
207 227 242
207 226 246
209 228 250
209 228 248
208 227 246
207 227 245
207 226 246
206 225 238
207 227 249
207 227 245
208 227 249
208 228 252
206 226 241
206 226 246
207 227 250
207 226 246
207 226 245
208 227 246
210 229 253
207 226 242
207 227 248
207 226 245
207 227 246
206 226 244
207 226 241
209 228 249
205 225 238
207 227 248
205 225 240
207 227 245
208 227 249
206 226 245
208 227 248
207 227 245
207 227 246
205 225 242
207 226 246
206 226 246
206 226 246
205 225 241
205 225 246
207 227 248
206 226 248
208 228 253
204 224 241
204 224 244
207 227 249
205 225 246
206 226 244
207 227 248
206 226 248
205 225 244
206 226 244
207 226 245
206 226 250
206 227 248
204 224 240
207 227 249
205 225 245
206 226 246
207 227 252
205 225 248
206 226 248
206 226 246
205 226 248
204 225 248
205 226 245
204 225 246
204 225 246
204 225 249
205 226 249
204 225 246
202 224 242
203 225 245
203 224 246
202 224 245
202 224 246
199 222 236
200 222 237
200 222 241
202 223 241
204 226 253
202 224 244
199 222 240
201 224 249
200 223 253
195 221 255
196 222 255
197 222 255
199 223 255
199 224 255
201 224 255
202 225 255
204 226 255
205 226 255
207 227 255
209 229 255
210 229 255
210 229 252
213 231 255
213 231 255
213 231 255
213 231 255
213 231 255
213 231 255
213 231 255
213 231 255
213 231 255
213 231 255
213 231 255
213 231 255
213 231 255
213 231 255
213 231 255
213 231 255
213 231 255
188 207 237
65 100 166
62 98 161
61 97 161
62 98 163
62 99 168
62 98 161
62 98 160
61 96 155
62 98 167
62 98 164
61 97 155
62 98 168
62 98 163
60 96 153
61 97 154
61 97 157
61 97 156
62 98 161
62 97 156
61 98 158
62 98 161
62 98 161
61 97 153
62 98 160
62 98 159
62 99 164
62 98 160
61 97 150
61 97 154
63 99 163
62 97 151
62 98 165
61 97 155
62 98 154
62 98 159
62 98 156
63 99 167
62 98 154
62 97 154
62 98 159
62 98 158
62 97 157
62 98 160
62 98 159
61 97 158
61 96 153
62 98 159
61 97 157
61 97 152
62 98 159
61 96 147
61 97 155
61 96 149
61 97 154
62 98 162
62 97 156
61 97 153
62 98 154
62 97 157
61 96 153
61 97 155
62 97 158
61 96 153
61 96 148
61 97 153
61 98 161
61 96 155
61 96 154
60 95 152
61 95 155
61 96 153
61 97 154
61 95 151
61 95 148
60 94 145
61 96 155
61 96 157
59 94 156
60 94 146
60 94 158
61 94 150
60 94 148
61 95 157
61 95 159
59 92 148
60 93 153
191 209 236
213 231 255
213 231 255
213 231 255
213 231 255
213 231 255
213 231 255
213 231 255
213 231 255
213 231 255
213 231 255
213 231 255
213 231 255
213 231 255
213 231 255
213 231 255
213 231 255
183 189 191
152 140 87
142 131 80
138 129 84
138 130 82
143 136 88
137 131 86
139 132 87
139 133 88
142 136 89
142 136 89
142 135 88
148 143 95
145 140 93
148 143 95
146 141 94
138 135 91
153 150 101
150 148 100
149 144 94
151 148 100
156 153 101
155 151 99
155 150 97
156 152 100
156 152 101
156 152 98
154 149 97
158 153 99
152 149 97
161 157 102
164 160 106
161 156 101
162 160 104
159 154 99
164 159 104
161 157 101
161 154 98
163 160 105
167 163 104
165 161 105
165 159 103
168 164 104
165 162 106
169 164 105
166 160 100
164 161 101
168 162 102
167 160 99
168 163 104
166 161 102
169 163 103
168 163 105
172 166 105
172 165 103
173 167 106
167 162 100
169 164 103
175 168 107
172 167 106
171 165 102
170 164 103
172 165 104
172 167 106
174 167 104
173 166 102
172 165 104
169 164 101
171 164 101
172 166 104
170 165 102
172 165 102
174 168 107
171 164 103
177 170 107
174 168 107
172 165 103
169 162 97
172 165 100
172 165 99
170 164 97
175 169 105
177 169 105
173 166 101
173 165 101
174 168 102
171 165 99
174 168 106
173 167 104
171 164 101
169 163 99
173 168 104
171 164 100
175 168 104
168 162 96
170 163 97
172 163 99
174 167 100
172 164 98
173 165 98
169 162 97
173 166 102
170 162 99
169 162 97
171 164 97
170 163 98
169 159 95
172 165 102
168 162 98
170 163 96
170 165 98
173 165 100
174 165 100
169 163 100
171 164 99
168 162 96
168 161 97
173 164 96
169 160 92
170 160 96
169 161 95
167 159 95
168 161 96
174 166 101
173 166 97
168 161 96
169 161 93
168 160 94
168 160 95
168 159 92
164 154 88
171 161 95
167 156 93
170 162 91
169 160 93
165 157 92
163 155 89
162 152 86
168 159 94
169 159 92
207 228 255
207 228 255
207 227 255
207 227 255
206 227 255
208 228 255
209 228 252
209 228 250
209 228 249
209 228 250
209 228 250
209 228 249
208 227 245
209 228 246
208 227 246
208 227 246
210 229 250
209 228 249
210 229 252
208 227 244
207 226 242
206 226 240
206 225 238
206 225 244
206 226 242
207 226 242
207 226 244
207 226 244
207 226 241
208 227 245
207 226 246
207 226 244
205 225 241
207 226 242
205 225 237
208 227 249
208 227 246
209 228 249
209 228 248
208 228 246
210 229 250
207 226 246
209 228 248
207 226 244
206 225 240
206 226 242
209 228 248
207 227 246
210 229 253
209 228 250
208 227 249
210 229 252
208 227 245
207 227 246
206 225 242
206 226 242
209 228 249
209 228 250
204 225 245
207 227 244
209 228 252
206 226 250
209 228 248
206 226 244
208 227 250
207 226 246
207 226 244
206 225 246
208 227 249
209 228 250
206 226 245
207 226 246
207 227 249
208 228 249
207 226 246
210 229 253
207 226 244
208 228 253
207 226 246
207 226 246
207 227 245
206 226 244
208 227 250
207 226 244
207 227 250
206 225 245
206 226 246
208 228 249
205 225 240
207 227 248
207 227 254
204 224 241
207 227 246
209 228 250
208 228 253
205 225 241
206 226 245
206 226 248
208 227 248
204 225 241
207 227 248
206 227 249
207 227 252
206 227 250
205 226 245
204 225 241
206 226 248
205 226 245
205 226 244
205 226 246
205 225 246
204 225 245
202 223 240
205 226 252
204 225 246
203 225 249
203 224 241
203 225 245
202 224 244
200 223 240
202 224 248
201 223 240
201 223 241
204 225 249
201 224 248
201 224 245
200 224 255
196 222 255
197 222 255
198 223 255
199 223 255
200 224 255
202 225 255
203 225 255
204 226 255
205 227 255
208 228 255
209 229 255
211 230 255
212 231 254
213 231 255
213 231 255
213 231 255
213 231 255
213 231 255
213 231 255
213 231 255
213 231 255
213 231 255
213 231 255
213 231 255
213 231 255
213 231 255
213 231 255
213 231 255
211 229 254
82 112 172
61 97 160
62 98 159
61 97 155
62 98 163
61 97 160
61 96 152
60 95 150
62 98 164
62 98 158
61 97 153
61 97 150
61 97 157
61 97 155
61 97 151
61 97 158
62 98 155
61 96 153
62 98 158
62 98 161
61 97 154
62 98 152
62 98 156
61 96 152
61 97 154
62 98 162
62 98 156
62 97 154
62 97 158
62 97 155
62 98 154
61 97 156
62 98 162
63 99 164
62 97 157
61 97 147
61 96 150
62 97 157
62 98 163
63 99 165
61 97 154
61 97 149
62 98 160
62 98 158
61 97 154
62 98 159
62 98 164
62 98 158
62 98 156
61 96 150
62 98 158
62 97 156
61 97 158
61 97 153
62 98 161
62 98 160
62 97 155
60 95 141
61 97 157
62 97 157
61 97 153
62 98 159
61 96 152
61 97 152
62 98 161
61 95 153
62 97 159
62 97 161
61 96 155
61 96 156
61 96 152
60 95 148
61 96 155
62 97 164
60 94 151
61 95 149
61 96 156
61 96 156
61 96 161
60 94 146
59 93 150
60 93 152
60 94 148
59 93 156
58 92 149
58 90 147
58 91 148
89 113 160
207 225 250
213 231 255
213 231 255
213 231 255
213 231 255
213 231 255
213 231 255
213 231 255
213 231 255
213 231 255
213 231 255
213 231 255
213 231 255
213 231 255
213 231 255
201 214 228
155 144 93
145 134 79
138 129 83
143 136 87
145 137 88
135 130 87
139 131 84
141 133 85
136 132 88
145 143 96
142 138 92
141 138 92
143 140 94
141 138 91
149 144 95
139 134 89
143 141 95
151 146 97
138 135 91
156 153 100
151 149 99
144 142 94
154 149 97
154 151 99
161 156 102
160 153 99
157 153 101
153 150 100
154 149 97
160 156 101
161 157 103
164 160 105
167 163 108
157 153 98
167 162 104
164 159 102
164 159 104
161 156 100
168 163 104
166 162 103
165 159 101
167 162 104
170 165 108
168 164 105
167 161 101
168 163 106
171 167 107
168 164 105
169 164 105
173 167 105
166 161 101
170 165 104
171 166 105
170 164 104
171 166 105
175 169 107
171 165 102
172 165 105
172 166 106
171 165 104
173 167 105
174 168 105
166 162 99
175 169 109
172 165 103
175 168 105
172 166 101
173 167 106
175 169 106
170 165 101
174 169 105
173 168 105
171 165 100
173 167 104
173 167 106
172 166 98
171 165 102
171 164 101
175 168 104
173 166 102
174 166 100
175 168 103
171 165 102
177 170 108
168 161 99
172 165 100
174 168 103
176 169 104
171 165 98
175 168 102
173 165 101
173 166 100
170 163 98
172 166 103
174 166 101
174 168 103
170 162 97
173 165 100
169 161 97
172 164 101
173 165 100
175 169 103
171 164 101
173 167 103
168 161 98
167 159 92
170 163 103
167 161 96
165 159 96
171 165 97
174 166 99
168 160 96
175 167 102
167 161 93
175 166 101
168 158 92
171 163 95
168 159 91
168 159 92
172 165 93
172 163 96
166 156 88
170 160 92
164 156 90
169 159 91
171 163 97
165 156 91
166 157 94
171 162 94
168 160 93
168 159 95
168 159 93
166 159 93
169 161 93
167 157 89
165 157 90
167 159 92
160 151 86
169 160 90
165 158 89
208 228 255
207 228 255
207 228 255
207 228 255
207 227 248
210 229 254
209 228 249
209 228 249
210 229 253
210 229 250
210 228 246
211 229 250
210 229 250
211 229 250
210 229 252
209 228 252
207 227 245
209 228 245
208 228 246
203 223 227
205 225 237
206 226 240
208 227 245
207 226 242
208 227 245
207 227 245
210 229 250
207 226 241
210 229 252
208 228 246
207 226 242
206 225 241
207 226 241
209 228 249
207 226 245
208 227 246
207 226 246
208 228 250
208 227 245
207 226 240
209 228 249
209 228 245
207 226 241
208 227 248
210 229 252
208 228 246
207 226 240
207 226 242
209 228 248
210 229 250
209 228 249
208 228 245
207 227 249
207 226 245
210 229 252
206 225 240
207 227 245
207 227 244
208 227 242
208 228 250
207 226 245
210 229 250
208 228 250
209 228 250
207 227 245
208 227 245
206 225 246
210 229 252
207 227 248
209 228 250
208 227 245
208 228 248
208 227 249
208 227 248
207 226 245
211 230 254
209 228 250
207 227 249
208 227 246
207 226 249
209 228 250
207 226 246
208 227 248
206 226 244
206 226 244
208 227 248
208 227 248
207 227 250
207 227 248
209 228 249
209 228 250
206 226 244
208 228 248
206 226 248
208 228 252
205 225 241
209 228 252
208 228 253
206 226 248
206 226 244
207 227 248
205 225 245
206 226 245
206 227 248
206 226 245
207 227 248
206 226 246
205 226 246
205 226 246
204 225 245
205 225 242
205 226 246
204 225 244
205 226 246
204 225 246
202 223 241
205 226 248
203 225 246
204 225 245
201 223 238
202 224 241
200 223 238
202 224 242
204 226 254
203 225 250
203 225 250
203 225 253
200 223 252
197 222 255
198 223 255
199 223 255
200 224 255
202 225 255
202 225 255
204 226 255
205 227 255
207 228 255
208 228 255
211 230 255
212 230 255
213 231 254
214 231 255
214 231 255
214 231 255
214 231 255
214 231 255
214 231 255
213 231 255
213 231 255
213 231 255
213 231 255
213 231 255
213 231 255
213 231 255
213 231 255
158 179 216
61 97 155
62 98 159
61 97 149
62 98 160
62 99 166
61 97 161
63 99 165
62 97 156
62 98 160
62 98 164
62 97 159
61 97 157
61 97 159
63 98 162
62 97 152
62 97 152
62 98 155
62 97 157
63 98 159
62 98 154
62 98 160
61 96 148
61 97 155
61 97 154
61 97 153
63 99 160
62 97 153
63 98 162
62 97 155
61 98 158
62 98 160
61 97 152
61 97 154
62 97 157
62 98 158
62 97 151
63 98 159
61 97 158
62 98 165
61 97 160
62 97 156
62 97 153
60 96 147
62 98 155
63 98 162
61 97 154
62 97 156
61 96 154
63 99 164
60 96 148
62 98 155
61 97 154
61 96 152
61 96 148
61 96 154
61 96 148
60 95 151
61 97 156
61 97 159
61 97 155
61 96 155
62 98 162
62 97 159
60 95 145
62 97 161
60 95 148
61 97 159
61 97 155
61 96 150
61 96 156
61 95 153
60 94 149
61 95 150
62 97 158
61 96 151
61 96 157
61 95 151
61 95 152
62 97 160
60 94 153
61 94 154
60 93 152
59 91 140
60 94 150
59 91 138
58 89 142
59 91 145
58 91 146
161 180 208
213 231 255
213 231 255
213 231 255
213 231 255
213 231 255
213 231 255
213 231 255
214 231 255
214 231 255
214 231 255
214 231 255
214 231 255
214 231 255
210 227 251
152 147 117
147 138 85
135 126 80
139 129 81
134 125 80
141 135 88
141 133 85
141 136 90
140 135 90
142 140 95
136 133 89
139 134 89
131 127 84
146 143 97
148 143 93
142 138 93
139 134 88
148 143 95
148 144 95
152 147 97
146 143 95
142 137 90
148 143 93
152 148 98
150 146 96
152 149 99
148 145 95
153 148 95
155 151 97
158 153 98
156 152 101
161 156 102
163 157 101
154 150 96
164 161 105
161 156 102
153 150 98
159 154 99
165 160 100
172 166 107
170 165 103
162 159 102
163 157 99
166 160 103
167 163 105
165 160 101
163 160 102
169 164 106
168 165 105
171 164 103
170 165 105
166 160 100
171 166 106
172 166 107
171 165 106
173 167 104
170 163 101
174 168 105
171 167 105
171 166 103
172 166 104
170 165 102
171 166 103
175 168 106
175 168 103
174 168 104
173 168 106
171 166 100
171 166 104
175 169 102
173 168 105
175 170 105
173 166 103
174 167 100
177 171 108
175 170 107
172 166 100
173 165 103
174 167 103
172 167 98
172 165 98
174 167 102
174 169 106
175 168 104
173 166 99
173 167 101
172 167 104
173 167 103
175 168 101
175 167 102
171 165 97
171 164 100
172 166 102
172 166 99
173 166 100
174 168 104
175 167 102
173 167 100
174 167 102
172 165 95
175 167 102
169 163 98
174 166 100
172 163 97
171 164 100
167 160 96
170 162 97
175 169 105
172 165 97
171 163 96
167 159 96
173 165 99
171 163 97
168 160 95
173 164 99
169 160 92
169 162 93
169 162 95
171 163 95
167 158 97
167 158 94
165 156 92
169 160 91
172 164 97
170 162 92
167 160 95
169 161 96
170 161 97
171 162 97
168 158 91
168 158 92
163 154 91
168 159 95
170 161 94
169 161 94
172 162 96
166 156 92
169 160 94
161 151 79
161 153 90
162 151 86
208 228 255
208 228 255
208 228 255
209 229 255
210 229 253
209 228 247
211 230 255
211 229 252
212 230 255
211 230 253
209 228 249
210 229 249
210 228 246
210 229 253
211 229 250
210 228 248
210 229 249
209 228 246
207 226 240
208 228 246
208 227 244
207 227 244
208 227 245
207 226 241
209 228 245
208 227 242
208 227 245
209 228 250
210 228 248
207 226 240
208 227 246
208 227 244
211 229 252
208 227 248
209 227 248
209 228 246
209 228 248
208 227 244
207 226 242
211 229 250
207 227 241
209 228 246
208 227 248
210 228 248
209 228 249
207 226 238
210 229 248
208 226 242
209 228 245
210 229 250
209 228 253
208 227 245
210 229 252
210 229 252
208 227 246
209 228 244
209 228 245
209 228 249
209 228 249
207 226 245
207 226 242
206 225 244
211 230 254
207 226 246
210 229 248
208 227 248
209 228 249
209 228 250
208 227 250
209 228 248
209 228 250
208 228 248
209 228 248
206 225 242
207 227 245
208 228 248
205 225 240
205 225 241
208 227 250
206 226 240
209 228 249
208 227 245
209 229 252
209 228 248
208 227 246
207 226 246
205 225 240
208 228 248
206 226 245
210 229 250
209 228 250
208 228 250
205 225 244
207 227 250
206 225 240
204 224 237
208 228 250
207 227 250
209 229 252
209 228 250
206 226 246
206 226 246
207 227 248
206 226 249
207 227 250
207 227 246
207 227 246
207 227 249
205 226 242
206 226 245
205 225 244
207 227 250
205 225 242
205 225 244
206 226 248
203 223 234
203 224 240
204 225 244
204 225 248
204 225 246
203 224 242
204 225 246
201 223 240
203 225 245
205 226 246
206 227 253
202 224 246
202 225 249
202 225 254
198 223 255
199 223 255
200 224 255
201 224 255
202 225 255
204 226 255
205 226 255
206 227 255
208 228 255
209 228 255
210 230 255
212 230 253
213 231 255
214 231 255
214 231 255
214 231 255
214 231 255
214 231 255
214 231 255
214 231 255
214 231 255
214 231 255
214 231 255
214 231 255
214 231 255
196 215 243
68 102 162
62 98 165
61 97 159
61 97 160
61 96 153
62 97 151
61 97 156
61 96 150
62 97 156
61 97 154
63 99 168
61 97 151
61 97 157
62 97 159
62 97 149
61 97 157
62 97 159
62 98 158
62 98 157
62 98 160
62 98 158
61 97 153
61 97 152
62 97 157
62 98 156
61 97 151
61 96 154
62 97 155
61 96 148
62 98 159
61 97 152
61 97 153
61 97 150
61 96 151
62 98 156
61 97 151
62 97 159
62 98 160
61 97 158
61 97 153
62 98 156
62 98 159
62 97 155
62 98 152
62 97 152
61 97 152
62 98 158
62 98 153
62 98 156
61 96 148
63 99 161
62 98 154
61 97 151
61 97 152
60 96 144
62 97 151
61 97 151
62 98 164
61 96 150
61 96 152
61 97 149
61 96 151
61 96 155
62 97 159
62 98 159
61 96 147
62 97 162
60 95 153
61 97 158
62 97 154
61 95 143
61 97 157
61 96 150
61 95 150
61 96 151
61 95 151
60 93 148
61 95 155
59 94 144
59 93 141
61 95 153
61 94 150
62 96 162
60 94 152
59 92 151
61 95 159
60 94 148
58 90 147
59 91 147
68 97 151
194 212 240
214 231 255
214 231 255
214 231 255
214 231 255
214 231 255
214 231 255
214 231 255
214 231 255
214 231 255
214 231 255
214 231 255
214 231 255
182 187 187
149 139 85
141 130 81
142 131 81
140 134 88
127 122 80
143 138 93
132 126 83
132 127 85
134 130 87
138 135 91
132 128 86
146 143 97
143 140 94
148 142 92
141 137 91
143 139 92
144 140 93
146 143 96
145 142 93
149 144 95
140 137 92
148 145 94
156 152 100
148 144 95
149 145 97
154 151 99
160 156 100
163 157 101
156 154 99
156 153 99
162 158 101
159 154 101
161 157 101
160 156 102
158 153 97
167 162 102
158 152 96
160 154 98
167 162 103
166 161 100
164 160 103
166 162 103
168 163 103
169 164 104
165 158 100
169 163 102
167 162 103
166 161 102
162 158 99
172 166 102
171 165 103
165 161 100
171 165 103
174 168 104
172 166 106
168 164 103
175 169 106
171 165 104
172 167 105
173 167 106
171 165 102
173 166 101
171 164 100
172 167 104
173 168 104
172 166 105
170 165 102
173 166 103
175 168 102
176 169 106
175 169 103
173 167 103
171 165 100
176 171 108
175 168 104
172 165 100
173 168 102
175 169 105
173 167 103
175 169 103
175 167 102
177 171 108
172 165 96
172 166 101
175 168 100
172 163 97
171 164 99
175 167 103
172 164 102
171 164 102
171 165 100
170 163 99
172 165 101
173 166 99
172 165 99
177 170 102
174 165 99
170 163 101
175 166 101
172 166 103
168 161 94
168 161 98
167 160 92
171 162 93
174 166 101
170 162 98
172 165 97
172 164 97
170 163 95
174 165 100
172 166 101
172 163 98
171 164 95
174 166 98
170 161 94
169 160 95
167 161 98
169 158 91
168 160 95
167 159 94
169 162 95
172 163 93
171 164 97
167 158 93
166 157 91
171 163 101
168 160 94
172 163 97
166 158 91
169 161 95
169 160 92
165 155 89
166 158 92
164 155 91
164 155 88
166 155 86
166 156 89
166 156 90
165 154 88
170 161 93
161 154 85
208 228 255
208 228 255
208 228 252
210 228 250
210 229 252
209 228 248
211 230 253
211 229 252
211 230 252
209 228 246
211 229 248
210 229 252
210 229 246
209 228 248
211 229 249
210 229 250
209 228 244
208 227 241
209 228 246
208 227 242
207 227 241
210 228 248
209 228 246
207 226 237
208 227 241
209 228 245
209 228 248
205 223 237
210 228 250
210 228 250
209 228 248
209 228 245
209 227 244
209 228 249
209 228 245
209 227 248
208 227 244
209 228 248
210 229 249
210 229 250
208 227 244
211 229 252
209 227 245
209 227 245
212 230 253
209 228 244
210 228 249
208 227 244
208 226 242
210 228 246
209 228 246
208 227 242
211 230 252
208 227 244
210 229 250
209 227 245
210 228 248
209 228 248
208 227 248
211 229 250
206 225 246
211 230 253
210 229 249
208 227 242
209 228 244
209 227 250
210 229 250
209 228 245
209 228 249
210 229 250
208 227 246
208 226 245
209 228 246
208 227 244
207 226 244
208 227 245
210 229 250
205 224 244
208 227 245
207 226 245
210 229 252
210 229 253
209 228 249
209 228 249
208 227 244
208 227 245
208 227 245
207 227 242
208 227 245
208 227 241
207 226 245
208 227 248
208 227 249
207 226 246
208 227 246
208 228 248
209 228 249
208 228 246
207 226 248
209 228 253
206 226 244
208 227 252
209 228 249
207 227 245
208 227 249
206 226 242
208 228 252
206 226 249
207 227 248
206 226 242
206 226 246
207 227 249
207 227 250
207 227 248
204 225 240
205 226 244
208 228 252
205 225 245
204 225 242
204 225 244
204 225 242
204 225 245
203 224 244
202 224 241
204 225 244
205 226 249
204 225 248
203 225 246
204 225 250
200 223 253
199 223 255
200 224 255
201 224 255
202 225 255
203 225 255
204 226 255
206 227 255
207 228 255
209 229 255
211 230 255
212 230 254
214 231 255
214 232 255
214 232 255
214 232 255
214 232 255
214 232 255
214 232 255
214 232 255
214 232 255
214 232 255
214 231 255
214 231 255
214 231 255
135 157 194
62 98 163
62 98 162
62 97 156
60 96 148
62 97 158
61 97 157
62 98 157
62 98 161
61 97 157
61 97 158
62 98 159
61 97 153
62 98 161
62 97 155
62 97 157
62 98 151
61 97 152
61 97 154
61 97 151
62 97 155
62 98 154
61 96 145
60 96 149
62 98 152
61 97 153
61 97 152
61 97 154
61 97 157
61 97 153
61 96 149
62 98 160
61 97 153
61 96 145
62 97 155
62 97 156
61 97 152
62 98 159
61 97 154
61 97 145
61 97 152
62 98 161
62 97 155
62 98 155
62 97 156
62 98 152
60 96 152
61 96 152
62 98 154
61 97 152
61 96 146
61 96 145
61 96 149
62 97 152
61 96 148
61 96 147
60 95 150
62 98 160
59 95 146
61 97 152
62 97 155
61 96 151
60 95 151
62 98 160
63 98 158
61 96 151
62 97 161
62 97 165
62 96 153
61 96 149
60 95 144
61 96 152
61 95 147
61 96 148
61 96 157
59 94 144
61 96 152
61 97 160
60 94 148
61 95 151
61 96 156
59 92 142
59 92 147
60 94 147
60 94 151
58 91 136
58 91 144
58 91 144
58 90 144
58 91 145
57 89 149
135 154 190
214 231 255
214 231 255
214 231 255
214 231 255
214 232 255
214 232 255
214 232 255
214 232 255
214 232 255
214 232 255
214 232 255
202 215 231
146 136 85
137 128 79
144 136 86
136 127 79
137 127 79
130 127 87
134 130 88
128 123 81
129 126 84
136 132 88
142 138 91
136 133 88
131 129 87
139 135 90
144 140 93
140 138 92
139 136 91
138 134 86
139 136 89
141 138 91
143 139 93
140 137 93
145 143 95
141 137 91
144 140 94
150 146 96
149 146 98
153 151 99
157 154 102
157 152 100
155 150 97
155 151 97
157 151 97
159 154 98
156 152 96
153 150 99
164 160 103
165 160 104
165 162 103
165 161 105
163 159 103
164 159 100
170 164 103
166 162 103
168 164 106
166 160 101
168 162 102
173 168 105
167 163 105
171 165 103
167 162 101
170 165 104
170 165 102
170 165 105
171 166 103
173 168 106
172 166 102
176 169 105
175 169 105
172 167 105
169 163 102
174 168 105
171 165 100
171 165 101
167 162 96
172 167 103
174 168 102
171 166 98
175 168 102
173 166 104
171 164 97
173 167 103
173 167 101
174 167 102
174 167 102
173 166 103
173 166 102
175 168 105
175 169 103
178 172 108
174 168 102
174 167 100
174 167 99
175 168 101
171 164 97
174 167 104
173 167 99
173 167 102
173 166 97
173 166 99
173 165 98
171 165 103
174 166 98
172 165 101
173 165 98
175 167 99
172 164 95
174 166 100
173 167 101
172 165 98
172 166 99
169 161 95
168 161 95
170 162 98
172 167 102
174 167 99
171 161 95
171 164 98
170 163 97
166 159 91
166 160 94
173 165 97
173 164 96
171 162 99
170 162 95
168 160 95
172 163 95
167 160 93
170 161 94
167 159 95
169 161 96
172 164 98
169 161 90
167 160 90
168 160 95
165 156 89
170 161 98
166 157 87
166 156 88
170 161 94
170 160 92
168 160 92
170 159 91
168 159 91
168 158 90
170 160 92
165 155 88
165 157 91
167 158 92
165 156 88
167 158 87
166 157 90
209 229 255
209 229 255
209 228 248
211 229 250
211 230 252
210 228 246
210 229 252
212 231 254
210 229 246
211 230 252
213 231 255
213 231 254
211 229 250
211 229 248
210 228 249
211 229 250
209 227 245
208 227 241
208 227 245
209 228 244
208 227 244
209 227 242
209 228 244
210 229 248
208 227 245
209 228 244
207 226 241
210 229 249
207 225 240
208 227 246
208 226 242
209 228 248
209 228 244
208 227 242
208 227 240
210 228 244
208 226 244
209 228 242
210 228 246
209 228 248
209 228 245
209 228 242
210 228 249
212 230 254
210 228 248
211 229 250
211 230 250
209 228 246
211 230 252
212 230 252
209 227 245
211 229 249
211 229 250
210 229 250
210 228 246
211 229 248
210 228 249
208 227 245
209 227 248
210 228 248
207 226 240
210 229 248
209 228 248
208 227 245
207 226 240
207 225 242
210 229 246
209 228 248
210 229 250
211 229 250
210 228 249
209 228 246
210 228 249
209 228 245
207 226 245
209 228 248
208 227 245
208 227 246
207 225 242
210 228 249
208 227 245
208 227 245
208 227 249
207 226 245
210 229 252
209 228 249
210 228 250
206 225 240
207 226 240
207 227 249
207 226 245
206 225 242
209 228 249
208 228 249
211 230 253
210 229 249
210 229 248
210 229 252
209 228 249
207 226 244
210 228 249
208 227 245
209 228 248
207 226 244
207 226 241
207 226 242
207 226 245
207 227 246
206 226 244
208 227 246
206 226 242
207 226 245
206 226 245
207 227 249
207 226 248
208 228 252
205 226 244
206 226 244
204 225 242
205 225 242
204 225 245
204 225 242
205 226 246
204 225 245
203 224 244
202 224 238
206 226 249
205 226 246
203 225 249
205 226 253
198 222 252
200 224 255
201 224 255
202 225 255
203 225 255
204 226 255
205 227 255
207 227 255
209 229 255
210 229 255
211 230 254
212 231 254
213 231 252
214 232 255
214 232 255
214 232 255
214 232 255
214 232 255
214 232 255
214 232 255
214 232 255
214 232 255
214 232 255
191 210 238
61 97 158
61 97 155
61 96 150
61 96 150
61 97 155
61 96 149
61 96 152
62 98 158
60 95 148
61 97 152
62 98 166
62 98 160
61 96 149
62 98 151
62 97 156
62 98 161
61 96 147
62 98 159
61 97 147
61 97 152
62 98 163
61 97 149
62 97 152
61 97 153
61 97 155
61 97 154
61 97 154
62 97 153
62 98 159
62 98 157
61 96 153
62 97 152
62 97 152
61 96 156
61 96 151
62 97 147
62 97 152
62 98 161
63 99 158
61 96 152
60 96 149
61 96 151
61 96 151
60 96 149
61 96 150
61 97 147
61 97 149
62 97 157
61 97 151
61 96 142
62 97 157
59 94 140
62 98 156
61 97 158
63 98 157
62 97 158
62 97 154
62 97 154
60 95 149
61 96 150
62 97 160
60 95 145
61 96 151
62 97 153
62 98 155
61 96 152
61 96 153
61 96 155
60 95 140
62 97 155
61 96 151
60 96 150
61 96 148
61 95 154
62 98 162
60 95 146
61 95 147
60 95 147
61 96 152
61 95 150
59 94 148
59 92 141
59 92 141
60 94 149
59 93 150
59 92 146
60 93 149
59 92 145
60 91 141
57 90 139
58 90 144
60 89 135
197 215 240
214 232 255
214 232 255
214 232 255
214 232 255
214 232 255
214 232 255
214 232 255
214 232 255
214 232 255
214 231 254
162 157 135
144 133 79
130 120 75
137 130 83
136 128 82
130 122 78
130 121 77
128 123 82
131 123 78
135 132 90
132 129 86
134 130 88
135 131 87
131 129 88
133 131 87
136 133 89
143 139 92
135 131 88
140 136 91
146 142 93
144 140 92
147 145 95
155 150 99
143 140 91
151 148 97
151 148 97
158 153 99
151 148 98
159 153 99
147 145 96
153 149 98
157 153 97
158 153 100
150 148 95
158 154 99
162 157 102
160 154 97
158 155 94
161 157 98
161 156 97
165 162 104
165 160 101
163 159 100
159 155 98
167 163 103
170 164 103
168 165 105
166 162 102
169 164 105
165 159 100
169 164 102
171 165 100
169 164 102
170 166 107
172 166 101
174 167 106
173 167 105
171 166 105
170 165 103
174 168 107
171 165 99
171 165 102
174 168 105
171 165 101
172 166 100
171 165 101
170 165 105
174 168 102
176 170 105
174 168 99
174 168 103
171 166 101
173 166 99
173 167 100
177 170 104
174 167 100
176 169 105
173 168 101
175 167 98
175 169 105
172 164 99
175 169 105
171 165 98
173 167 100
174 165 99
175 167 100
177 169 104
172 165 98
176 168 102
172 165 98
173 167 103
175 169 104
174 166 100
169 163 93
172 165 99
173 165 98
173 166 98
174 165 96
171 164 100
169 162 93
173 165 96
173 167 100
168 161 91
174 167 99
172 165 98
172 166 99
172 163 95
173 165 93
171 163 94
170 161 92
170 163 96
173 166 97
171 163 95
168 161 97
174 167 100
171 163 94
170 164 99
169 161 96
174 166 99
171 162 94
169 160 95
172 165 97
171 163 95
170 160 94
168 159 93
166 156 87
164 154 88
169 160 96
168 160 90
167 159 90
170 162 93
165 159 91
172 163 95
170 160 92
164 155 89
169 160 94
167 158 87
165 156 93
167 158 89
166 157 90
166 158 87
169 158 93
164 154 88
209 229 255
212 230 254
211 229 249
208 227 245
211 230 250
211 229 252
212 230 253
211 229 248
212 230 254
212 230 253
211 229 248
211 229 250
213 230 252
211 229 244
211 229 248
211 229 246
207 226 242
207 226 237
208 227 238
209 227 244
208 227 241
210 229 249
209 227 242
210 229 248
209 227 244
208 227 241
210 228 248
211 229 248
210 228 245
207 226 240
209 227 245
212 230 252
213 230 252
211 229 249
211 229 249
210 229 246
209 228 245
208 227 242
211 229 250
210 228 245
211 229 249
210 228 248
212 230 252
210 228 248
212 230 250
211 229 250
211 229 249
209 227 246
211 229 249
212 230 252
211 229 250
210 229 246
209 227 246
210 229 253
211 229 250
211 229 249
210 228 252
211 229 249
208 227 248
211 229 252
209 227 242
208 227 245
210 229 249
210 228 242
212 230 252
210 229 248
210 228 246
209 228 248
209 227 246
205 224 238
208 227 246
211 229 250
207 225 240
210 228 248
208 227 248
208 227 244
204 223 240
210 228 250
210 228 250
210 228 246
210 228 249
210 228 248
209 228 249
204 223 242
209 228 245
209 228 248
208 226 240
210 228 250
207 227 248
211 230 254
210 229 250
206 225 241
207 226 245
208 227 246
209 228 246
209 228 246
210 228 248
208 227 241
209 228 249
208 227 246
208 227 245
208 227 242
209 228 249
207 226 244
207 227 245
209 228 252
209 229 252
207 227 244
208 228 248
206 226 242
210 229 250
207 227 245
206 226 240
207 227 245
208 227 249
207 226 246
208 227 248
206 226 242
207 227 245
204 224 237
208 228 253
206 226 246
205 226 244
206 226 248
205 226 250
204 225 245
205 226 245
205 226 249
205 226 252
205 226 245
204 226 250
201 224 255
201 224 255
202 225 255
203 226 255
204 226 255
205 227 255
206 227 255
208 228 255
209 229 254
211 230 255
213 231 255
214 231 254
214 232 254
215 232 255
215 232 255
215 232 255
215 232 255
215 232 255
215 232 255
215 232 255
215 232 255
215 232 255
149 170 203
61 96 154
63 98 160
61 97 150
61 97 157
61 97 157
61 97 150
61 97 155
62 98 159
61 97 152
61 97 153
62 98 158
61 97 155
62 97 162
62 98 157
61 96 148
60 96 144
60 95 142
62 97 150
61 97 155
61 97 149
61 97 150
61 96 151
61 96 151
62 98 155
62 97 155
61 96 148
62 97 150
62 98 153
61 97 155
60 96 144
60 95 145
61 96 147
62 98 154
61 96 140
62 97 150
62 97 151
61 97 148
62 97 154
62 98 160
61 97 150
61 96 142
61 96 145
61 97 153
61 97 147
62 98 159
61 96 152
61 97 153
62 97 151
61 96 147
62 97 154
61 97 153
61 96 145
61 97 148
62 97 147
60 96 152
62 97 151
62 98 159
62 97 154
62 97 148
61 97 148
61 97 154
61 97 153
61 96 152
61 97 153
61 96 152
61 96 141
62 97 153
60 95 150
61 96 153
60 95 150
61 96 147
61 96 151
61 96 147
60 94 142
61 95 154
60 94 151
61 96 147
61 95 150
60 95 152
60 95 153
60 95 151
60 95 149
60 93 143
58 91 139
60 93 147
58 90 138
59 92 145
59 91 144
59 91 143
59 91 140
56 87 134
57 89 143
134 153 187
215 232 255
215 232 255
215 232 255
215 232 255
215 232 255
215 232 255
215 232 255
215 232 255
215 232 255
197 207 216
139 125 74
141 130 80
132 124 75
139 131 83
134 129 85
134 127 83
136 132 89
131 125 81
122 118 80
130 125 82
139 135 90
135 131 89
134 131 88
131 127 86
133 129 84
137 132 87
138 136 92
131 127 84
146 142 93
137 133 88
142 138 91
144 140 91
148 143 94
147 144 94
155 150 99
157 153 99
152 149 96
159 156 100
153 150 94
154 150 96
153 149 97
153 149 97
161 159 104
159 154 100
156 151 95
156 151 95
159 154 97
162 159 103
162 158 98
165 161 103
159 155 99
165 161 105
162 158 98
163 158 101
167 161 101
166 161 99
166 161 102
164 160 101
170 164 99
171 165 102
166 161 101
165 160 99
174 169 106
174 169 106
169 163 101
170 165 103
173 167 102
169 162 100
175 168 105
169 163 102
175 168 105
176 170 108
171 165 102
167 163 101
175 169 103
171 165 98
173 167 102
174 168 106
176 169 104
175 170 108
169 165 97
173 167 101
172 165 97
174 167 100
173 167 99
177 170 105
174 167 102
172 165 99
175 167 100
174 167 102
174 168 103
176 169 105
175 169 103
176 169 104
175 168 103
174 167 101
169 163 95
170 163 97
172 165 97
172 166 100
172 164 100
177 170 107
171 164 99
172 166 97
175 168 100
173 166 101
174 168 99
172 165 96
173 166 98
175 169 101
171 165 95
173 167 100
173 166 101
172 165 97
167 161 92
171 163 98
170 161 96
171 163 94
168 160 93
167 158 92
172 164 98
168 161 92
170 162 92
174 166 101
172 164 98
167 159 93
173 166 95
171 164 96
168 160 93
173 164 100
174 165 100
168 159 92
170 161 92
166 157 90
172 162 94
170 163 91
171 162 92
167 158 91
166 157 90
166 157 86
168 159 94
165 156 90
170 162 93
169 159 91
169 160 94
167 159 89
163 154 88
165 156 86
168 157 91
163 154 84
168 157 90
165 154 83
165 155 91
211 229 252
210 228 249
211 230 249
212 230 252
213 231 253
212 230 252
212 230 253
212 230 252
210 228 248
213 230 252
211 229 248
212 230 249
210 228 244
213 230 252
211 229 246
208 227 238
207 226 241
208 226 234
211 229 246
209 228 241
208 227 240
210 228 244
209 227 244
209 227 244
209 228 245
212 230 252
210 228 246
207 226 240
208 226 244
207 225 237
210 229 245
211 229 249
208 226 238
210 228 246
209 227 240
210 228 248
209 227 244
210 228 246
209 227 245
210 228 245
208 226 238
209 227 244
210 228 244
211 230 250
209 227 242
212 230 249
210 228 245
211 229 248
210 228 245
213 231 254
210 228 248
212 230 252
210 228 246
207 225 240
212 230 250
208 226 242
212 230 253
213 231 253
210 228 248
211 229 246
211 229 249
210 228 248
208 227 245
211 229 248
209 227 246
208 227 246
209 227 244
209 227 248
211 229 246
210 229 248
211 229 249
210 228 245
212 230 252
211 229 249
209 227 244
210 228 248
211 229 246
209 227 248
206 225 241
211 229 252
212 230 253
211 229 248
208 226 244
211 229 250
210 228 245
209 228 249
210 228 246
211 229 248
209 227 245
212 230 253
210 229 248
209 228 244
208 227 248
210 229 248
211 230 254
210 229 248
210 228 249
211 229 252
209 228 249
208 227 248
209 227 249
207 226 244
208 227 244
208 227 245
209 228 246
209 227 246
209 228 249
208 227 245
208 228 249
208 227 244
209 228 245
209 228 249
207 226 244
207 226 242
207 227 245
208 227 245
208 227 246
209 228 248
206 226 244
207 226 246
205 225 238
207 226 245
205 225 241
207 227 249
205 226 245
206 226 246
203 224 236
204 225 244
207 227 254
205 226 248
205 226 251
205 226 253
199 222 254
202 225 255
203 226 255
204 226 255
205 227 255
206 227 255
208 228 255
209 229 255
210 229 255
212 230 255
213 231 255
215 232 254
215 232 255
215 232 255
215 232 255
215 232 255
215 232 255
215 232 255
215 232 255
215 232 255
210 227 252
76 107 157
61 97 159
61 96 153
62 98 160
61 97 163
62 98 157
62 97 152
61 97 150
62 98 157
61 97 156
61 96 152
61 96 148
61 96 144
61 96 153
61 96 147
61 96 149
61 97 153
62 98 158
60 95 141
61 96 139
61 96 139
61 97 149
62 98 158
62 97 155
62 97 158
63 98 157
61 97 154
62 98 160
61 96 145
62 97 152
61 97 150
60 96 139
61 95 147
62 98 154
62 98 159
62 97 156
62 97 152
61 96 147
60 96 148
61 97 149
62 98 154
61 96 144
62 97 152
61 97 161
59 94 135
61 97 154
61 96 148
62 97 155
62 97 149
62 97 155
60 95 148
61 97 150
61 97 148
62 97 154
63 98 156
63 98 151
62 98 158
61 96 147
62 98 159
60 95 142
61 96 151
60 95 147
62 98 157
61 97 153
62 96 154
61 96 147
62 97 152
61 97 155
60 95 140
61 96 151
61 96 149
62 96 154
61 95 146
60 95 144
60 94 148
61 95 145
62 97 155
61 95 150
60 93 146
62 96 158
60 95 149
59 92 139
60 93 147
61 95 154
61 95 150
58 91 146
59 92 140
58 91 140
58 89 133
60 93 145
58 89 130
57 89 141
56 86 135
70 96 135
202 219 243
215 232 255
215 232 255
215 232 255
215 232 255
215 232 255
215 232 255
215 232 255
213 229 251
153 148 118
132 124 78
139 129 80
126 119 77
123 115 74
134 128 84
131 126 82
121 118 80
125 123 82
128 123 80
126 119 78
131 126 84
135 131 87
124 122 82
128 126 83
137 134 91
132 131 91
135 134 90
141 138 93
136 134 88
141 138 93
144 140 91
145 143 95
138 136 88
153 149 98
148 144 92
150 146 95
159 154 101
145 142 94
157 152 98
147 144 94
156 152 97
157 154 96
158 153 100
158 154 97
153 150 97
156 153 99
163 159 101
163 159 101
164 158 99
171 165 107
158 154 96
166 161 103
168 163 102
168 163 101
164 160 101
167 162 102
168 162 101
167 162 102
168 163 102
172 167 103
173 168 103
167 162 101
173 168 103
171 165 102
168 163 99
169 163 96
171 165 102
173 167 103
174 168 103
166 161 101
172 166 103
173 167 101
171 165 100
172 167 100
171 165 100
175 168 102
173 167 102
175 169 102
171 166 101
172 167 99
175 169 106
170 165 100
177 171 105
178 171 105
172 167 102
168 161 92
175 168 104
172 166 97
175 169 101
173 166 99
177 170 103
173 167 102
171 164 95
174 167 104
175 169 102
173 166 99
172 166 97
172 165 97
176 167 99
174 166 96
175 167 103
172 167 100
176 169 101
175 167 103
172 163 94
173 165 95
171 166 95
171 163 96
170 163 96
175 167 99
168 163 94
171 163 97
173 165 97
175 168 101
168 162 94
170 162 94
174 166 96
171 166 96
174 166 95
170 162 96
172 164 97
175 168 101
170 161 93
172 165 94
169 162 92
171 163 95
168 159 91
171 162 96
164 156 92
170 162 94
171 163 96
169 162 92
169 160 95
166 158 89
172 163 91
172 164 96
175 166 99
168 157 89
169 161 94
168 160 89
167 158 91
168 159 91
169 160 92
167 159 90
169 160 92
173 164 95
169 159 88
172 164 93
169 160 95
166 157 91
161 150 83
167 156 87
165 155 84
212 230 254
211 230 250
213 231 254
212 229 246
213 231 254
213 231 254
211 229 248
212 230 249
213 231 254
213 230 252
211 228 245
213 231 253
212 229 248
211 229 245
212 230 250
211 229 248
209 227 240
210 228 242
210 228 242
208 227 241
210 229 245
212 229 246
211 229 249
210 228 241
211 229 248
210 228 242
212 230 249
209 227 246
210 228 245
206 225 238
211 229 250
210 228 248
209 227 241
212 230 249
208 226 241
213 230 253
210 228 244
211 229 246
209 228 242
211 229 245
211 229 248
212 229 248
211 229 250
209 227 242
210 228 246
212 230 252
212 230 249
210 228 245
210 228 248
211 229 248
212 230 253
211 229 246
212 230 248
210 228 245
212 230 250
209 227 248
210 228 248
212 230 252
210 228 248
211 229 245
211 229 246
212 230 252
213 230 250
210 228 244
211 229 252
207 226 244
210 228 245
209 228 249
211 229 250
207 225 244
208 227 242
211 229 253
210 227 248
211 229 249
203 222 240
212 229 248
209 228 248
211 229 250
210 228 250
212 230 252
208 227 242
208 226 240
211 229 250
208 226 242
208 226 245
211 229 249
210 228 245
209 227 244
208 226 241
207 226 244
211 230 250
210 228 249
206 225 240
208 226 241
210 229 250
211 229 248
209 228 245
211 230 253
210 229 250
208 227 248
211 229 249
210 229 248
208 227 242
210 228 248
209 228 249
210 229 250
209 228 248
209 228 246
208 227 245
209 228 248
209 228 245
210 229 253
209 228 245
209 228 248
209 228 248
210 229 252
208 227 244
208 227 245
207 227 244
207 226 242
206 226 242
208 227 244
207 227 246
208 228 250
207 227 250
205 225 246
205 225 244
199 219 239
203 223 242
202 223 244
205 225 249
204 224 246
199 221 250
201 223 254
198 220 251
201 222 252
204 226 255
206 227 255
208 228 255
209 229 255
210 230 255
211 230 255
213 231 255
214 231 253
215 232 255
215 232 255
215 232 255
215 232 255
215 232 255
215 232 255
215 232 255
215 232 255
151 171 208
61 96 153
62 98 162
62 97 152
61 96 152
61 96 151
61 97 158
60 96 145
61 97 150
60 95 137
62 98 157
61 96 143
62 98 162
61 97 151
61 97 156
61 97 156
62 98 158
62 97 155
61 96 151
62 97 150
60 95 145
61 96 144
62 97 156
60 95 145
60 96 145
61 97 150
61 96 144
63 99 158
60 94 136
61 97 148
62 98 154
62 98 155
61 97 148
61 97 150
60 96 145
61 96 148
61 97 152
61 96 145
62 98 155
62 98 162
62 97 153
61 97 150
60 95 142
61 96 147
61 97 148
61 97 150
61 96 143
60 94 134
61 97 148
62 97 149
62 98 154
61 95 145
62 97 152
61 97 155
60 94 143
61 96 149
61 96 152
61 97 155
62 98 154
61 97 154
61 96 147
62 97 154
61 95 146
61 97 149
63 98 161
60 95 139
62 97 152
61 96 148
62 97 161
60 95 145
62 97 156
61 96 155
60 95 148
62 97 153
61 96 151
61 96 148
61 96 148
61 96 150
62 97 159
61 96 150
61 95 144
61 95 145
61 96 151
60 93 143
61 95 150
59 93 137
58 90 140
59 93 150
60 93 149
57 90 141
59 93 145
58 89 136
57 89 140
57 87 136
57 89 139
157 175 207
215 232 255
215 232 255
215 232 255
215 232 255
215 232 255
215 232 255
215 232 255
187 194 198
140 129 80
135 126 77
137 126 78
129 118 74
126 117 74
125 119 78
132 127 84
122 117 78
115 110 72
130 126 85
127 126 87
128 123 81
132 128 85
134 132 90
140 138 94
126 122 78
129 125 83
132 129 85
142 139 91
138 135 90
144 141 95
144 140 89
138 135 90
145 143 93
143 139 89
141 138 89
154 150 97
149 147 96
152 148 96
149 146 96
154 149 98
151 148 96
155 152 96
153 150 96
159 156 97
161 157 101
165 160 101
157 153 96
162 159 99
162 158 100
158 155 98
164 158 99
165 161 98
160 156 99
161 157 95
162 158 97
168 163 100
165 160 101
168 163 99
169 163 100
168 164 102
165 161 102
169 164 103
172 166 101
171 165 101
169 164 101
172 167 102
172 166 101
171 165 100
173 166 99
171 165 103
174 168 104
173 167 104
170 164 94
174 168 103
173 168 98
170 164 98
175 170 103
169 165 96
174 167 99
172 165 97
174 167 99
174 168 98
171 165 98
173 166 96
172 166 96
176 169 101
172 166 100
173 166 101
175 168 101
172 165 96
174 167 97
170 163 96
175 168 101
172 166 98
175 168 97
173 166 102
173 166 97
175 168 99
175 167 102
176 169 105
173 166 99
174 167 101
173 167 97
174 166 97
173 166 99
171 164 95
173 166 98
168 161 94
172 164 97
173 165 98
174 166 95
171 164 100
172 165 94
174 166 94
177 166 100
173 166 99
172 164 95
174 165 98
172 163 97
177 168 97
173 165 98
168 161 92
173 166 96
173 166 98
175 167 98
170 162 97
169 162 95
171 162 93
169 160 93
170 161 92
167 159 91
168 159 88
173 164 94
170 163 95
170 162 97
168 158 87
166 158 89
168 159 91
169 159 90
168 158 92
168 160 90
164 155 85
168 160 92
172 164 94
168 158 90
170 160 90
166 158 92
173 165 95
170 161 94
164 155 89
167 158 90
165 156 86
166 155 86
213 230 252
211 229 248
213 231 252
212 230 248
213 231 250
214 231 253
213 230 250
212 230 248
212 230 252
213 230 250
212 230 248
213 230 249
213 230 250
213 230 250
211 229 246
210 228 241
209 228 241
209 227 239
211 230 249
208 227 239
210 228 244
210 228 247
211 229 246
211 229 246
209 227 237
211 229 246
210 228 242
209 227 244
212 230 249
210 228 241
212 230 249
211 229 245
209 227 244
210 227 242
208 226 242
208 226 241
212 229 250
210 227 244
211 229 250
211 229 244
210 228 241
211 228 246
211 229 248
209 227 242
210 228 242
212 230 252
212 230 250
212 229 249
211 228 248
212 230 249
212 230 252
212 230 250
211 229 249
210 227 248
211 229 249
214 231 253
211 228 246
212 229 246
211 229 245
208 226 246
211 229 249
207 225 238
209 227 244
212 230 252
210 228 245
209 227 242
211 229 246
210 228 248
207 226 242
207 225 242
209 227 245
210 228 246
210 227 245
210 228 248
212 230 250
210 228 248
210 228 246
210 228 248
211 228 249
210 228 248
211 229 248
211 229 246
209 228 248
210 228 246
209 227 246
213 230 250
211 229 249
209 227 244
209 228 244
212 230 249
209 227 248
210 229 248
211 229 249
210 228 246
209 227 246
211 229 249
208 227 244
210 228 245
209 228 244
212 230 252
211 229 249
208 227 244
211 229 248
210 228 245
209 228 246
208 227 240
211 229 249
210 229 250
211 229 250
209 228 245
209 228 246
210 229 250
209 228 245
209 228 244
207 226 242
209 228 246
209 228 250
207 226 240
209 228 245
206 226 237
210 229 253
208 228 246
206 225 238
205 225 238
204 224 234
204 224 239
202 222 240
203 223 240
203 223 242
202 222 240
203 223 245
203 223 248
199 219 244
198 220 251
198 220 251
200 222 252
195 217 248
200 221 251
207 228 255
209 229 255
210 229 255
211 230 254
212 231 255
214 232 255
215 232 253
216 232 255
216 232 255
216 232 255
216 232 255
216 232 255
215 232 255
214 231 255
87 116 173
61 97 159
60 96 145
61 97 147
61 96 148
62 97 154
61 97 155
62 98 160
61 97 157
61 97 148
61 96 152
61 96 149
62 97 152
61 97 153
62 97 149
61 97 151
61 96 150
61 97 154
62 97 153
61 97 149
61 97 147
61 96 147
61 96 151
62 98 155
60 96 144
61 96 148
61 97 153
61 96 149
61 96 149
62 97 150
61 96 144
62 97 152
62 97 155
62 97 152
61 97 155
60 95 148
61 97 152
61 97 156
61 96 145
61 97 148
61 97 149
61 96 144
62 97 155
60 95 145
62 98 158
62 97 150
61 97 152
62 98 154
60 95 145
62 97 153
62 97 155
61 97 150
61 96 148
61 97 155
61 97 149
61 97 151
61 97 147
61 96 152
61 96 152
61 95 145
61 97 155
61 96 148
61 96 150
60 95 142
62 97 152
60 95 145
61 96 149
60 95 147
61 96 152
61 95 151
60 95 145
61 96 148
62 97 155
60 95 147
60 95 152
61 95 152
61 96 153
60 94 146
60 94 147
60 93 148
60 94 139
61 95 151
60 93 147
59 92 142
60 93 138
60 94 147
60 94 148
60 94 151
58 91 137
58 91 133
59 91 139
58 89 134
58 89 142
56 87 133
59 91 142
91 114 150
213 230 254
215 232 255
216 232 255
216 232 255
216 232 255
216 232 255
214 230 252
154 148 124
129 119 71
131 121 76
125 116 71
127 120 77
111 107 71
135 129 84
113 107 70
110 105 71
118 115 78
132 127 85
120 118 81
124 122 83
129 127 86
130 128 86
123 123 86
131 128 85
136 134 91
122 120 82
131 129 85
144 140 93
141 138 91
136 134 89
137 136 92
139 136 90
137 134 90
145 143 94
146 144 93
156 151 96
150 145 93
151 147 96
153 149 94
145 142 92
152 149 94
150 147 92
160 156 97
151 150 97
159 155 98
157 153 97
161 156 98
159 157 100
161 157 100
162 157 93
162 157 97
166 161 101
166 161 99
163 159 98
161 156 98
168 162 100
173 167 104
166 160 100
165 161 99
158 154 95
169 164 96
167 162 96
169 164 100
168 163 98
169 165 101
170 164 100
173 167 100
174 168 105
168 163 100
174 169 105
175 169 104
173 167 102
171 165 99
172 166 100
174 167 98
174 168 102
172 166 100
173 167 98
173 167 103
175 168 103
173 167 100
173 167 102
177 170 104
179 171 103
172 165 94
175 167 100
177 169 102
174 167 98
174 167 94
172 166 96
173 166 97
177 169 101
173 167 98
176 169 104
174 167 98
176 170 103
174 166 96
173 164 95
173 167 100
173 165 97
169 163 99
173 166 98
174 167 99
174 166 100
173 166 98
173 164 96
174 167 97
173 167 98
172 163 94
174 167 98
177 170 100
172 165 96
168 161 92
171 163 96
169 160 91
169 163 94
171 163 95
170 163 92
173 164 95
173 165 98
173 165 96
169 161 90
170 161 92
171 164 97
171 162 89
173 166 102
169 161 90
172 164 99
171 163 95
172 163 94
164 156 88
177 170 103
171 163 89
168 159 86
172 162 94
165 158 90
167 160 86
171 162 94
168 158 92
169 161 92
167 158 91
166 157 81
171 161 90
173 165 91
170 160 95
169 161 90
172 163 90
168 159 90
160 151 87
165 155 84
171 162 90
166 156 87
215 232 255
214 231 253
212 229 246
214 231 252
214 231 252
214 231 253
214 231 254
213 230 249
214 231 250
213 230 250
212 229 248
213 230 249
211 229 247
212 230 250
210 228 240
212 229 246
210 228 240
209 227 240
211 228 244
211 229 248
211 229 244
208 226 240
212 229 246
212 230 248
210 227 241
213 231 252
213 231 250
210 228 241
210 228 242
210 228 245
213 230 249
210 228 244
212 230 250
211 229 242
212 229 249
212 230 246
209 227 237
211 229 245
210 228 242
211 228 246
212 229 249
212 230 246
211 229 245
212 229 246
213 231 252
213 230 252
210 227 244
210 227 244
210 228 244
211 229 248
211 229 244
210 228 246
213 230 250
213 230 249
213 231 252
209 226 242
211 229 248
212 230 249
211 228 246
212 229 250
210 228 246
214 231 253
210 227 248
212 230 252
209 226 245
211 228 248
212 229 248
211 229 246
209 227 244
211 229 245
209 227 242
210 228 248
212 230 252
208 226 241
213 231 250
209 226 245
209 226 245
210 228 244
210 228 248
211 229 245
208 226 241
212 230 250
212 229 248
209 227 245
211 229 245
208 227 244
210 228 244
213 230 253
208 227 245
208 227 241
212 230 250
209 227 244
212 230 250
211 229 246
210 228 248
211 229 250
211 229 249
209 228 242
211 229 248
208 227 242
209 228 244
211 229 248
210 228 245
210 229 245
210 228 244
212 230 253
210 228 245
210 228 246
207 226 238
209 228 246
210 228 245
210 228 245
210 229 248
211 230 252
210 229 248
209 229 250
209 228 248
211 229 252
210 228 246
210 229 248
209 228 246
210 229 252
207 227 247
205 225 242
205 224 239
202 221 238
200 219 238
205 224 244
204 224 243
206 225 244
206 225 248
205 224 246
201 221 248
203 223 249
201 223 252
197 219 249
204 225 254
200 221 250
202 222 251
205 225 252
210 229 255
211 230 255
213 231 255
214 232 255
215 232 254
216 233 255
216 233 255
216 233 255
216 233 255
216 232 255
216 232 255
182 200 228
61 97 153
61 96 150
62 98 160
61 96 150
61 97 154
62 98 159
61 96 150
61 97 154
61 97 151
61 96 150
61 97 154
62 97 152
63 98 154
61 97 153
61 96 154
62 97 152
63 98 162
61 96 144
61 97 150
61 96 147
61 97 153
61 96 148
62 97 152
60 95 143
62 98 155
61 96 151
62 98 152
61 96 152
60 95 150
60 95 139
61 96 145
61 96 148
61 96 152
62 98 156
61 97 150
62 98 162
62 97 150
62 98 151
61 97 148
62 98 156
61 96 141
61 96 148
60 96 141
61 96 145
61 97 162
60 95 147
61 96 143
60 94 142
61 97 150
60 95 145
63 98 158
61 97 156
61 97 155
61 96 147
62 97 153
62 98 156
61 95 145
61 96 148
62 97 151
61 97 152
60 96 152
62 97 158
61 97 152
62 97 149
61 96 149
61 96 148
61 96 149
61 95 141
60 96 147
61 95 149
61 97 157
60 94 143
61 95 144
61 96 156
60 94 146
59 91 130
60 93 139
59 92 135
59 92 139
60 94 146
61 95 149
59 93 140
60 94 148
60 93 138
59 93 141
60 93 145
60 93 147
61 94 147
59 93 152
58 91 138
60 93 149
59 90 131
59 90 142
58 90 144
58 90 141
57 86 132
186 204 229
216 232 255
216 232 255
216 233 255
216 233 255
216 233 255
194 204 216
141 131 80
136 126 77
129 117 73
124 117 76
119 110 70
116 110 72
120 113 73
115 113 77
113 111 76
119 115 78
123 121 83
122 120 82
126 124 83
120 119 81
126 123 83
133 130 86
124 123 83
133 130 85
126 126 85
134 133 89
135 132 87
132 129 85
141 139 93
141 138 90
149 146 91
139 137 88
147 143 94
149 146 95
151 149 98
149 147 93
156 153 98
147 143 89
150 147 95
158 154 96
159 156 99
159 155 98
158 154 97
158 154 90
161 157 99
157 153 95
163 160 99
161 156 101
160 156 98
159 155 97
162 158 98
164 159 97
165 162 101
162 158 94
166 162 99
167 162 100
164 159 99
165 159 99
163 159 96
168 163 100
171 164 101
165 161 98
172 167 102
168 162 95
166 161 98
170 166 100
164 159 93
169 163 97
176 168 101
177 170 106
172 166 102
171 166 97
173 167 102
175 168 103
173 167 100
172 167 97
176 170 103
169 163 95
175 169 99
173 167 100
173 168 102
173 167 100
171 165 97
177 170 102
175 169 100
175 169 103
174 168 102
173 167 101
174 167 98
176 168 101
171 166 99
174 167 97
176 168 103
176 169 100
171 164 97
171 165 95
175 169 100
176 168 101
175 167 96
173 165 95
174 167 97
175 167 96
172 165 97
174 167 99
170 162 93
169 160 90
175 167 100
176 168 99
172 164 98
171 164 92
176 167 99
171 164 93
175 167 98
173 167 97
174 167 100
169 161 96
170 162 90
171 164 92
173 165 93
173 166 97
173 166 93
171 163 88
172 164 92
172 163 95
170 163 95
171 164 91
167 159 88
168 161 88
170 162 92
168 160 94
167 159 89
169 160 92
170 162 91
172 164 97
165 158 87
171 161 90
169 161 94
169 161 94
168 160 89
168 159 87
168 159 86
167 160 86
170 160 93
169 160 96
167 158 90
167 157 88
164 154 84
166 157 86
162 152 83
169 162 93
170 161 90
214 231 253
214 231 252
214 231 252
215 232 255
213 231 250
213 231 249
214 231 250
214 231 252
214 232 254
211 228 242
213 230 248
212 230 249
212 230 246
213 231 250
209 228 240
209 227 237
213 230 250
213 230 249
212 229 248
212 230 248
213 231 252
210 228 241
211 229 246
212 229 246
210 228 244
210 228 241
212 230 250
211 229 244
213 230 249
208 226 240
213 230 246
213 230 250
210 228 244
213 231 249
212 229 245
214 231 250
213 230 250
211 229 242
211 229 244
211 229 242
213 230 248
213 231 252
212 230 246
212 229 246
209 226 240
210 228 245
211 229 245
213 230 252
212 229 246
212 230 246
212 229 248
211 228 249
211 229 248
211 228 248
211 229 249
210 227 246
211 229 249
212 229 249
211 229 248
212 230 249
212 230 246
210 228 245
211 228 249
211 228 248
212 229 248
212 230 245
211 229 245
210 227 245
211 228 245
210 227 249
206 224 237
213 230 248
211 229 248
210 228 246
208 226 238
211 228 249
211 229 244
211 228 246
211 228 246
207 225 241
210 228 246
211 229 246
211 229 245
208 226 244
212 230 250
213 230 249
212 230 250
208 225 241
210 228 246
211 229 246
210 228 241
211 229 246
213 231 252
211 228 246
212 229 250
209 227 241
212 229 249
212 229 248
211 229 246
210 228 245
212 230 249
208 227 241
212 230 252
209 228 248
212 230 252
211 229 244
210 229 246
209 228 244
210 228 244
210 229 245
211 229 253
212 230 253
211 229 246
211 229 248
210 228 245
208 227 241
210 229 246
211 230 252
208 227 238
209 228 244
210 228 248
203 222 237
206 224 248
202 221 242
197 216 240
203 222 245
202 221 240
202 221 239
199 218 235
202 222 237
207 226 250
206 226 242
203 223 240
207 227 250
201 222 252
196 218 249
201 222 250
200 220 249
202 222 250
202 222 250
204 224 252
211 230 255
212 231 255
214 231 255
215 232 255
216 232 254
216 233 255
216 233 255
216 233 255
216 233 255
216 233 255
135 156 192
61 97 154
60 95 141
61 97 158
62 97 148
61 96 151
62 97 153
61 97 149
60 96 144
60 96 150
61 96 143
62 98 155
61 96 145
60 96 145
60 95 152
61 97 148
61 97 154
61 96 144
61 97 154
62 97 144
61 96 144
60 96 144
62 98 158
60 96 141
62 97 153
61 97 149
60 95 141
62 97 142
61 97 154
62 97 149
61 96 144
61 96 145
61 97 153
61 96 145
62 98 155
60 96 145
61 96 144
61 97 151
62 97 155
61 97 148
61 96 144
61 96 144
62 97 154
61 95 148
61 96 147
60 95 144
61 97 149
61 97 148
62 97 160
62 98 154
61 96 148
61 97 154
61 95 140
61 97 150
61 97 150
61 97 151
61 96 150
61 96 153
60 95 149
62 97 154
61 95 144
61 96 143
61 95 156
61 96 144
62 97 156
61 96 144
61 96 144
61 95 146
61 96 149
61 96 149
62 97 153
62 97 156
61 95 142
61 96 150
61 95 146
61 95 148
60 94 139
60 93 138
59 93 145
61 94 140
62 97 160
60 95 148
60 94 146
61 96 152
60 94 145
59 93 135
60 94 148
59 92 145
59 93 146
60 94 149
58 90 142
57 88 135
58 89 136
58 89 136
59 90 145
56 87 134
54 83 121
127 145 177
216 233 255
216 233 255
216 233 255
216 233 255
216 233 255
157 156 144
132 121 73
124 113 69
133 124 78
128 122 80
116 109 72
117 110 70
112 108 72
112 107 72
116 114 76
119 113 73
120 119 84
119 114 75
115 114 79
117 115 75
122 120 81
131 129 86
120 118 80
129 128 87
138 134 88
133 131 87
130 129 86
140 137 90
142 139 92
141 138 90
139 137 89
137 135 88
147 145 93
157 153 99
137 135 89
143 141 92
137 136 88
147 144 93
151 148 94
155 152 94
158 154 99
154 151 93
162 159 101
163 159 100
160 156 98
162 157 99
162 159 99
155 151 94
162 158 98
162 157 97
162 157 95
164 159 99
165 161 101
166 161 100
163 159 99
170 165 103
166 161 101
163 159 99
170 165 98
167 162 101
168 163 96
169 164 100
172 166 99
171 165 98
169 163 99
170 164 101
172 166 98
170 165 98
172 166 101
172 166 99
172 167 102
170 163 100
171 166 94
174 167 96
170 164 96
174 167 100
173 166 101
170 165 95
176 168 99
172 166 96
171 166 98
171 165 96
175 168 97
176 169 100
171 164 92
174 167 100
175 169 102
173 167 97
177 170 101
173 165 95
172 166 97
177 169 100
172 165 95
175 168 101
173 167 97
173 167 100
171 164 89
171 164 96
174 166 96
173 166 98
173 165 95
175 168 96
172 166 96
167 160 87
174 167 100
171 164 97
174 168 100
174 167 97
171 164 96
169 161 95
175 167 96
171 164 94
171 164 95
169 161 90
173 164 94
171 164 95
172 166 98
171 163 92
166 158 89
170 161 91
169 160 89
169 163 93
168 160 90
169 162 92
172 164 96
169 160 90
169 162 93
173 165 95
165 157 89
170 161 88
169 160 89
167 160 87
166 156 85
167 159 91
171 163 95
168 159 87
164 155 88
173 163 91
162 152 87
168 160 88
168 159 88
173 166 96
169 161 91
167 157 88
167 159 91
162 152 88
164 155 80
167 158 90
169 161 90
166 156 85
167 157 86
215 232 255
214 231 253
214 231 253
214 231 252
214 231 253
214 231 252
214 231 252
214 231 252
214 231 252
212 230 246
212 229 246
212 230 245
214 231 250
213 230 248
211 229 244
211 228 241
210 228 238
212 230 245
210 228 240
211 229 241
211 228 238
213 230 246
211 229 244
211 229 242
212 229 245
209 227 236
211 229 242
213 230 250
212 229 244
210 228 241
210 227 238
213 230 250
213 230 250
213 230 248
213 230 249
213 230 246
213 230 250
213 230 250
212 229 244
214 231 252
212 229 246
213 231 249
213 230 250
212 230 245
211 228 245
213 231 252
210 228 246
212 229 246
215 232 253
214 231 252
211 228 246
212 229 246
206 223 238
214 231 252
212 229 246
212 230 249
212 229 249
212 229 249
213 230 249
208 225 244
209 226 242
212 229 248
209 226 249
214 231 250
207 224 242
212 229 249
212 230 250
210 227 248
210 227 245
211 229 249
210 227 246
208 226 242
211 229 248
211 228 248
210 227 245
213 230 250
211 228 248
212 229 248
209 226 242
212 229 248
209 227 245
208 225 238
212 229 249
211 229 249
214 231 248
211 228 248
210 228 245
211 229 249
213 231 249
210 228 241
212 230 250
212 230 249
213 230 250
213 231 252
211 229 244
212 230 250
210 228 244
211 229 249
211 228 245
211 229 244
211 229 248
211 229 250
213 230 250
211 229 246
212 230 248
209 228 244
211 229 246
211 229 248
210 228 245
210 228 246
209 227 242
211 229 248
209 227 237
211 229 249
211 229 250
210 229 246
211 229 249
210 228 246
206 226 247
205 223 240
204 222 243
197 216 237
194 213 230
209 228 248
203 221 241
204 222 240
201 220 238
200 219 234
201 220 237
194 214 229
205 223 243
201 220 244
205 224 248
204 224 246
203 223 249
202 223 252
201 222 252
205 225 253
202 222 251
200 219 248
205 224 251
206 224 251
213 231 255
213 231 254
215 232 255
215 232 253
217 233 255
216 233 255
216 233 255
216 233 255
209 226 249
74 106 163
60 96 150
61 96 148
61 96 150
62 97 154
61 97 154
61 97 147
62 97 149
62 97 152
61 97 155
62 98 153
60 96 150
62 98 161
60 96 143
61 97 153
61 97 152
61 96 144
61 96 144
61 97 155
60 96 141
61 96 150
61 96 145
62 98 156
61 96 147
62 97 149
62 98 154
61 97 156
62 98 158
61 96 144
61 97 155
62 97 152
60 96 147
61 97 151
62 98 152
61 97 149
62 98 155
60 95 142
61 97 148
61 96 144
61 96 148
62 98 159
61 97 147
62 97 147
62 97 145
61 96 148
62 97 149
61 97 152
62 98 154
61 96 140
61 97 150
60 94 131
61 96 144
61 96 148
61 96 150
60 95 141
61 97 154
61 96 141
61 97 147
62 97 152
61 95 144
61 96 145
60 95 148
60 94 139
61 96 150
60 94 139
61 97 149
61 96 150
60 95 142
61 96 148
59 93 143
62 96 147
59 94 146
60 95 143
62 97 152
63 98 161
61 96 147
59 92 134
61 95 145
59 92 140
61 95 143
61 96 145
60 94 144
61 95 148
59 93 135
60 94 143
59 92 144
57 90 129
59 92 137
60 93 140
59 92 141
57 89 135
60 92 145
57 87 130
58 89 132
56 87 131
56 87 138
56 87 138
66 92 139
210 227 250
216 233 255
216 233 255
216 233 255
206 220 236
136 124 72
123 113 71
127 117 73
113 105 67
108 103 69
107 101 65
115 106 67
112 107 68
116 112 75
111 106 69
121 118 80
126 123 83
106 107 75
116 114 74
120 119 81
120 119 79
120 119 81
133 130 84
129 128 86
126 124 83
138 134 85
134 131 85
130 129 87
135 133 88
143 139 91
142 139 92
138 137 86
150 146 95
146 142 90
143 141 89
147 143 89
149 146 88
141 138 87
155 151 95
156 153 97
156 152 94
146 143 90
158 153 96
163 157 95
159 155 99
161 156 97
166 161 98
165 160 98
158 154 94
166 162 101
166 160 99
167 161 94
164 160 100
166 162 101
165 160 96
166 160 98
168 163 97
171 165 99
164 160 98
170 165 97
169 164 100
170 164 95
172 166 97
172 165 99
170 165 100
170 164 94
173 167 101
172 166 98
173 168 101
170 165 96
172 165 98
173 167 98
172 167 99
176 169 99
168 163 95
172 166 96
174 169 101
173 167 101
174 167 100
173 167 93
174 167 98
173 167 95
173 168 103
173 166 97
172 166 97
174 167 97
172 166 90
173 167 95
169 163 93
175 167 99
176 168 99
172 165 92
174 166 98
171 164 96
173 166 90
172 165 93
173 166 96
171 165 96
174 168 98
173 165 97
170 164 94
171 164 95
173 166 95
171 164 88
174 166 96
170 164 96
175 168 99
174 166 97
168 159 89
175 167 96
174 165 99
167 161 95
172 165 97
170 161 94
174 166 95
172 163 95
173 164 98
168 160 90
171 164 95
168 161 93
170 163 96
171 163 94
169 162 93
175 166 100
166 158 85
170 163 91
166 156 90
170 161 90
172 163 93
175 168 102
172 163 98
170 162 87
167 158 89
171 163 94
167 160 91
167 158 90
164 154 85
167 158 89
170 161 91
169 162 92
171 162 89
164 155 86
164 154 84
167 158 85
169 162 89
165 156 89
167 158 84
169 161 88
166 156 88
168 160 89
166 159 90
213 230 249
214 232 253
215 232 253
216 233 255
214 231 252
215 232 254
215 232 253
215 232 252
213 231 248
213 230 246
214 231 252
214 231 253
214 231 246
213 230 248
212 229 242
210 228 240
213 230 248
213 230 248
211 228 237
214 231 249
214 231 249
213 230 248
212 230 245
212 229 246
212 229 245
213 231 249
211 229 244
212 230 245
212 230 247
212 229 246
213 230 245
214 231 250
214 231 253
214 231 250
211 229 245
213 230 248
212 229 245
213 231 248
215 232 254
212 229 241
213 230 249
215 232 250
211 228 246
213 230 246
214 231 249
209 226 242
214 231 252
213 230 249
213 230 246
212 229 249
214 231 252
213 230 248
212 229 245
210 227 245
209 226 244
213 230 252
213 230 250
215 232 253
215 232 254
209 226 241
211 228 248
210 227 246
211 228 245
210 227 248
212 229 248
211 227 249
209 226 244
214 231 250
210 226 246
211 228 246
212 229 250
213 231 249
208 225 244
209 227 242
214 231 252
213 230 252
211 228 246
211 229 246
212 229 249
209 226 238
212 229 245
213 230 250
211 228 244
211 228 245
210 228 246
211 228 248
210 228 244
213 231 250
213 230 249
212 229 245
214 231 253
213 231 250
212 229 244
211 229 242
213 230 249
212 230 248
211 229 246
213 230 250
212 229 249
212 229 245
211 229 246
211 228 241
212 229 245
210 228 238
209 227 244
212 230 249
211 229 245
211 229 246
211 228 245
213 230 250
211 228 242
212 230 249
211 230 249
212 230 252
210 228 242
208 227 240
211 229 250
211 229 244
207 225 247
207 225 238
205 222 243
202 220 243
203 221 244
200 218 236
203 222 243
201 220 236
202 221 242
206 225 242
200 219 237
200 219 235
205 224 248
203 222 244
200 219 235
203 222 246
208 226 248
204 224 253
207 227 255
203 223 251
207 227 253
206 225 253
199 218 248
201 220 248
211 229 254
214 231 255
215 232 255
216 233 255
217 233 255
217 233 255
217 233 255
217 233 255
184 202 233
62 97 158
60 95 147
60 96 148
61 97 147
60 96 147
61 96 151
61 96 145
61 96 149
60 95 146
61 96 149
61 97 148
61 96 156
61 96 144
62 97 150
62 97 156
61 96 147
60 96 145
61 96 150
59 93 129
62 97 153
61 96 148
61 97 143
61 96 151
61 97 149
62 97 145
61 96 141
61 96 145
60 96 143
61 96 145
60 95 139
60 95 142
60 94 134
60 96 145
62 97 152
61 97 153
60 95 136
62 97 152
61 96 150
61 96 144
62 97 147
61 96 142
61 96 142
61 96 147
62 97 153
61 96 150
62 97 151
61 96 145
59 94 134
61 95 141
61 96 151
61 96 148
62 97 150
61 96 149
61 96 151
62 97 149
62 98 154
61 97 149
62 97 148
60 95 146
61 96 151
61 96 148
61 96 150
61 96 150
60 95 141
61 96 153
60 95 144
61 96 148
61 96 140
61 96 150
61 96 148
61 95 149
61 95 151
60 94 140
60 94 141
60 95 138
60 93 140
60 94 142
61 95 142
61 95 150
60 93 137
58 91 132
61 95 146
61 95 149
60 95 145
60 94 142
58 91 137
60 93 145
58 91 137
58 89 134
58 91 141
59 91 138
56 87 132
58 90 141
59 90 141
57 88 129
55 83 128
55 85 129
52 80 117
178 194 218
217 233 255
217 233 255
217 233 255
190 198 204
129 117 69
124 114 70
121 111 68
117 112 73
115 110 75
108 102 66
112 108 70
115 114 78
101 102 73
118 114 76
107 105 71
117 114 77
111 107 72
113 112 76
136 133 87
117 117 83
115 114 80
131 130 87
127 126 83
121 120 81
138 136 89
138 135 88
125 124 78
132 130 87
134 132 86
145 141 89
143 142 92
150 147 94
152 149 93
138 137 88
146 144 92
150 147 91
148 147 92
152 149 96
159 154 95
152 149 93
163 159 97
153 151 93
161 157 96
147 144 87
154 150 89
153 150 93
161 157 97
162 158 96
158 154 95
168 164 101
172 165 100
165 159 96
166 161 100
168 162 95
166 161 97
169 163 97
171 165 103
165 161 98
165 160 96
172 166 94
173 167 100
168 163 95
168 163 97
169 165 100
165 160 93
172 166 98
171 166 95
166 162 99
170 165 98
173 167 99
173 167 100
171 164 96
175 169 99
175 168 98
173 166 98
175 168 97
178 171 103
170 163 93
172 165 94
175 168 99
173 166 94
175 168 100
174 167 98
172 167 99
174 168 96
173 167 94
171 163 93
174 168 95
177 170 100
175 167 96
175 168 100
177 169 97
175 168 96
172 164 93
172 164 94
176 168 98
170 163 90
171 163 95
174 167 99
170 164 95
175 168 97
174 166 94
172 164 93
173 166 97
171 164 93
170 161 89
172 164 92
169 163 94
170 162 93
172 165 93
172 165 96
172 165 95
169 162 93
171 163 91
170 162 88
172 165 90
172 164 90
172 166 91
172 166 95
175 167 100
170 164 94
171 164 92
171 162 97
171 163 93
173 164 95
167 159 86
172 163 94
168 159 85
169 160 90
170 162 89
166 155 83
168 158 87
167 159 86
170 162 86
173 163 94
168 160 87
172 164 96
168 159 89
166 157 87
168 159 89
165 157 86
165 157 84
169 160 92
166 156 84
167 158 90
170 160 90
165 154 84
166 155 82
164 154 80
168 159 89
216 233 255
214 231 249
215 232 250
215 232 252
216 232 253
215 232 252
215 232 252
215 232 252
215 231 250
214 231 250
216 232 254
215 232 250
214 230 248
215 231 250
212 229 242
211 228 246
214 231 248
213 230 246
213 230 246
212 229 241
211 228 240
215 232 252
213 230 248
214 231 252
212 229 241
214 231 250
213 230 248
213 230 245
210 228 242
212 229 246
213 230 246
213 230 246
212 229 244
214 231 249
214 231 250
213 230 248
212 229 240
212 229 245
215 231 250
214 231 249
214 231 248
214 231 249
212 229 249
212 230 244
212 229 240
214 231 250
211 228 245
212 229 245
207 224 237
214 231 252
213 230 250
211 228 244
214 230 250
213 230 246
212 229 248
208 225 240
211 228 246
212 229 248
214 231 252
207 224 241
210 226 245
209 226 244
209 226 246
213 230 250
213 230 252
211 227 246
211 228 246
213 230 249
213 230 248
213 230 248
212 229 250
212 229 250
212 229 250
213 230 248
213 230 249
213 230 250
209 226 245
213 230 253
212 229 246
213 230 249
212 229 246
214 231 252
210 227 245
213 230 249
215 232 253
211 228 245
212 229 249
213 230 250
213 230 252
213 230 249
212 229 246
209 227 240
213 230 248
212 229 245
211 229 241
212 229 246
212 230 250
211 229 245
212 229 246
212 230 244
212 230 250
210 228 241
211 229 241
212 229 246
213 230 246
213 231 252
213 230 249
213 230 249
213 230 249
214 231 253
212 230 248
211 229 244
210 228 242
211 228 242
210 228 244
211 229 244
209 227 240
208 226 240
210 227 245
204 222 237
206 223 244
203 221 238
207 225 240
207 225 243
208 226 241
200 219 232
203 221 237
205 223 240
201 220 241
200 218 236
200 219 236
200 219 242
200 218 240
204 223 245
196 215 242
203 223 250
204 225 253
203 223 250
203 222 249
205 225 252
201 220 248
203 222 250
204 222 248
210 228 253
215 232 255
216 232 255
217 233 254
217 233 255
217 233 255
217 233 255
156 176 208
60 95 149
61 96 153
60 95 147
61 96 152
62 97 153
60 95 141
61 96 149
61 97 149
60 96 151
61 96 154
61 96 145
61 97 145
62 98 152
61 96 141
61 96 152
61 97 149
61 97 151
61 97 148
60 95 142
62 98 156
61 97 150
61 96 147
60 95 144
62 97 151
62 97 147
60 95 140
61 97 147
60 95 140
61 97 152
61 96 137
61 96 142
61 96 139
62 97 153
61 97 151
61 96 147
60 95 142
62 98 154
62 98 156
60 95 140
61 96 148
61 96 148
61 96 147
61 96 144
61 96 147
62 97 157
61 96 145
62 97 152
61 96 149
62 97 152
61 96 147
61 95 147
60 96 150
61 96 141
60 95 142
61 97 144
60 95 131
61 96 142
61 95 141
61 97 150
60 95 143
62 97 153
60 95 145
60 94 141
61 96 142
61 96 141
60 94 141
60 94 142
60 95 145
62 97 154
61 95 148
60 94 138
61 95 145
60 95 141
61 95 145
60 94 144
60 94 140
62 97 153
59 93 145
60 94 143
60 94 130
60 94 142
60 94 144
60 95 145
60 95 148
59 93 141
57 89 132
58 90 136
59 93 136
57 88 126
59 91 139
58 89 126
57 89 133
58 89 131
56 86 125
56 85 125
58 89 141
57 88 134
52 80 124
155 171 193
217 233 255
217 233 255
216 232 254
153 148 120
111 101 61
122 111 66
94 85 51
124 114 69
112 106 67
111 107 71
103 100 68
109 104 68
102 104 72
98 96 64
114 113 79
109 107 69
119 117 78
112 110 73
116 115 76
118 117 81
117 118 79
120 120 81
128 126 82
119 118 77
129 128 82
133 132 88
138 136 90
130 127 84
139 137 89
133 131 83
146 144 89
143 139 88
148 146 91
139 136 86
149 146 91
150 147 92
150 147 89
153 149 94
146 143 88
154 150 93
151 148 93
156 152 95
157 153 95
157 153 94
152 149 95
153 149 89
164 160 100
165 160 97
164 158 94
163 159 98
164 160 98
165 160 96
169 163 97
165 161 99
162 158 94
171 165 102
167 162 96
170 163 95
171 164 98
174 168 100
166 161 95
171 165 97
168 164 95
170 164 94
169 163 98
174 168 105
170 165 98
172 167 99
173 167 101
169 163 95
174 168 97
173 167 100
176 170 104
174 167 96
174 168 98
171 165 101
174 168 99
171 165 93
174 168 99
176 170 101
172 166 93
173 167 98
171 166 93
172 165 97
172 166 97
171 163 90
173 167 93
173 166 93
174 167 98
171 166 99
171 164 94
170 164 93
170 164 86
175 168 97
176 168 97
174 166 100
176 169 100
173 165 98
174 167 95
172 164 89
165 157 89
175 167 94
172 165 93
170 163 88
172 165 91
168 162 91
174 167 99
169 162 95
169 161 89
167 160 87
172 163 92
171 164 93
173 166 96
174 166 95
169 161 91
170 163 91
167 160 91
169 161 88
170 162 96
170 163 88
172 164 92
175 168 99
170 161 89
173 165 91
170 160 91
167 160 82
171 164 95
169 162 91
171 162 95
170 163 94
170 161 87
170 160 87
170 163 92
168 160 91
171 162 88
169 161 87
166 157 84
169 160 86
169 159 89
165 157 83
167 158 88
167 158 89
167 159 88
167 157 88
172 162 92
167 158 85
169 161 91
168 161 87
167 158 87
162 151 80
212 229 246
216 232 253
217 233 255
214 231 249
215 232 252
216 232 253
216 232 253
216 232 252
215 232 252
213 230 245
214 231 250
214 231 248
216 232 252
215 232 250
213 230 245
212 229 242
213 230 245
212 229 244
215 232 252
212 230 242
213 230 245
212 229 246
213 230 242
213 230 248
214 231 249
214 231 249
214 230 246
215 231 250
214 230 250
211 228 240
214 231 251
216 232 252
212 228 238
214 231 248
214 231 248
213 230 248
215 231 250
214 231 249
212 229 245
214 231 249
213 230 245
215 232 253
211 227 241
213 230 246
213 230 246
211 228 242
214 231 250
213 230 246
213 230 245
215 232 252
213 229 246
214 231 250
210 227 238
208 224 241
210 227 245
214 230 252
213 230 250
210 227 246
211 227 244
212 228 249
207 223 244
212 228 246
209 226 242
212 229 249
213 230 250
210 226 246
210 226 245
212 229 248
208 224 241
213 229 248
211 228 246
212 229 248
211 228 245
211 228 245
210 227 248
214 231 249
213 230 248
213 230 252
214 231 253
213 230 249
213 230 246
213 229 249
212 229 248
212 230 248
213 230 249
215 232 252
215 231 254
212 229 246
212 230 245
213 230 249
214 231 250
213 230 248
212 229 245
213 230 245
212 229 244
215 232 253
213 230 248
212 230 246
214 231 249
212 229 248
214 231 252
212 229 244
214 231 249
211 229 249
213 231 249
212 229 248
213 230 249
209 227 236
214 231 252
212 229 245
213 230 249
214 231 250
212 230 246
212 230 246
214 231 250
211 228 248
208 226 244
210 228 245
207 225 238
203 221 240
205 222 244
207 225 245
201 219 238
207 225 241
204 221 242
201 219 236
204 222 245
204 223 238
198 216 232
202 220 236
201 219 232
205 222 243
202 220 244
205 223 247
203 222 246
204 223 246
170 191 224
206 226 252
201 220 249
206 225 252
205 224 250
206 225 250
206 224 250
202 220 245
214 231 253
216 233 255
217 233 255
217 233 255
217 233 255
217 233 255
100 126 164
60 96 141
59 95 138
61 96 148
62 97 154
60 95 143
60 95 141
60 95 142
60 95 149
60 96 147
60 96 143
60 95 137
62 97 153
62 97 152
61 96 149
61 97 148
60 95 144
62 97 151
61 96 151
61 96 145
60 95 141
61 96 147
61 96 147
61 97 148
60 95 147
61 96 145
61 97 148
61 96 144
61 96 149
61 96 145
61 97 147
61 96 152
61 95 144
60 95 140
61 96 148
61 97 145
61 96 139
61 96 143
61 96 150
59 94 136
61 96 151
62 98 155
62 96 151
60 95 139
61 96 144
60 95 136
60 94 135
62 97 148
60 95 142
60 96 149
61 96 149
62 98 154
60 95 136
61 97 149
60 96 143
61 96 148
61 97 149
61 96 148
61 96 150
61 96 142
61 96 156
61 96 149
62 98 154
61 95 147
61 95 149
60 95 136
61 96 148
59 93 134
59 93 128
59 94 135
61 96 142
60 94 144
60 94 142
59 93 140
61 97 149
61 95 140
60 95 142
58 91 129
60 94 141
60 93 140
61 96 151
61 96 149
61 95 146
60 94 143
60 93 139
61 94 142
60 95 144
60 93 142
59 92 140
60 95 145
58 90 132
57 90 140
56 88 136
56 86 124
58 87 131
56 86 131
57 87 126
55 83 125
53 81 113
78 101 138
217 233 255
217 233 255
203 215 231
134 124 73
128 114 66
113 104 65
103 95 60
109 99 62
101 93 60
104 97 61
99 94 62
106 105 70
100 98 65
112 109 74
115 113 75
111 109 75
109 109 75
118 117 79
117 115 77
120 119 77
121 119 79
121 118 76
120 120 81
127 124 83
131 130 87
132 131 89
128 126 82
127 126 80
141 139 92
139 137 86
141 138 87
141 139 83
143 141 92
138 136 90
144 143 86
145 142 86
147 144 90
151 147 93
158 154 95
153 150 93
160 154 87
156 151 93
152 147 92
154 151 95
157 153 94
158 155 92
165 160 97
163 158 94
168 162 97
166 161 98
155 152 91
161 156 91
158 154 93
162 157 88
162 157 89
165 160 93
167 162 95
170 165 101
161 157 93
169 164 98
169 164 94
166 161 91
168 162 100
168 163 94
165 161 91
175 169 103
176 169 99
170 165 97
171 165 96
171 165 92
172 165 95
166 162 95
173 167 97
174 167 96
174 167 96
177 169 105
177 170 100
173 167 96
173 167 93
172 165 94
170 164 96
173 167 95
174 168 100
173 166 91
174 168 99
172 166 94
172 167 93
173 166 96
175 168 95
174 168 96
175 168 97
171 165 93
176 169 98
174 168 97
173 167 98
177 169 99
173 166 96
173 166 95
168 162 88
171 164 93
174 167 95
172 165 94
173 166 98
168 162 88
172 164 94
167 160 88
176 168 96
171 164 93
173 166 90
171 163 88
170 164 96
172 164 97
170 163 89
169 160 88
168 161 89
172 163 91
170 162 94
168 161 90
169 162 88
173 165 93
170 163 87
172 163 95
172 165 96
165 157 83
172 164 90
167 160 87
170 163 94
174 166 92
167 159 91
169 161 89
165 158 85
169 161 91
169 159 87
170 161 85
167 158 79
163 152 78
165 156 85
168 160 84
167 159 88
170 162 88
166 157 87
169 160 93
167 156 80
166 157 80
165 158 86
163 155 84
166 156 84
167 158 87
166 155 83
164 156 82
215 232 250
215 231 253
216 233 254
216 232 252
215 231 248
216 233 254
215 231 250
217 233 254
215 231 249
215 232 252
214 231 249
215 231 249
215 232 250
215 231 249
214 231 246
211 228 240
215 231 249
213 230 247
213 230 245
213 230 246
214 231 246
214 230 249
212 229 240
212 229 244
214 230 246
213 230 248
212 229 241
214 231 250
212 229 242
214 231 248
215 232 250
213 230 249
215 231 250
214 231 246
216 232 252
213 230 244
215 231 248
215 231 249
215 231 249
213 230 248
214 231 250
213 230 246
211 228 241
214 231 246
215 232 250
215 231 250
213 230 248
213 230 245
213 230 246
213 229 246
210 227 242
213 230 246
214 231 252
212 228 244
215 231 249
213 229 249
212 229 249
213 229 248
214 231 250
211 227 246
208 224 244
214 230 250
210 226 248
212 229 246
212 228 249
213 229 250
215 231 253
209 226 241
209 226 241
209 225 245
209 226 242
214 230 252
210 226 245
212 228 246
213 230 249
213 230 244
212 229 244
209 226 244
212 228 246
211 227 242
212 229 246
210 226 244
212 229 244
212 229 245
212 229 244
213 229 248
210 227 240
213 230 246
214 231 248
213 230 248
214 231 250
211 228 240
211 228 244
213 230 246
215 231 250
212 229 246
212 228 244
212 229 244
212 229 248
214 230 246
215 232 253
215 232 253
211 228 245
212 229 244
214 231 252
213 230 246
211 229 242
213 230 250
212 230 246
214 231 252
214 231 250
210 227 240
212 229 244
215 232 253
209 227 242
212 229 248
209 226 250
210 228 247
207 224 240
202 219 238
201 219 240
204 222 241
202 220 238
206 224 240
207 225 241
209 226 246
207 225 242
205 223 241
205 223 239
205 223 241
203 221 240
202 220 231
206 224 243
202 220 243
202 220 242
202 220 244
161 181 215
177 197 227
209 228 254
204 223 250
202 221 249
201 220 245
205 223 248
206 224 248
207 224 249
216 233 255
217 233 255
218 234 255
218 233 255
202 218 243
61 96 153
60 95 141
61 96 144
60 95 147
61 96 142
61 96 144
61 97 152
60 95 144
61 96 148
61 96 140
61 96 153
62 97 151
61 96 146
60 95 142
62 98 154
61 96 143
61 96 144
61 96 144
61 96 147
61 96 140
61 96 143
61 96 145
60 95 141
61 97 149
59 94 137
62 98 156
61 96 150
61 96 148
62 98 151
60 94 136
60 95 142
60 95 142
62 97 147
60 95 140
61 96 149
60 96 148
61 96 143
62 96 145
61 96 143
61 96 140
60 94 129
61 97 147
59 94 135
59 94 130
60 95 136
61 97 145
61 96 136
61 96 144
61 96 147
62 97 150
61 96 148
61 96 141
60 95 148
61 97 150
62 97 152
61 96 145
61 96 145
61 96 143
60 95 140
61 96 141
61 96 147
61 95 143
60 95 140
61 95 147
61 97 153
60 94 146
61 96 142
61 96 145
60 95 147
61 95 139
62 96 151
61 96 140
61 96 145
61 96 142
62 97 147
61 96 157
59 93 140
59 93 139
60 95 145
60 94 145
60 94 143
60 94 140
60 93 141
60 94 138
60 94 141
60 93 142
60 94 140
60 93 143
59 93 149
58 91 136
59 92 135
58 91 139
57 88 123
58 91 136
58 89 130
57 89 133
56 85 124
58 89 138
55 83 119
55 83 124
202 217 240
218 234 255
181 185 181
120 111 65
124 114 68
110 101 60
101 95 62
100 96 64
97 90 56
104 100 63
106 100 67
99 96 66
95 95 65
107 104 70
103 101 70
104 101 68
104 102 67
100 100 66
112 109 73
116 114 75
114 111 71
115 112 72
129 127 85
128 127 85
127 127 84
128 126 82
137 132 84
128 127 81
135 133 84
131 129 80
138 135 85
133 132 82
142 140 87
140 138 86
140 138 84
143 140 83
142 138 84
150 146 90
140 138 84
146 143 88
154 150 92
154 151 93
151 149 88
150 147 90
159 156 94
155 151 89
161 156 94
155 152 89
161 156 90
156 152 91
158 154 94
164 160 97
164 160 96
158 154 90
162 158 90
163 159 97
167 163 96
168 163 97
169 164 96
168 162 98
168 161 97
169 163 95
161 156 92
169 163 94
168 164 98
167 162 91
172 165 97
172 166 95
168 163 93
170 165 94
171 165 90
167 162 92
172 165 94
168 163 92
171 165 92
172 167 98
174 168 101
176 168 97
170 164 92
172 165 92
167 161 92
171 165 93
172 166 93
176 169 97
172 166 93
173 167 98
171 164 91
173 166 90
176 168 95
173 166 94
171 165 94
175 167 97
170 165 89
171 164 94
174 167 97
172 165 96
171 165 97
173 165 92
172 165 94
168 161 89
174 167 98
171 165 89
172 164 90
174 166 93
170 162 86
171 164 91
172 164 90
170 163 91
171 162 86
170 162 88
173 165 94
172 166 94
174 166 95
174 167 95
172 163 92
171 164 90
169 161 89
170 161 93
169 160 85
171 163 90
169 162 93
170 161 92
168 161 85
169 162 86
171 162 90
171 164 90
173 164 94
167 157 83
172 164 92
166 160 83
167 157 87
165 157 86
168 159 87
167 158 83
166 158 86
170 160 86
167 160 84
165 156 81
168 160 88
169 159 87
169 161 86
171 163 91
171 160 91
163 157 82
168 160 89
163 154 78
166 155 82
165 155 84
164 154 83
164 154 84
217 233 254
216 232 250
218 234 255
216 232 250
216 232 253
214 231 250
217 233 254
217 233 254
216 232 253
218 233 255
216 232 252
217 233 252
216 232 252
215 231 248
216 232 250
215 231 249
213 230 246
214 231 246
211 228 238
213 230 241
215 232 249
212 229 242
216 232 250
214 230 244
212 229 244
214 230 245
215 232 249
213 230 245
214 231 245
214 231 246
213 230 242
214 231 246
215 231 250
214 231 246
213 230 242
216 232 252
217 233 254
215 231 246
214 231 245
216 232 252
213 229 246
215 232 248
215 232 249
215 231 249
215 231 250
215 232 249
213 229 245
214 231 248
211 228 242
214 231 249
213 230 249
215 231 250
214 230 249
210 226 244
214 231 252
211 228 245
215 231 250
212 228 248
212 227 249
215 231 252
212 228 249
212 229 249
210 226 246
212 228 249
212 228 250
212 227 249
209 224 242
211 227 249
210 227 248
209 225 244
210 226 245
211 227 244
210 226 246
211 227 246
214 230 249
213 230 249
216 232 252
214 230 250
214 231 248
213 230 250
213 229 246
211 228 245
214 231 248
213 229 246
214 230 245
212 228 245
212 229 246
211 228 237
211 228 245
213 229 248
215 231 248
213 230 248
213 230 246
214 230 246
213 230 246
213 230 244
214 231 246
213 230 246
214 231 250
215 231 250
213 230 246
213 230 245
214 231 248
213 230 244
213 230 246
215 232 252
215 232 253
214 231 249
214 231 248
214 230 250
214 231 251
211 228 238
214 230 246
208 225 243
211 228 246
210 227 244
210 227 243
210 227 248
206 223 236
203 220 235
206 223 243
208 225 247
211 228 246
206 223 244
205 223 241
205 222 240
204 222 236
200 218 236
198 216 239
206 224 240
203 221 227
202 220 230
209 226 246
207 224 242
209 226 248
205 222 242
200 218 244
76 108 165
193 212 241
206 225 250
206 225 248
204 222 249
206 224 249
201 219 244
195 212 239
216 233 255
217 233 255
218 234 255
218 234 255
173 191 218
62 97 151
60 95 142
61 97 155
60 95 139
60 95 153
62 97 152
60 95 141
60 95 141
61 96 149
61 96 143
61 96 143
61 96 144
60 94 136
62 97 143
60 95 142
61 97 151
61 96 142
61 96 145
62 97 150
60 95 144
61 96 145
61 96 143
60 94 137
60 95 140
61 96 140
61 97 149
60 95 129
61 97 145
60 95 137
63 98 150
61 96 147
60 96 145
62 97 153
60 95 140
60 94 129
61 96 151
61 96 153
61 96 139
61 96 142
60 95 141
61 96 151
61 96 151
60 95 141
61 96 147
60 95 133
60 95 135
60 94 136
60 95 142
61 96 148
61 96 148
60 95 131
61 95 139
60 95 141
60 96 139
62 98 159
63 98 152
60 95 143
60 95 140
59 93 133
60 95 140
60 95 139
60 95 140
60 95 141
60 95 139
61 96 143
60 94 134
59 94 128
60 94 142
60 94 134
61 95 139
61 95 143
60 95 143
59 94 137
60 93 139
60 95 138
60 94 142
61 95 150
60 94 142
60 94 140
60 93 146
59 92 135
60 93 144
60 94 144
60 94 147
59 92 136
59 92 137
59 92 139
59 93 136
58 90 134
59 93 140
58 90 141
58 89 140
58 90 134
58 91 133
58 87 123
57 88 133
57 87 127
56 86 124
55 85 125
53 80 112
171 187 209
218 234 255
159 157 145
115 105 65
118 107 62
99 92 58
105 94 57
107 100 63
92 87 58
104 98 65
104 98 63
99 93 60
102 101 67
107 106 72
98 96 64
105 104 72
97 97 63
103 103 68
103 102 66
111 111 73
103 102 66
127 125 80
126 124 81
124 122 78
124 122 80
126 124 79
135 133 86
134 132 84
131 130 83
136 135 83
152 148 93
131 130 79
143 139 89
150 146 84
142 140 85
147 145 88
141 138 81
146 143 90
144 142 86
148 145 89
152 149 88
151 146 84
152 149 88
150 147 88
159 153 93
160 156 94
162 157 99
160 157 95
159 155 88
159 154 91
165 159 96
161 155 92
169 163 97
162 157 89
161 156 91
158 154 87
167 161 94
169 163 98
168 163 95
170 164 95
171 164 95
171 165 92
170 164 96
168 163 97
169 163 92
166 162 93
173 167 96
170 164 94
170 163 93
172 167 97
170 164 96
174 168 100
168 163 92
174 168 96
172 165 95
168 163 89
173 167 95
175 169 98
168 162 93
171 164 93
170 163 91
175 168 97
173 167 96
171 166 90
177 169 98
174 167 96
172 165 93
175 169 101
174 167 98
173 166 93
175 167 96
177 170 98
172 166 93
174 166 91
173 167 97
171 164 92
171 165 87
171 165 88
169 162 90
174 167 95
172 165 95
170 164 90
170 163 89
166 159 85
170 163 93
171 164 88
174 167 95
168 160 87
174 165 94
168 162 88
170 162 85
174 166 95
171 164 94
169 161 90
169 162 91
168 161 88
174 166 91
172 165 96
170 162 88
170 162 94
168 161 89
172 164 88
171 164 91
174 166 96
168 159 84
171 163 92
169 162 93
171 163 89
172 165 91
171 163 94
171 163 93
166 157 83
169 161 90
170 161 88
169 161 89
173 163 93
170 161 86
164 156 86
165 156 80
168 159 85
170 162 91
164 155 83
168 157 88
172 163 94
164 155 84
168 158 86
162 153 80
168 158 84
166 157 88
164 155 83
217 233 253
217 233 254
217 233 254
216 232 250
215 232 248
216 233 252
217 233 254
217 233 253
217 233 254
218 233 254
216 232 254
215 232 250
216 232 249
216 232 253
215 231 246
214 231 245
214 230 244
213 229 242
212 229 240
215 231 248
215 232 250
213 229 244
215 231 246
213 230 244
211 228 238
215 232 248
213 230 243
213 230 246
214 230 245
215 232 248
214 231 245
211 228 236
213 230 242
215 231 250
217 233 253
213 229 242
216 232 249
215 231 248
213 229 244
214 230 244
214 231 246
214 230 244
213 230 242
215 231 248
216 232 249
215 231 250
215 231 250
213 229 245
215 231 249
215 231 246
212 228 248
215 231 249
217 233 254
213 229 248
207 223 241
206 222 240
212 228 247
208 224 243
212 228 250
212 228 248
212 228 249
211 227 247
211 227 248
212 228 250
210 225 246
213 229 250
211 227 248
207 223 244
212 227 248
212 228 245
213 229 249
211 227 244
213 229 248
215 232 253
214 230 248
209 225 244
213 229 245
216 232 252
211 228 246
210 227 241
214 230 249
212 229 248
213 230 248
213 229 245
211 227 241
214 230 249
213 229 246
212 229 242
213 230 248
214 231 248
213 230 246
215 232 250
215 231 250
215 231 248
216 232 250
213 229 244
215 231 250
215 232 250
215 231 249
212 229 241
213 229 245
213 229 244
215 231 250
215 232 250
215 231 249
213 229 245
214 231 248
215 231 249
213 230 246
214 231 248
214 231 248
214 231 248
214 231 246
213 230 244
213 229 250
208 226 246
206 223 243
204 221 238
208 225 240
206 223 242
208 225 242
208 225 236
198 216 232
204 221 236
210 226 246
207 224 238
209 226 241
202 220 230
211 228 244
200 218 231
205 223 238
205 223 228
203 220 238
198 216 235
204 221 246
205 222 244
203 221 247
111 135 175
107 132 173
202 220 246
207 225 251
207 225 250
201 219 246
201 218 244
199 217 242
207 223 247
217 233 255
218 234 255
218 234 255
156 175 203
60 95 150
60 95 145
60 96 145
61 96 151
60 95 143
60 95 142
61 96 149
60 95 142
60 96 147
62 97 153
61 96 145
61 96 149
60 95 140
60 95 143
60 95 137
60 95 145
60 95 135
60 95 140
59 94 139
60 95 147
60 95 141
61 96 143
60 95 136
61 96 143
60 96 136
60 95 137
60 95 136
60 95 145
61 96 148
61 96 150
61 96 147
60 95 145
60 96 142
61 95 143
60 95 136
60 95 141
61 96 140
60 95 143
62 97 147
61 96 148
61 96 145
60 95 139
62 97 153
60 95 140
61 95 149
60 94 136
61 96 144
61 97 144
61 96 151
60 96 142
61 96 149
61 96 143
61 96 144
62 97 149
61 95 147
62 97 151
59 93 134
61 96 143
59 94 129
61 96 142
62 97 153
59 93 129
60 95 140
61 96 147
61 96 143
61 96 145
62 97 147
60 94 131
60 95 144
59 94 141
59 92 130
62 96 151
61 95 146
60 95 141
61 96 146
60 93 136
59 93 140
60 95 146
60 93 141
59 93 140
59 92 137
60 94 140
58 91 127
61 94 142
59 92 143
58 91 128
60 94 150
59 92 131
56 87 122
58 89 129
59 91 143
58 90 138
59 92 135
59 90 135
56 86 121
57 88 132
56 84 116
56 87 133
55 84 119
54 82 116
153 169 193
217 232 253
123 109 71
126 117 71
101 93 58
104 93 56
101 95 60
105 96 63
99 92 60
92 87 58
99 95 63
94 93 64
102 99 68
94 90 59
95 90 57
108 107 73
100 100 69
116 115 72
104 104 71
106 104 70
121 120 81
130 128 83
129 128 87
116 117 78
125 122 77
127 127 82
128 127 80
130 128 82
131 130 78
144 142 86
137 136 86
146 142 87
134 133 84
141 139 84
139 136 83
147 145 87
150 147 91
152 148 92
153 149 89
157 152 94
154 150 93
152 150 88
154 150 91
160 156 93
155 152 92
157 154 89
155 152 90
159 154 89
162 157 95
168 162 97
163 158 92
158 154 95
166 160 94
160 156 86
160 154 92
165 160 93
159 154 87
170 164 94
166 160 90
171 166 99
168 162 95
171 165 91
166 161 94
170 164 94
170 165 97
169 164 93
171 166 96
168 163 90
167 162 93
169 164 92
178 170 99
169 163 93
169 163 93
166 161 86
170 165 94
174 167 96
168 163 90
175 168 90
171 165 94
173 166 95
170 163 97
172 166 95
171 165 94
173 166 96
171 166 92
175 167 96
175 167 95
171 165 90
174 167 96
172 165 92
172 164 92
176 168 97
169 164 87
171 165 94
169 162 89
174 167 96
173 166 92
171 164 91
173 164 89
173 166 93
175 167 95
172 163 88
172 164 90
167 160 84
170 164 89
173 164 97
170 161 92
174 167 94
172 164 89
175 168 96
170 163 87
172 166 94
169 161 88
172 163 90
174 167 97
169 162 88
170 164 90
173 165 95
167 160 91
172 163 88
174 166 94
169 161 89
168 161 87
170 161 87
168 161 89
171 164 89
165 159 86
168 159 90
171 164 93
169 162 88
167 160 84
170 160 83
164 156 87
169 161 85
173 163 89
167 159 81
172 164 94
170 162 91
169 160 91
168 161 91
165 157 85
171 162 90
170 161 82
166 157 85
167 158 81
170 161 91
166 157 88
159 147 73
167 158 87
162 151 79
218 234 255
218 234 255
218 234 255
217 233 255
217 233 252
217 233 253
218 234 255
216 232 250
218 234 255
217 232 252
218 233 253
216 232 249
216 232 251
216 232 250
217 233 253
216 232 249
215 231 246
215 231 246
214 231 242
216 232 250
213 230 242
216 232 249
213 230 241
215 231 249
214 230 246
214 230 242
215 231 246
213 230 240
213 229 241
213 230 244
215 231 248
215 231 245
213 229 244
215 231 249
215 231 246
216 232 249
215 231 246
215 232 248
214 230 245
214 230 242
216 232 250
214 230 246
215 231 245
216 232 249
213 229 244
216 232 252
216 232 249
214 230 248
213 229 244
212 229 245
213 230 245
215 231 249
215 230 252
210 226 245
213 229 250
213 229 248
211 227 248
210 226 246
213 228 250
213 228 250
212 228 249
215 230 252
215 231 253
214 229 250
209 224 245
208 224 246
213 229 250
212 228 250
213 229 250
211 227 246
211 226 246
212 227 246
214 230 250
214 230 248
211 227 244
212 228 248
215 231 249
215 231 250
214 230 246
212 229 241
213 229 240
214 230 245
216 232 252
214 231 248
215 231 250
211 228 241
216 232 252
215 231 249
214 230 246
214 231 249
215 231 249
214 230 246
214 231 249
214 231 246
214 231 248
214 231 248
216 232 252
214 231 245
214 231 246
215 232 249
213 230 242
215 232 249
214 231 248
213 229 244
214 230 246
215 231 246
215 231 248
216 232 252
215 231 248
212 228 240
215 231 248
213 230 244
209 226 242
213 230 246
213 229 246
210 227 244
211 227 246
209 226 242
210 226 243
207 223 239
201 218 236
206 223 240
202 219 233
205 222 243
206 224 236
208 225 240
202 219 234
205 223 237
208 224 241
204 221 236
206 224 232
205 222 236
209 226 243
204 221 243
206 223 246
201 219 242
206 224 244
161 180 207
70 102 157
163 183 217
207 224 249
213 231 255
209 226 250
204 222 248
209 226 251
194 211 236
217 233 255
218 234 255
218 234 255
115 138 175
60 94 135
60 94 145
60 95 133
60 95 142
59 93 126
59 94 145
59 94 133
61 97 151
61 96 139
59 94 133
60 95 140
60 95 144
62 98 153
61 97 149
60 95 141
60 95 140
59 94 135
61 96 141
61 96 144
61 96 143
61 96 147
61 95 139
60 95 145
60 95 136
61 96 145
61 96 142
62 97 148
60 96 139
61 96 144
61 96 135
60 95 143
61 97 147
61 97 144
61 97 148
62 97 149
62 97 147
61 96 148
61 96 145
61 96 145
60 96 145
62 97 148
59 93 131
61 96 150
61 96 145
60 95 137
61 96 148
62 98 150
62 97 148
62 97 154
59 94 133
59 93 130
61 96 147
61 95 139
61 96 140
61 95 136
60 94 145
62 96 147
62 97 144
59 94 134
60 95 138
60 95 141
60 95 141
61 96 142
60 95 141
60 95 139
60 94 148
60 95 136
59 94 133
59 93 134
61 95 144
61 96 149
60 95 144
59 92 130
59 94 142
59 93 144
60 94 141
60 94 143
60 95 147
58 90 130
59 92 128
60 94 142
60 93 143
60 93 143
60 94 143
60 95 148
59 93 146
60 93 135
59 91 136
59 92 128
58 91 137
59 92 139
59 91 140
58 89 133
55 86 130
56 87 125
55 84 119
56 86 128
57 88 133
54 84 125
52 80 115
137 152 176
204 213 222
119 106 57
116 103 58
104 97 59
91 80 47
93 85 55
93 84 51
81 79 54
86 81 53
96 90 57
80 80 56
91 93 65
103 100 67
100 101 69
109 107 71
100 99 65
111 108 71
111 109 72
111 111 74
114 114 75
114 113 72
121 119 72
126 124 80
120 119 76
122 119 73
117 116 72
133 131 79
123 120 75
134 133 79
132 129 81
130 130 80
146 142 89
137 135 84
143 141 85
150 146 87
140 137 80
150 146 87
148 146 90
148 145 87
149 145 87
148 144 88
147 144 85
156 152 91
151 148 90
145 143 83
157 153 86
152 149 93
164 158 90
157 153 84
167 162 97
160 156 89
167 162 96
163 157 89
166 160 92
168 162 94
164 160 94
163 159 83
166 160 92
165 160 91
165 160 93
167 160 90
169 164 95
169 164 94
169 163 89
169 164 95
168 163 92
173 167 96
170 164 92
171 164 95
171 164 94
170 165 95
175 168 95
172 166 91
169 164 89
175 168 92
169 163 90
171 164 91
173 166 92
173 167 95
176 167 98
170 164 86
173 166 93
174 167 98
172 165 92
172 166 96
174 167 97
174 166 94
172 165 90
172 165 91
172 165 90
176 168 98
171 164 91
171 164 90
176 169 101
174 167 94
169 162 86
173 165 94
174 166 93
170 163 88
176 169 93
173 166 91
170 163 87
171 163 90
173 165 95
175 167 95
167 159 90
170 162 91
172 165 94
174 166 93
172 165 90
169 162 80
170 162 87
167 161 85
171 162 90
171 164 90
169 161 90
172 164 89
166 158 84
172 164 88
169 160 89
167 159 82
170 161 86
172 163 87
169 160 84
171 163 88
168 161 86
165 157 89
168 159 83
170 161 86
169 161 89
166 157 78
168 161 87
169 161 85
170 162 88
170 161 89
170 161 87
168 160 84
166 156 84
165 155 84
168 158 89
170 159 85
168 160 86
168 160 91
167 158 85
161 151 77
170 159 87
162 155 83
167 156 84
164 154 84
218 233 253
218 234 254
218 234 254
218 234 255
217 233 253
218 233 253
216 232 250
218 234 254
217 233 253
218 233 253
218 234 254
219 234 255
218 233 253
218 233 253
216 232 249
216 232 250
216 232 252
217 233 255
215 231 244
214 230 241
213 230 242
213 229 237
215 231 244
216 232 249
214 230 246
216 232 246
216 232 250
215 231 244
214 231 246
215 231 250
216 231 249
215 231 245
214 230 244
216 232 246
216 232 246
216 232 248
217 232 249
215 232 246
217 232 250
215 231 246
215 231 245
216 232 249
213 229 240
218 233 253
215 231 245
217 233 250
213 229 240
216 232 250
217 232 250
213 229 244
211 227 243
212 228 246
211 227 245
214 229 249
212 228 248
209 225 244
211 227 247
213 229 251
207 222 242
212 228 248
213 228 249
213 229 251
212 228 249
208 224 246
207 222 242
215 231 252
214 229 251
207 223 244
212 227 248
213 229 250
212 228 249
212 228 248
214 229 249
213 228 249
215 230 248
212 228 244
215 231 248
215 231 249
215 232 250
214 230 250
214 230 245
214 230 246
215 231 248
216 232 249
212 228 240
214 230 249
214 230 241
215 231 246
214 230 241
214 230 246
214 230 246
214 230 246
215 231 246
213 230 242
215 231 249
214 230 244
214 231 245
216 232 249
214 231 245
217 233 252
215 231 246
216 232 248
212 228 237
214 231 245
214 231 246
214 230 242
216 232 252
215 231 245
215 231 248
215 231 248
214 231 245
212 228 240
210 226 245
207 223 241
212 228 245
211 227 248
213 230 248
205 221 236
205 222 242
205 222 238
206 223 244
209 225 244
205 222 236
205 222 238
211 227 246
208 225 243
206 223 236
206 223 235
211 227 246
198 215 231
204 221 234
210 227 244
204 221 244
210 227 248
206 223 242
205 222 240
205 222 244
179 197 223
75 105 155
83 112 164
204 222 246
206 223 248
205 223 248
206 223 248
202 219 243
206 223 246
212 228 250
219 234 255
219 234 255
85 113 161
60 95 151
60 95 137
61 97 147
58 93 128
61 96 145
60 95 142
60 95 148
59 94 137
61 97 147
60 95 144
59 94 135
60 95 134
60 95 133
60 95 143
61 95 140
61 96 145
60 95 139
60 95 144
62 97 147
61 96 135
60 94 141
61 96 143
62 97 143
60 95 139
62 98 155
60 94 141
61 96 145
60 95 136
61 96 141
61 96 147
61 97 151
61 96 143
60 95 140
61 96 143
60 95 141
62 97 143
61 97 148
62 97 145
60 95 141
61 96 145
62 96 145
59 94 131
60 95 141
60 95 143
59 94 139
61 96 143
61 96 148
62 98 151
60 95 142
62 97 151
61 96 141
61 96 147
62 97 151
60 95 138
61 96 147
60 95 139
59 94 131
61 97 148
59 94 137
61 96 144
61 96 140
59 94 133
61 96 150
61 96 142
61 96 140
61 96 149
60 95 142
61 96 141
62 97 156
59 94 141
60 95 139
60 94 141
59 93 130
59 93 131
60 94 139
60 94 138
60 94 139
59 91 132
59 93 130
57 90 125
60 94 136
60 94 139
59 93 137
61 94 142
59 91 125
59 91 133
58 91 132
60 93 140
58 91 134
57 89 123
59 91 133
60 93 143
58 90 142
57 88 125
58 90 134
56 86 126
58 90 138
56 87 129
57 87 127
55 83 116
71 90 115
186 194 201
120 109 60
96 84 42
98 87 50
99 90 55
93 85 51
90 85 56
91 85 52
92 83 51
86 84 57
87 88 61
91 87 55
88 87 60
100 98 66
90 90 63
96 96 66
101 101 68
103 103 65
118 117 73
105 106 72
103 106 67
126 124 78
126 123 75
130 129 82
130 128 80
131 129 86
134 132 77
128 124 72
128 126 80
133 132 83
133 130 79
133 131 82
144 140 83
149 145 86
140 137 86
149 144 83
145 140 85
149 145 90
153 148 85
146 143 85
151 147 84
154 150 89
151 148 90
151 147 84
159 155 85
163 158 91
152 148 87
158 153 88
165 160 94
159 155 91
160 156 90
159 154 88
161 156 90
166 160 95
160 156 92
167 162 94
161 156 85
165 160 91
169 163 95
167 162 91
163 158 89
167 161 92
162 157 84
165 160 91
171 164 93
170 164 96
170 163 90
171 165 97
169 164 90
174 168 97
169 163 91
169 164 89
173 167 95
174 167 100
171 165 91
171 165 94
170 165 88
171 165 93
170 164 89
171 166 90
170 164 85
173 166 91
173 167 93
174 168 96
168 163 87
175 168 95
175 169 97
172 165 88
172 166 91
171 164 88
170 164 87
170 162 88
172 165 91
171 164 84
172 164 91
175 167 91
173 167 93
174 165 90
174 165 94
175 169 96
168 161 86
174 167 95
170 163 90
168 161 90
172 164 89
169 164 89
170 163 91
172 166 93
175 167 95
172 165 92
168 161 77
171 164 89
166 159 87
170 162 93
171 162 89
174 167 97
169 161 85
169 162 85
170 162 86
169 161 85
169 162 88
162 153 76
172 162 88
170 160 87
165 157 82
169 160 85
171 163 89
170 162 87
169 162 90
167 159 83
169 161 90
168 161 85
172 164 91
169 161 89
167 160 87
168 161 89
167 161 87
166 156 79
166 157 83
169 160 91
170 161 89
167 158 83
166 158 81
168 158 86
168 158 80
171 161 90
167 159 87
170 160 85
166 156 85
219 234 255
218 234 254
218 234 254
218 234 253
219 234 254
218 234 254
219 234 255
219 234 254
218 233 252
218 234 253
218 234 253
219 234 254
218 233 253
220 235 255
218 234 254
216 232 245
216 232 249
218 233 252
216 232 250
216 232 246
217 233 252
215 231 244
215 231 245
216 231 246
215 231 246
215 231 247
216 231 248
216 231 245
216 231 248
216 231 245
215 231 244
217 232 249
216 232 246
216 232 246
216 231 246
216 232 246
217 233 250
216 232 249
215 231 242
215 231 245
216 232 248
214 230 244
217 233 250
213 230 242
218 233 253
214 230 244
216 232 249
215 231 246
216 232 251
216 232 252
214 229 249
214 229 249
213 229 247
207 223 242
215 231 252
216 231 252
215 231 252
207 222 241
213 229 250
212 228 249
210 225 245
209 225 245
218 233 255
213 229 250
210 226 248
213 228 249
212 227 248
214 229 250
204 220 241
207 223 243
210 226 246
214 230 250
211 227 246
214 229 248
215 231 248
215 231 248
215 231 249
215 231 249
213 229 244
216 232 250
217 233 250
215 231 248
211 227 240
216 232 249
215 231 249
215 231 246
215 231 246
212 228 238
215 231 248
215 231 248
214 230 242
212 228 242
215 232 248
216 232 250
215 231 246
216 232 249
215 231 245
216 232 249
216 232 249
216 232 248
216 232 249
216 232 248
217 233 252
215 231 245
213 230 240
215 231 245
215 231 245
213 230 242
213 229 242
216 232 248
215 231 245
214 230 249
210 227 240
210 226 242
211 227 246
208 225 238
208 225 239
207 223 236
210 226 242
207 224 238
209 225 238
213 229 248
211 227 245
207 223 244
207 224 238
206 223 238
202 218 231
211 228 242
208 224 240
200 217 231
199 217 228
205 221 238
206 222 240
205 222 243
209 225 248
205 222 240
208 224 246
207 224 244
66 98 147
73 104 150
170 189 218
209 226 250
207 224 246
208 225 248
204 220 244
207 223 247
207 223 248
219 234 255
203 218 240
60 95 142
60 96 149
60 95 142
60 96 148
59 94 130
60 95 143
60 94 138
60 95 142
62 97 147
61 95 143
60 96 144
60 95 139
61 96 144
60 96 148
61 97 147
60 95 144
62 97 153
60 95 135
60 95 143
60 95 137
60 95 136
61 96 145
61 96 152
60 95 141
60 95 140
61 96 144
60 95 139
60 94 130
59 94 124
60 94 137
61 96 150
61 97 144
60 95 140
60 95 140
60 96 139
60 95 142
59 93 126
61 96 143
61 96 139
61 96 141
60 95 142
62 97 152
62 96 147
60 95 141
61 96 151
62 97 152
60 95 134
60 95 141
61 95 140
62 97 148
61 96 143
60 94 140
61 96 145
62 97 151
62 97 142
59 94 132
60 94 148
60 94 142
61 96 146
60 94 135
61 96 147
61 96 141
59 93 133
62 97 149
60 94 137
58 92 134
60 94 135
60 95 142
60 95 145
61 95 133
60 95 142
60 95 144
59 93 140
60 94 141
61 96 141
60 94 138
60 95 140
61 96 145
59 92 136
61 95 141
59 93 131
59 93 137
60 94 137
60 94 144
60 94 144
59 93 143
59 93 128
58 91 133
57 89 121
58 91 137
58 89 124
58 89 132
58 90 132
58 89 136
58 90 133
54 83 127
57 87 131
55 85 121
54 83 121
55 84 119
53 79 114
52 77 107
160 159 146
120 109 60
106 94 53
92 81 46
97 88 53
86 81 50
87 83 53
81 78 51
77 75 52
80 78 48
92 88 57
90 90 60
90 88 58
95 95 66
91 90 57
102 100 63
92 92 62
112 111 71
93 93 61
115 115 77
113 113 72
117 117 71
119 120 74
125 124 80
140 136 86
131 128 77
136 133 80
135 133 82
126 125 72
138 134 77
130 128 76
123 124 76
136 136 79
144 141 80
148 145 86
140 138 83
150 145 88
141 138 82
151 148 88
151 149 86
154 150 92
147 143 84
154 151 85
153 150 88
157 153 86
156 152 93
157 152 82
162 157 93
148 145 86
158 154 92
163 157 92
158 154 85
159 154 87
167 161 90
163 159 89
162 157 86
159 156 91
168 163 93
162 158 85
170 165 92
169 163 93
170 164 91
165 159 89
170 164 92
168 162 85
168 163 90
171 164 89
171 164 92
173 166 93
170 164 94
170 164 87
172 165 90
166 160 87
173 166 94
171 164 85
168 163 91
173 167 89
176 168 97
169 162 83
173 166 93
170 165 88
172 165 90
175 168 93
176 168 93
174 166 91
169 163 89
176 169 94
171 164 93
172 165 87
174 166 88
168 162 84
172 165 90
167 160 82
174 166 91
171 165 88
171 165 90
173 166 91
172 165 88
175 167 91
173 166 93
171 164 85
168 162 85
172 165 89
173 165 89
170 164 91
171 162 85
170 162 89
168 161 86
169 162 88
171 162 90
172 166 92
171 165 90
173 165 86
171 164 91
169 162 89
170 165 92
169 162 89
170 163 86
168 161 89
168 162 86
167 159 86
166 158 85
166 158 84
169 159 84
165 157 83
171 162 92
170 161 90
169 161 89
164 155 80
171 162 94
168 160 88
166 157 83
167 158 81
169 158 86
167 158 88
164 154 80
168 160 88
168 158 84
165 157 77
167 158 80
172 163 93
170 160 88
169 160 87
169 159 87
164 155 81
168 159 86
169 160 85
164 155 76
169 159 88
219 234 255
219 234 254
219 234 255
219 234 254
219 234 254
219 234 254
219 234 254
219 234 254
219 235 255
220 235 255
219 234 254
218 233 252
219 234 255
218 233 252
219 234 255
220 235 255
214 229 250
218 234 253
216 231 249
216 232 251
218 233 252
219 234 254
217 232 248
215 231 244
217 233 249
218 233 252
215 230 244
217 233 249
217 232 248
216 232 249
216 232 245
215 231 241
217 233 249
216 232 246
218 233 252
216 232 246
216 232 246
216 232 249
215 231 245
217 232 248
216 232 246
216 232 246
216 232 245
215 231 244
216 232 248
214 230 242
218 234 254
215 231 245
213 229 248
216 231 250
215 231 251
214 230 249
216 232 252
213 228 250
207 223 244
210 225 246
211 227 247
210 225 247
214 229 249
208 224 243
215 230 252
217 232 253
211 226 248
211 226 248
210 226 246
208 224 243
213 229 250
212 227 247
213 228 249
211 227 248
213 228 248
213 229 249
213 228 248
208 224 239
216 231 249
214 230 245
216 231 246
212 228 240
214 230 242
216 232 249
214 230 246
215 231 245
214 230 242
218 233 252
218 233 252
215 231 246
217 232 250
218 233 254
216 232 248
214 230 240
215 231 245
213 229 240
216 232 246
212 228 240
216 232 246
216 232 248
215 231 245
216 232 246
216 232 248
216 232 248
217 233 252
214 230 244
214 230 244
214 230 242
216 231 246
216 232 248
218 233 253
216 232 246
216 232 248
214 231 246
215 231 244
213 229 244
212 228 240
211 227 245
211 227 240
215 231 246
211 227 242
208 225 242
209 225 240
210 226 243
211 227 241
211 227 241
207 223 239
210 226 241
206 223 241
206 222 240
211 228 244
201 218 232
211 227 246
203 220 233
207 224 239
210 227 239
206 222 240
210 226 245
209 225 243
209 225 246
205 221 246
207 223 244
105 129 174
66 98 149
122 144 185
210 227 250
211 227 250
212 228 251
207 223 244
199 215 240
197 213 236
219 234 255
199 215 237
59 93 139
59 94 131
60 95 150
62 97 145
60 96 148
60 95 142
58 93 135
61 96 141
61 96 143
61 96 150
60 95 139
60 95 140
60 95 135
59 94 130
61 96 143
61 96 142
62 97 147
61 96 134
60 96 139
60 96 142
61 96 147
61 97 147
61 96 143
62 97 152
60 95 137
59 93 126
60 95 140
60 94 130
59 94 139
61 96 144
60 95 135
60 95 143
59 93 134
62 97 151
60 95 142
62 98 154
61 96 136
61 96 144
60 95 139
61 96 143
59 93 130
60 94 134
60 95 136
60 94 139
62 97 145
60 94 133
59 94 135
60 94 141
61 96 141
60 95 134
60 95 137
61 96 142
60 96 141
59 94 136
60 94 136
60 95 143
61 95 143
60 95 140
60 94 139
61 95 139
60 95 141
60 94 141
59 94 128
61 95 141
61 95 141
61 96 140
61 96 145
60 94 146
59 93 134
60 95 141
61 96 146
61 95 148
60 94 139
60 95 143
61 96 149
61 95 144
59 93 134
62 96 147
58 92 137
60 94 140
60 94 136
59 92 130
60 95 139
59 92 133
60 93 128
60 94 141
58 91 130
59 91 134
59 92 130
59 92 140
58 90 137
57 89 130
59 91 135
58 89 125
59 92 147
56 85 117
56 86 122
56 86 120
54 82 111
56 84 114
53 80 109
50 75 96
128 117 76
89 81 48
90 76 39
94 83 47
81 72 42
78 71 43
79 71 43
84 75 43
84 83 53
82 81 56
79 81 57
88 86 56
91 88 59
86 83 49
94 94 61
87 90 61
95 95 65
99 97 60
105 103 64
113 111 71
112 112 68
110 108 72
121 120 76
120 119 75
119 117 72
126 124 77
127 124 77
122 121 75
135 131 76
132 129 75
134 132 78
140 137 81
136 135 80
141 138 82
146 143 82
142 139 81
144 142 80
145 142 83
143 141 86
144 141 85
148 144 85
147 144 85
156 152 87
153 148 82
165 159 96
149 146 82
152 148 86
162 156 87
161 157 86
169 163 94
155 151 82
164 158 89
166 160 91
161 157 91
168 163 89
162 157 89
163 159 92
165 159 85
165 160 90
165 160 89
166 161 91
168 163 90
167 161 88
161 156 87
171 165 95
167 161 89
171 165 94
165 160 88
168 163 88
171 164 95
166 160 86
170 164 92
175 168 95
171 165 90
166 161 87
173 166 92
171 165 88
172 165 93
171 163 86
169 163 86
173 167 96
171 164 88
170 165 87
170 163 87
173 166 94
168 161 84
171 164 87
169 164 88
170 163 88
174 167 95
173 165 89
173 165 90
171 164 86
173 167 94
172 165 93
170 163 90
173 166 88
169 163 82
176 169 99
174 167 91
170 163 85
176 167 92
172 165 92
169 162 89
170 163 91
173 165 93
169 162 82
174 166 94
172 164 91
172 166 90
172 165 89
171 163 89
169 161 83
171 163 91
167 159 85
172 163 89
168 159 87
168 160 85
170 161 88
170 161 84
171 162 89
169 161 84
170 162 88
164 156 80
166 159 85
171 162 89
165 158 85
169 161 85
171 163 87
167 160 83
171 163 91
167 158 88
169 160 90
164 156 82
169 159 84
167 158 84
164 153 81
168 160 83
167 159 84
165 157 83
166 155 82
169 159 90
165 156 84
166 157 86
169 161 86
170 160 86
163 154 77
165 156 79
164 156 81
220 235 255
220 235 255
220 235 255
220 235 255
220 235 255
220 235 255
220 235 255
220 235 255
219 235 255
219 234 254
220 235 255
220 235 255
219 234 254
220 235 255
219 234 255
220 235 255
220 235 255
219 234 255
219 234 255
219 234 255
219 234 254
220 235 255
219 234 253
219 234 253
216 231 242
219 234 253
216 232 249
218 233 254
218 233 252
216 231 246
216 232 245
218 233 252
217 233 249
216 232 248
217 233 249
218 233 250
216 232 245
217 232 248
217 233 249
217 233 249
216 232 245
214 230 242
218 233 252
216 232 246
217 233 249
217 233 248
217 233 248
215 230 248
214 230 246
211 227 242
215 231 250
218 233 254
214 230 251
211 227 248
213 229 248
212 227 248
210 225 245
214 229 249
209 224 244
206 221 243
211 226 246
214 230 252
213 229 249
213 228 249
209 224 246
213 228 249
210 225 245
207 222 242
214 229 248
212 227 248
214 229 250
215 230 251
215 230 252
215 230 250
215 230 251
214 229 244
217 232 249
215 231 245
216 232 245
217 232 250
214 230 245
218 233 250
217 232 250
213 229 240
215 231 244
217 233 249
215 231 245
215 231 244
218 233 250
216 232 246
217 233 249
217 233 250
217 232 249
215 231 245
214 230 240
218 233 250
218 233 250
217 233 250
216 231 248
217 232 252
215 231 245
216 232 245
217 233 249
213 230 238
217 233 250
218 233 252
215 231 242
215 231 245
214 230 243
216 232 250
215 231 246
212 228 244
213 228 248
214 229 248
214 229 249
211 226 239
199 215 225
206 222 238
202 218 233
210 226 239
208 224 240
203 219 234
206 223 234
209 226 238
209 225 244
210 226 239
206 222 242
212 228 242
211 227 240
205 222 239
211 227 246
206 222 243
208 223 247
207 223 246
204 220 242
210 226 248
207 223 244
206 222 245
132 153 183
91 117 160
84 112 157
196 213 240
211 228 250
207 224 246
204 221 243
209 225 250
203 219 241
216 232 254
179 196 217
59 94 147
60 96 148
60 95 138
61 96 148
60 95 143
59 93 128
60 95 142
60 95 136
61 96 145
61 97 145
60 95 141
60 94 135
60 94 137
61 96 143
60 95 145
60 94 130
60 95 137
60 95 136
62 97 152
60 95 140
60 94 134
60 94 133
60 95 136
60 94 139
60 95 134
61 97 153
60 95 141
59 94 136
60 94 133
60 95 136
61 96 142
59 94 131
58 93 140
59 94 124
60 95 135
61 96 144
60 94 142
59 94 139
60 94 133
60 95 139
60 95 137
61 96 141
61 96 140
59 94 135
60 94 134
59 93 134
59 94 133
60 95 133
61 96 148
61 96 142
59 94 139
61 96 139
60 95 139
58 93 130
61 96 149
60 95 140
60 95 145
60 95 138
60 94 135
60 95 141
60 95 141
61 95 143
60 93 132
60 94 140
60 96 140
59 94 133
59 94 137
59 94 139
59 93 132
60 94 137
60 95 139
61 95 146
60 94 137
59 92 137
60 94 136
59 92 128
60 94 136
60 94 144
60 94 139
60 94 135
59 92 130
59 93 136
59 92 128
59 92 128
59 93 134
60 93 137
58 91 132
60 94 137
58 91 122
59 92 136
57 87 108
59 91 132
58 89 128
56 85 116
58 89 123
58 89 129
57 88 121
56 86 121
54 83 105
56 86 124
55 84 124
50 76 101
100 94 70
103 87 42
95 78 30
95 82 43
93 83 49
73 72 46
80 74 45
79 73 44
81 75 41
90 87 55
90 89 60
77 76 48
89 90 58
89 89 59
100 98 61
100 97 61
106 105 67
105 104 67
100 101 63
124 121 74
102 102 64
122 121 72
113 114 74
121 120 76
114 114 70
117 117 73
130 128 78
131 129 73
135 132 76
133 131 75
140 138 83
129 128 77
142 140 82
138 137 81
145 141 82
146 142 82
152 148 84
146 143 80
146 142 86
157 153 90
150 146 79
154 150 89
153 149 87
155 151 82
154 149 84
156 152 82
158 152 86
154 150 88
158 153 84
157 152 84
158 153 81
162 157 92
166 161 92
160 155 90
161 155 86
168 163 89
164 159 86
164 159 87
164 158 83
171 165 98
168 161 91
165 160 87
166 160 92
169 163 90
170 163 94
170 163 90
169 163 90
167 162 93
171 166 97
170 163 91
171 165 94
169 163 84
174 168 94
169 164 93
172 165 91
172 166 92
170 165 90
170 164 90
172 165 91
169 162 84
171 165 83
173 166 90
173 166 91
173 166 93
172 165 88
176 168 94
170 164 87
168 162 87
174 167 93
169 163 87
172 166 87
173 165 90
169 161 85
170 164 83
172 166 89
174 167 91
173 166 89
173 167 94
169 163 88
169 163 89
176 168 93
169 161 81
167 160 82
176 168 96
171 163 88
172 165 91
173 166 86
172 165 86
172 165 88
171 163 90
169 162 84
170 163 88
171 163 87
166 159 83
169 160 86
170 162 91
174 166 89
169 161 81
171 162 88
166 157 84
166 158 77
169 161 88
170 162 90
169 160 82
170 160 84
166 158 80
167 159 89
172 164 91
169 161 86
168 160 85
167 158 84
173 165 89
169 160 84
167 158 79
171 162 87
165 157 83
169 160 85
163 154 82
168 160 82
163 154 81
162 153 79
164 155 82
164 156 77
167 158 86
172 163 89
167 158 85
163 155 81
165 157 83
165 155 77
220 235 255
220 235 255
220 235 255
220 235 255
220 235 255
218 233 254
220 235 255
220 235 255
220 235 255
220 235 255
220 235 255
220 235 255
220 235 255
220 235 255
220 235 255
220 235 255
220 235 255
219 234 254
219 234 255
218 233 254
219 234 255
218 233 254
220 235 255
220 235 255
220 235 255
220 235 255
219 234 254
219 234 254
220 235 255
218 233 250
217 232 248
218 233 250
217 233 246
218 233 250
218 233 249
215 231 241
219 234 252
216 231 242
218 233 249
218 233 250
216 232 244
217 232 246
219 234 252
216 231 244
215 231 241
219 234 253
216 231 250
217 232 252
213 228 244
214 230 245
216 231 247
213 228 250
210 226 246
212 228 248
210 225 246
212 228 249
211 226 246
215 230 251
210 226 248
211 227 248
213 228 247
209 225 244
217 232 253
211 227 248
208 223 244
212 228 249
210 225 246
214 230 250
212 228 248
218 233 254
214 230 250
214 230 250
208 223 244
214 229 250
213 228 250
214 229 244
215 231 242
216 232 245
215 231 245
218 233 248
216 232 246
217 232 246
218 233 249
218 234 252
217 233 248
216 232 245
219 234 253
217 232 248
218 233 249
217 232 246
218 233 250
218 233 250
217 233 248
217 232 248
218 233 252
217 232 248
216 232 246
218 233 252
217 232 248
217 232 248
218 233 252
216 232 246
214 230 242
217 233 249
217 233 249
218 234 253
216 231 244
215 231 242
214 230 238
214 230 242
214 230 245
213 229 244
212 228 240
214 230 246
213 229 246
212 227 242
211 227 249
208 224 238
209 225 241
205 221 236
207 223 242
205 221 237
205 221 238
207 223 242
211 227 244
208 224 238
206 222 238
210 226 246
207 223 238
212 227 248
210 225 248
210 226 248
211 226 247
207 223 241
215 230 251
211 226 249
208 224 246
214 229 252
154 173 200
69 101 141
65 97 137
171 189 214
210 226 248
207 223 245
207 223 244
200 216 240
196 212 234
211 227 248
173 189 212
60 95 142
58 93 132
61 96 137
60 94 135
62 97 150
61 96 149
59 93 124
61 96 146
61 96 142
60 95 142
60 95 138
60 95 137
61 96 143
60 95 136
59 94 137
60 95 139
61 96 139
61 96 141
60 94 131
61 96 141
59 94 129
61 96 144
61 96 145
61 95 137
62 97 149
61 96 130
60 94 137
59 93 126
60 95 140
61 96 148
60 94 134
59 93 130
60 94 133
60 95 142
60 94 134
62 97 147
60 95 137
60 95 136
61 96 147
59 94 133
62 98 152
62 97 150
60 94 143
60 95 131
60 95 139
61 96 140
60 94 136
59 94 143
59 94 135
62 97 151
60 94 137
61 96 143
61 96 149
61 96 143
60 95 139
60 94 135
61 96 146
61 96 145
61 95 139
61 96 142
60 95 140
60 94 142
60 94 134
59 93 124
61 95 139
60 94 135
60 94 140
60 94 132
60 94 136
59 93 136
60 94 133
60 95 135
59 93 126
60 95 139
59 94 135
59 93 133
60 93 136
60 95 144
59 92 132
60 93 139
60 93 133
60 94 141
60 94 135
60 94 136
59 92 135
57 89 136
59 92 131
58 90 129
57 89 129
58 90 132
59 92 136
58 90 122
56 87 122
56 87 126
58 90 134
55 85 120
56 87 133
56 86 127
55 84 121
54 83 117
51 78 98
51 78 107
92 86 62
95 88 50
98 86 42
81 71 39
72 65 37
71 66 38
86 76 45
83 77 48
75 73 50
76 73 45
93 90 58
81 77 45
79 79 48
90 86 57
95 96 62
95 93 59
98 98 60
95 95 61
93 95 62
105 103 64
102 102 61
120 118 70
121 120 71
105 106 63
123 120 64
118 118 71
135 131 81
120 121 70
133 130 77
129 128 74
134 131 79
135 133 76
136 133 77
147 143 85
141 138 79
133 130 74
138 136 82
148 145 86
149 145 79
147 143 79
152 148 88
148 145 83
149 146 82
158 152 86
160 155 89
161 156 86
153 149 85
158 153 86
153 148 84
157 153 84
163 158 87
165 159 88
163 157 86
161 155 86
158 154 84
164 158 87
166 160 91
160 155 83
168 161 89
167 161 89
162 158 88
167 162 94
172 166 94
166 161 87
166 160 92
170 164 91
169 164 91
169 163 86
169 162 88
163 159 82
166 160 87
168 162 93
169 163 89
166 161 81
168 162 85
172 166 87
172 165 87
175 167 90
168 162 90
172 165 86
170 164 87
171 164 86
169 163 82
171 164 85
171 164 89
169 163 88
171 164 87
170 162 85
173 166 88
171 164 87
171 165 89
175 168 93
174 166 87
170 163 88
170 162 83
171 163 88
166 160 81
168 162 80
167 159 83
173 165 88
170 162 89
171 163 92
169 162 83
171 163 88
169 162 85
169 163 89
171 164 87
173 165 95
171 162 90
173 165 90
173 166 86
167 160 82
173 164 89
170 162 86
176 168 93
169 161 87
165 158 81
169 162 85
172 165 88
169 161 84
162 155 77
169 161 85
162 154 72
172 164 88
170 162 86
162 155 80
168 159 84
170 161 90
169 161 86
166 156 80
171 163 87
163 156 81
167 159 85
163 154 79
165 156 81
171 161 89
163 153 76
164 155 75
171 161 83
165 156 79
173 164 90
168 158 76
166 158 83
163 154 79
171 161 89
163 153 79
173 163 90
167 156 88
164 156 78
220 235 255
220 235 255
220 235 255
220 235 255
220 235 255
219 234 255
220 235 255
220 235 255
220 235 255
220 235 255
220 235 255
220 235 255
220 235 255
220 235 255
220 235 255
220 235 255
219 234 254
220 235 255
219 234 255
219 234 254
220 235 255
220 235 255
220 235 255
219 234 254
221 235 255
220 235 255
219 234 254
219 234 255
220 235 255
219 234 254
220 235 255
220 235 255
220 235 255
220 235 255
220 235 255
220 235 255
220 235 254
220 234 253
219 234 252
219 234 252
220 235 254
219 234 252
219 234 252
219 234 253
219 234 252
219 234 250
213 228 245
217 232 250
214 229 247
213 228 243
217 232 252
209 224 244
217 232 252
212 227 248
213 228 248
215 230 250
217 232 252
211 226 247
216 231 251
211 226 246
216 231 252
212 227 248
209 225 244
208 223 245
216 231 251
214 229 250
215 230 250
213 228 250
214 229 250
215 230 250
216 231 252
215 230 251
214 229 251
211 226 247
217 232 252
211 227 241
217 232 248
217 232 245
218 233 249
217 232 245
217 233 248
218 233 250
217 232 246
218 233 249
217 232 245
218 233 248
217 233 248
218 233 250
216 231 241
216 232 244
216 231 242
217 233 248
215 231 241
218 233 250
217 232 244
219 234 250
217 233 248
218 233 250
216 231 242
218 233 249
217 233 248
218 233 249
216 232 244
216 231 242
217 233 248
218 233 249
216 231 244
217 232 246
217 233 248
214 230 237
213 228 244
214 230 248
212 227 239
213 228 245
210 225 240
211 226 233
209 225 240
210 226 241
203 219 237
208 224 234
213 229 244
212 227 246
205 221 238
207 223 244
208 224 237
212 228 246
209 225 246
213 228 250
212 227 249
201 217 242
217 232 254
215 230 249
214 229 250
207 223 245
210 226 246
212 228 249
212 228 250
208 223 244
170 188 216
73 103 142
60 93 141
149 168 201
212 227 249
210 225 247
209 224 246
207 223 245
202 217 238
209 224 248
183 199 225
59 94 131
59 93 133
61 96 137
60 96 137
59 94 134
60 95 147
60 95 134
61 95 141
60 95 136
57 91 121
60 95 139
60 94 143
60 96 142
60 95 140
61 96 144
60 95 140
60 95 140
61 96 139
61 97 150
61 95 140
60 95 143
60 94 137
61 97 147
61 96 141
60 95 131
60 95 137
61 96 140
59 94 135
60 94 141
60 95 139
60 95 144
59 93 129
61 97 147
62 97 149
59 93 130
62 97 148
59 94 136
60 94 129
61 96 141
61 95 137
61 95 137
60 94 136
60 94 140
61 96 147
61 96 135
60 95 140
60 94 137
60 95 135
60 95 139
61 96 140
60 94 137
60 95 135
60 94 125
60 95 130
61 96 141
59 92 129
60 94 135
60 94 136
62 97 150
60 95 134
60 95 139
60 95 136
59 93 136
62 97 147
61 95 141
59 94 134
60 95 142
61 96 146
61 95 145
61 96 148
60 94 137
60 94 139
59 93 127
59 93 136
60 94 140
60 95 139
59 92 135
60 93 132
60 93 137
60 94 134
61 95 142
59 92 130
59 93 134
59 92 137
59 91 131
58 91 130
57 89 114
57 88 121
60 94 145
57 89 128
59 92 140
58 90 125
57 90 125
56 87 127
57 88 121
57 88 127
56 86 122
55 85 113
55 82 113
56 86 123
53 80 105
50 76 97
87 85 71
106 94 44
87 72 33
90 78 38
80 70 40
71 65 38
77 67 37
73 62 33
68 65 37
83 78 44
79 77 50
86 83 49
78 79 56
98 96 59
85 87 59
96 98 60
104 105 63
108 104 60
93 93 56
111 113 73
100 101 62
120 118 70
120 118 74
127 126 72
113 113 71
122 120 67
126 124 72
126 125 72
127 125 72
132 131 78
138 134 80
135 134 77
130 128 70
139 136 77
135 133 76
142 139 77
140 139 78
146 142 83
146 143 81
150 147 85
150 146 82
155 150 85
151 147 81
146 143 78
152 149 80
156 152 85
157 152 83
156 151 84
152 148 82
162 156 87
160 156 84
165 160 88
160 154 85
159 153 82
159 155 82
164 159 90
158 153 82
162 156 83
166 161 88
163 158 84
158 153 81
166 159 89
167 161 89
166 161 90
165 158 79
175 168 96
164 159 81
167 163 92
168 162 91
168 162 87
168 162 89
170 164 91
167 160 86
167 161 84
171 165 90
165 159 87
174 167 92
169 163 90
167 163 82
168 162 82
169 164 90
167 161 88
170 164 89
172 166 88
172 165 92
172 164 85
172 165 89
170 164 82
170 163 85
174 165 91
168 163 81
169 162 91
169 163 85
169 163 81
170 164 89
172 166 85
169 164 81
173 166 85
170 162 86
171 164 85
173 165 91
170 163 86
171 164 85
170 163 87
170 163 85
169 161 86
169 163 84
171 164 89
167 160 80
171 164 90
167 160 79
170 162 85
170 162 85
165 155 79
165 158 75
168 159 82
169 161 87
169 161 86
166 160 77
165 158 84
168 162 84
167 159 86
166 158 85
166 157 82
169 160 85
164 156 80
173 164 83
171 163 87
167 159 85
168 161 85
171 162 86
166 157 88
166 157 85
167 159 83
167 157 80
168 159 83
167 159 77
169 161 86
164 156 79
166 157 83
165 156 80
164 154 80
159 151 74
164 154 79
166 157 84
164 154 80
167 158 84
167 156 84
173 164 93
220 235 255
221 235 255
221 235 255
221 235 255
221 235 255
221 235 255
217 232 252
221 235 255
220 234 255
220 234 255
221 235 255
221 235 255
221 235 255
220 234 255
221 235 255
221 235 255
221 235 255
221 235 255
221 235 255
220 234 255
221 235 255
221 235 255
220 234 254
221 235 255
221 235 255
219 233 253
221 235 255
219 234 254
221 235 255
220 234 255
221 235 255
221 235 255
221 235 255
221 235 255
221 235 255
221 235 255
221 235 255
221 235 255
221 235 255
221 235 255
221 235 255
221 235 255
221 235 255
221 235 255
220 235 255
221 235 255
219 233 253
217 232 252
217 232 252
214 229 249
215 230 250
211 226 248
214 229 250
211 226 246
212 227 247
217 232 254
210 225 245
209 224 244
216 231 253
209 224 243
212 227 248
216 231 252
212 227 247
212 227 247
211 226 247
208 223 243
213 228 247
216 231 251
208 223 244
213 228 248
216 231 252
210 225 244
214 229 249
214 229 249
216 231 252
215 230 248
217 232 248
218 233 248
220 234 253
217 232 245
220 235 254
219 234 250
218 233 248
219 234 250
220 234 253
218 233 249
218 233 246
218 233 249
220 234 253
219 234 250
219 234 252
218 233 249
218 233 248
217 233 246
217 232 244
218 233 248
217 233 246
219 234 252
217 233 246
217 232 245
218 233 249
219 233 249
219 234 252
217 233 246
219 234 250
217 232 245
220 235 254
220 234 255
220 235 254
217 231 248
216 231 248
216 231 252
214 229 247
220 234 254
215 229 247
213 227 246
210 225 246
211 225 245
212 227 246
214 229 250
216 231 252
216 231 251
214 229 251
215 230 251
213 228 249
211 226 247
206 221 244
212 227 247
207 222 244
212 227 248
208 223 244
214 229 250
213 228 248
212 227 249
212 227 248
213 228 249
210 225 248
214 229 250
174 190 218
78 107 148
75 104 140
144 163 191
206 221 244
210 226 247
208 224 245
197 213 237
199 215 238
208 223 245
150 169 199
59 94 136
60 95 141
60 95 137
60 94 133
61 96 142
60 95 130
58 92 120
59 93 127
60 95 136
59 93 133
60 95 140
60 94 135
58 93 130
59 94 128
60 95 141
60 95 135
60 95 133
60 95 142
59 94 125
61 95 147
60 94 133
59 94 135
60 95 136
61 97 148
61 96 139
60 95 131
60 95 137
61 96 139
62 96 142
60 94 133
60 95 136
59 94 131
60 95 133
61 95 141
61 96 139
59 94 141
60 94 131
60 95 139
60 95 141
61 96 142
60 95 140
59 93 128
60 95 136
61 97 142
61 96 141
62 98 152
58 92 133
60 95 136
60 94 140
61 96 142
59 92 129
60 95 141
60 95 134
59 94 136
60 95 138
60 94 133
61 96 137
61 95 144
59 93 132
61 96 147
60 94 136
61 95 136
59 94 135
60 94 135
58 92 117
60 94 134
62 96 142
61 96 145
61 96 146
60 95 138
60 94 128
60 94 137
59 92 135
62 97 147
58 92 124
61 96 141
61 95 143
60 93 134
60 94 139
60 94 137
59 93 125
59 93 129
58 91 128
59 92 133
61 94 141
58 91 131
58 91 129
59 92 136
58 91 128
59 92 136
57 89 134
58 89 120
59 91 131
56 87 120
58 89 128
56 86 120
57 89 133
57 87 125
55 83 122
54 84 116
53 80 99
50 74 94
91 87 80
93 82 46
82 68 34
72 62 29
84 73 33
76 67 33
76 71 40
74 72 43
67 67 43
87 80 46
84 81 49
76 72 44
76 76 44
85 86 54
89 90 61
94 92 55
100 98 61
110 109 65
93 94 57
96 96 58
103 104 64
114 112 63
108 107 61
121 119 66
115 113 66
119 120 73
130 128 76
123 122 75
129 127 76
117 115 64
117 117 57
137 136 80
131 127 73
147 143 80
137 133 74
142 139 78
141 138 82
149 146 82
144 140 82
152 147 81
154 149 83
150 147 81
150 146 78
153 150 89
149 144 82
156 151 84
155 151 79
149 147 78
160 155 83
152 148 72
157 153 86
162 157 83
156 151 74
156 151 81
160 154 78
162 156 84
155 152 83
158 154 78
164 158 87
167 161 87
165 159 90
162 158 83
171 165 93
172 165 91
165 161 84
163 158 79
170 163 86
167 161 82
169 164 89
172 165 93
168 161 82
167 161 78
173 166 89
174 166 93
170 163 83
173 166 84
172 166 89
168 162 88
168 162 88
169 162 85
171 164 84
170 163 83
169 163 89
172 165 87
171 165 89
173 166 94
171 165 93
173 166 89
169 162 83
171 164 87
169 163 89
166 160 84
170 163 83
169 163 85
172 164 87
168 162 83
174 166 88
170 164 85
169 161 84
171 164 86
167 161 80
169 162 84
171 164 83
171 163 84
170 161 86
168 161 83
167 160 83
170 163 84
172 163 86
170 161 85
167 160 83
167 160 79
168 160 85
171 163 88
168 161 79
166 160 76
172 164 85
173 164 88
164 157 80
167 159 80
171 163 87
168 161 82
167 160 88
171 163 83
165 158 80
168 160 83
162 153 72
171 162 88
168 161 87
165 157 81
166 157 79
167 158 82
167 158 85
169 160 84
172 164 92
170 161 86
165 155 77
164 156 78
162 152 75
170 160 82
166 158 81
166 156 80
163 154 79
168 159 87
165 155 79
161 151 78
161 151 76
167 159 82
165 155 76
221 235 255
220 234 255
221 235 255
221 235 255
220 234 255
220 234 255
221 235 255
220 234 254
221 235 255
221 235 255
221 235 255
221 235 255
221 235 255
221 235 255
220 234 255
221 235 255
220 234 255
220 234 255
219 233 254
219 233 253
221 235 255
220 234 254
220 234 255
221 235 255
220 234 255
221 235 255
218 232 253
221 235 255
220 234 254
221 235 255
221 235 255
221 235 255
220 234 254
221 235 255
221 235 255
221 235 255
221 235 255
221 235 255
221 235 255
221 235 255
221 235 255
221 235 255
221 235 255
221 235 255
221 235 255
219 233 254
213 228 248
220 234 254
220 234 254
219 233 253
212 227 247
215 229 250
215 229 249
213 228 250
211 226 246
214 228 249
211 226 248
213 228 248
212 227 247
212 227 247
216 230 252
215 229 249
213 227 248
215 229 250
218 232 253
213 228 248
214 229 248
209 224 246
211 226 247
217 231 252
213 227 248
213 227 248
217 231 252
217 231 252
216 230 252
217 231 252
218 232 252
221 235 255
221 235 255
221 235 255
221 235 255
221 235 255
221 235 255
221 235 255
221 235 255
221 235 255
221 235 255
221 235 255
221 235 255
221 235 255
221 235 255
221 235 255
221 235 255
221 235 255
221 235 255
221 235 255
221 235 255
221 235 255
221 235 255
221 235 255
221 235 255
221 235 255
221 235 255
221 235 255
221 235 255
221 235 255
220 234 255
221 235 255
220 234 255
219 233 252
218 232 254
214 228 250
214 228 248
219 233 254
214 228 249
211 225 245
206 221 244
215 229 251
217 231 252
212 226 247
213 227 248
214 228 250
211 226 247
216 230 251
211 226 248
210 225 246
211 226 247
216 230 250
217 231 251
217 231 252
215 229 250
211 226 246
210 225 247
213 228 248
215 230 250
211 226 248
209 224 245
209 224 244
174 191 216
63 96 140
68 99 133
120 141 173
211 226 246
207 222 244
214 229 249
202 218 238
202 218 238
213 228 248
159 177 203
58 93 126
59 93 130
58 93 126
58 92 125
60 94 135
59 94 130
59 94 137
59 94 125
60 94 129
60 95 141
59 93 130
60 95 136
61 95 137
60 96 143
60 96 140
60 95 128
61 96 148
61 95 140
61 96 137
60 95 145
60 95 134
59 94 137
59 93 129
60 95 134
60 95 134
61 97 147
59 93 125
60 94 133
61 96 137
60 94 131
60 95 140
60 94 134
59 94 135
59 94 133
60 94 135
61 95 140
60 95 137
61 96 141
60 95 141
59 94 133
61 97 143
59 94 139
60 94 135
61 96 139
60 95 131
61 96 144
61 96 141
60 95 143
60 94 130
60 94 134
59 93 124
58 92 126
60 95 139
60 95 130
60 94 128
60 94 129
60 95 135
61 96 142
59 94 131
60 94 144
60 95 139
60 94 140
60 94 139
58 91 128
61 95 139
60 95 135
60 95 135
60 94 125
60 95 136
61 95 145
59 92 129
59 93 126
57 91 124
61 95 140
58 91 121
59 92 131
60 93 130
60 94 143
59 93 137
59 91 128
59 93 130
58 91 128
58 91 133
59 93 133
59 92 137
58 91 128
58 91 124
59 92 135
59 92 140
58 91 127
57 88 128
58 90 127
56 87 122
56 86 122
56 86 122
56 86 124
56 87 125
54 82 117
54 82 112
53 81 106
53 82 110
52 78 98
81 83 84
99 86 43
75 62 31
72 63 31
85 75 36
69 64 32
73 64 32
70 67 40
71 66 36
83 77 46
71 74 44
74 71 41
71 70 41
79 80 52
92 93 51
98 98 60
102 101 64
93 92 50
97 99 58
104 102 60
111 110 60
109 108 68
108 109 67
118 115 66
110 110 56
119 119 66
125 123 73
121 120 71
126 125 70
128 127 71
124 123 74
128 125 71
140 137 77
144 140 83
143 139 77
136 134 76
138 136 82
147 143 79
156 150 87
148 144 80
143 140 73
146 143 83
148 144 76
146 143 76
153 149 86
153 149 82
150 147 80
160 155 85
152 148 81
159 154 85
155 151 80
163 159 89
158 154 81
161 156 87
165 159 85
164 158 81
160 156 79
163 158 90
155 152 84
160 156 86
170 164 88
163 157 79
164 159 79
168 161 86
168 162 85
164 159 86
168 162 84
161 155 78
167 162 87
166 160 84
169 164 90
170 163 89
166 161 83
172 166 91
172 165 88
172 165 89
168 162 81
170 164 88
168 162 86
172 165 94
168 161 80
169 163 89
169 162 86
165 158 77
168 160 84
168 162 81
167 160 84
171 163 84
169 163 87
171 164 86
165 158 78
170 164 81
169 163 83
172 164 85
172 164 87
171 164 86
169 161 82
174 167 89
168 160 83
169 161 81
169 161 81
168 162 81
169 163 87
168 161 81
175 167 92
171 163 89
168 161 84
169 161 84
168 159 77
174 167 92
166 157 81
171 163 85
170 163 78
171 163 87
167 158 85
167 160 83
165 158 76
166 158 81
164 158 83
170 161 83
170 161 86
166 157 80
171 163 84
171 163 88
166 157 76
164 156 80
168 159 82
166 157 80
170 163 84
172 163 88
171 161 84
168 159 81
170 162 81
167 158 73
168 160 78
168 160 85
171 162 88
164 156 81
164 155 74
167 158 85
169 161 82
162 152 73
165 155 79
166 158 82
163 153 80
168 159 82
165 155 82
159 148 73
160 150 72
221 236 255
221 236 255
221 236 255
221 236 255
221 236 255
221 236 255
221 236 255
219 234 254
221 236 255
221 236 255
220 235 254
221 236 255
221 236 255
221 236 255
221 236 255
221 236 255
219 234 254
221 236 255
221 236 255
221 236 255
219 233 254
220 235 254
221 236 255
221 236 255
221 236 255
220 235 255
221 236 255
221 236 255
221 236 255
219 234 254
220 235 255
221 236 255
220 234 254
221 236 255
221 236 255
221 236 255
221 236 255
221 236 255
221 236 255
221 236 255
221 236 255
221 236 255
221 236 255
221 236 255
221 236 255
217 232 252
220 235 255
219 233 254
218 233 252
218 233 254
214 229 250
211 226 246
211 226 246
215 230 251
219 234 254
216 231 251
214 228 248
211 225 244
211 225 246
213 228 248
215 229 249
213 227 248
219 233 253
215 229 249
214 228 248
212 226 246
215 229 248
213 227 247
209 224 244
217 231 250
211 225 246
211 225 246
218 233 252
212 226 247
214 228 248
218 233 254
218 233 253
221 236 255
221 236 255
221 236 255
221 236 255
221 236 255
221 236 255
221 236 255
221 236 255
221 236 255
221 236 255
221 236 255
221 236 255
221 236 255
221 236 255
221 236 255
221 236 255
221 236 255
221 236 255
221 236 255
221 236 255
221 236 255
221 236 255
221 236 255
221 236 255
221 236 255
221 236 255
221 236 255
221 236 255
221 236 255
220 235 254
221 236 255
221 236 255
220 234 253
215 229 249
214 229 249
218 233 253
218 233 252
215 229 247
216 230 247
210 224 244
212 227 249
212 227 248
212 226 248
213 228 249
214 228 248
214 228 248
214 228 248
214 228 249
219 234 254
206 221 241
210 224 244
218 233 253
207 222 243
211 225 245
217 232 252
213 227 247
215 229 248
211 225 244
213 227 247
214 229 249
212 227 248
177 193 219
64 95 131
75 104 147
110 133 164
218 233 253
205 220 245
212 227 248
203 218 238
194 209 232
202 217 240
147 166 196
59 94 130
60 95 136
58 93 124
60 95 134
61 95 149
60 95 143
59 94 128
60 95 133
59 94 140
59 94 129
59 93 129
59 94 129
59 93 131
61 96 145
60 94 127
60 94 131
60 95 129
60 95 136
59 94 128
58 93 124
60 95 141
60 95 136
61 96 136
59 94 131
59 94 131
61 96 142
59 94 129
61 96 140
60 95 130
59 94 134
59 93 124
59 94 125
62 97 147
60 95 141
60 94 131
60 95 133
59 93 129
61 96 145
61 96 144
60 94 134
60 95 140
61 96 141
59 93 126
60 95 130
60 95 139
60 95 144
59 94 124
61 95 133
60 94 136
60 94 128
60 95 134
61 95 137
60 93 136
60 94 134
60 95 134
61 96 147
61 96 140
58 92 129
60 95 142
59 93 137
62 96 140
60 94 135
60 95 142
59 93 128
58 92 131
61 96 143
61 95 140
59 92 128
60 94 133
59 93 139
61 96 136
59 93 130
60 94 132
60 94 133
58 92 125
59 93 134
61 95 140
59 93 139
58 91 130
59 93 138
60 94 144
58 90 120
59 92 130
60 94 136
58 90 124
57 90 123
59 92 130
58 90 126
58 91 135
57 89 117
57 87 125
58 90 131
55 85 112
58 89 127
56 88 115
56 87 116
56 86 120
56 85 122
55 84 114
55 84 115
52 78 106
53 80 112
68 70 66
101 91 47
85 74 36
73 65 30
87 75 36
79 69 27
74 67 32
68 60 29
77 70 37
71 68 37
80 77 47
85 84 49
79 79 45
74 74 48
85 85 52
90 89 53
96 93 52
90 89 54
99 100 62
108 106 59
97 100 58
106 105 62
111 110 66
114 113 61
120 119 62
114 113 66
138 133 77
119 118 64
119 119 66
121 120 64
127 126 71
138 135 80
135 132 75
140 138 75
137 134 74
138 135 73
145 141 75
143 139 73
143 140 75
150 145 76
149 145 83
150 146 79
148 144 73
156 151 80
149 146 80
154 149 77
153 149 82
150 146 79
150 146 78
158 153 87
151 147 82
156 152 83
159 154 82
161 156 86
155 151 74
162 157 88
165 159 87
164 158 84
159 153 83
160 155 82
163 158 82
159 154 84
164 158 85
165 160 84
168 162 91
159 155 78
161 157 80
169 162 87
169 163 89
169 163 89
167 161 80
171 164 88
170 164 90
170 163 86
167 162 89
171 164 90
172 165 88
172 165 88
170 162 84
167 161 84
173 165 90
170 163 86
170 163 85
173 165 90
170 164 91
167 161 83
166 159 83
169 162 86
171 164 84
168 162 81
167 160 78
171 163 85
172 165 89
170 162 86
168 161 84
170 164 84
173 165 86
167 161 78
169 162 85
169 162 82
170 164 87
165 158 83
166 160 81
167 160 76
172 165 88
167 159 82
169 162 88
172 163 90
168 159 80
167 159 79
168 159 86
174 166 93
167 160 83
166 158 79
169 162 83
170 163 85
167 159 87
166 157 83
166 159 82
171 163 86
166 159 81
168 161 82
169 161 85
173 165 88
169 161 86
163 156 80
166 159 80
167 158 79
168 159 79
169 161 81
168 159 80
163 155 78
169 162 85
169 160 82
164 156 76
166 157 77
163 154 77
161 154 73
165 158 82
163 153 77
168 160 81
167 159 80
165 156 75
166 157 84
167 159 76
170 159 84
164 153 76
161 151 71
160 151 68
221 236 255
222 236 255
222 236 255
221 236 255
222 236 255
221 236 255
222 236 255
221 236 255
222 236 255
221 236 255
221 236 255
222 236 255
220 235 254
222 236 255
222 236 255
222 236 255
220 235 255
219 234 254
222 236 255
220 235 254
220 235 254
222 236 255
220 235 254
222 236 255
222 236 255
221 236 255
221 236 255
221 236 255
220 235 254
221 236 255
221 236 255
221 236 255
222 236 255
222 236 255
221 236 255
221 236 255
221 236 255
221 236 255
221 236 255
221 236 255
222 236 255
222 236 255
221 236 255
221 236 255
221 236 255
220 235 255
219 234 254
219 234 254
219 233 254
217 232 253
216 231 249
215 230 250
218 233 254
219 233 253
215 230 248
216 231 250
214 229 249
216 231 251
211 226 247
218 233 254
214 229 249
216 231 252
214 229 249
219 234 254
217 231 251
213 228 249
219 233 254
216 230 250
214 229 249
214 229 249
219 233 253
220 234 254
214 228 248
210 224 245
214 229 250
215 230 250
218 233 254
222 236 255
221 236 255
221 236 255
221 236 255
222 236 255
221 235 254
221 235 254
221 236 255
222 236 255
221 236 255
221 235 254
221 235 254
222 236 255
222 236 255
221 236 255
222 236 255
221 236 255
222 236 255
221 235 254
221 236 255
222 236 255
222 236 255
221 236 255
222 236 255
222 236 255
222 236 255
221 236 255
222 236 255
222 236 255
222 236 255
221 236 255
222 236 255
218 231 249
219 234 254
216 231 251
215 230 251
218 232 251
213 226 242
221 234 253
215 230 248
211 226 246
211 225 244
205 220 239
212 226 246
210 225 244
211 226 244
216 231 252
212 226 246
215 230 251
215 230 250
206 220 242
211 226 248
213 228 250
209 224 242
214 229 249
213 228 246
213 228 247
213 228 248
210 225 244
215 230 249
216 231 250
181 196 218
68 99 134
70 99 127
110 133 165
212 226 247
211 226 246
210 224 244
201 216 238
200 215 236
209 223 243
164 181 205
60 95 144
57 91 123
59 93 135
60 94 134
60 94 129
60 94 134
60 95 141
61 96 145
59 93 134
60 94 136
60 94 134
60 95 137
61 96 142
60 94 128
59 94 128
60 95 137
60 95 135
60 95 136
59 93 131
59 93 129
58 92 130
61 96 143
60 95 134
60 94 137
60 94 140
60 95 139
59 94 128
60 94 131
60 94 135
61 96 141
59 92 124
60 95 133
59 92 135
61 95 144
61 96 141
60 94 129
62 97 149
61 96 136
60 95 136
61 96 140
60 95 136
60 94 130
60 95 135
59 93 135
60 95 141
58 92 125
60 94 137
61 96 140
59 93 130
60 95 140
61 96 142
61 95 141
59 94 133
60 94 137
60 95 140
60 94 134
59 94 131
59 93 134
60 95 136
59 93 133
60 94 130
60 94 134
59 93 122
58 92 128
61 96 140
60 95 134
60 94 141
60 94 128
59 93 126
59 93 131
58 92 124
60 95 135
57 90 111
59 92 128
61 95 140
60 94 143
60 95 135
59 93 129
60 94 139
58 91 130
60 94 141
59 92 135
58 91 126
59 92 130
59 92 134
57 90 119
59 91 136
59 92 138
58 90 123
58 91 128
58 89 128
57 87 118
56 86 122
57 89 118
57 89 113
56 87 118
57 88 132
55 86 128
54 82 114
54 81 101
52 80 107
48 71 92
73 79 71
98 83 33
87 73 36
80 69 31
76 64 26
77 69 33
55 49 27
71 64 33
68 65 36
74 70 37
74 73 38
81 77 36
77 72 42
75 76 40
91 90 51
85 87 45
74 76 40
104 102 62
98 98 62
98 98 59
101 98 54
107 106 61
114 112 70
112 111 61
113 112 66
118 116 65
108 106 54
123 121 67
122 119 67
126 124 69
137 133 75
131 128 70
130 128 72
127 125 72
133 130 71
135 132 66
138 135 78
144 139 75
144 140 69
140 138 75
145 142 79
144 141 74
143 140 76
147 143 78
155 150 75
153 149 83
153 149 80
157 152 81
158 153 80
150 146 80
160 154 83
148 144 73
158 153 80
159 154 80
158 155 78
160 154 86
157 152 78
158 152 83
162 157 81
159 153 74
163 158 84
161 155 78
165 159 82
166 160 85
165 158 84
164 158 82
166 159 79
168 161 83
169 164 87
173 166 89
167 161 85
166 160 82
171 164 84
162 157 77
168 162 82
168 161 79
169 163 87
167 162 87
174 166 91
168 162 84
167 160 79
172 165 85
167 161 80
172 165 90
170 163 85
170 164 84
167 160 78
165 159 80
169 163 83
171 163 84
171 164 84
174 167 91
166 161 81
172 164 82
174 167 92
169 160 84
165 158 77
170 164 84
171 163 81
171 164 84
168 160 85
172 164 88
171 162 85
169 161 81
164 157 77
167 159 83
170 163 86
170 162 84
169 161 81
171 163 85
167 161 80
166 158 80
167 160 81
166 159 78
168 159 79
170 162 83
166 159 74
169 162 87
163 155 74
167 159 81
165 156 80
169 161 81
175 165 87
166 157 77
167 158 82
171 162 89
165 158 77
166 158 81
166 159 81
168 158 84
165 156 78
165 156 77
169 160 84
165 157 77
160 151 74
169 161 81
165 157 80
167 158 83
165 155 79
164 156 76
166 156 81
164 154 74
163 155 75
165 155 73
162 152 74
169 158 83
169 160 82
167 158 80
163 154 77
222 236 255
221 235 255
222 236 255
222 236 255
222 236 255
222 236 255
222 236 255
222 236 255
222 236 255
222 236 255
222 236 255
222 236 255
222 236 255
222 236 255
222 236 255
221 235 255
222 236 255
222 236 255
221 235 254
221 235 255
222 236 255
222 236 255
222 236 255
222 236 255
221 235 254
222 236 255
221 235 254
222 236 255
221 235 255
222 236 255
221 235 255
222 236 255
222 236 255
222 236 255
222 236 255
222 236 255
222 236 255
222 236 255
222 236 255
222 236 255
222 236 255
222 236 255
222 236 255
222 236 255
222 236 255
222 236 255
221 235 255
221 235 255
219 233 254
218 232 253
216 230 251
220 234 254
217 231 252
208 223 245
216 230 250
217 231 251
217 231 252
216 230 249
217 231 252
217 231 251
216 230 250
211 226 248
214 228 247
215 229 248
219 233 253
214 228 248
217 231 252
219 234 252
217 231 251
214 228 247
219 233 252
211 226 244
215 229 248
214 228 246
212 227 248
217 232 251
219 233 254
222 236 255
222 236 255
222 236 255
221 235 254
221 235 254
221 235 253
221 236 254
222 236 255
222 236 255
222 236 255
222 236 255
221 236 255
221 236 255
221 235 254
221 236 254
222 236 255
222 236 255
221 235 254
221 235 254
221 236 254
221 235 254
221 235 253
222 236 255
222 236 255
221 235 254
221 235 253
221 236 254
222 236 255
222 236 255
221 235 254
221 236 254
222 236 255
220 234 252
219 233 252
213 228 247
215 230 248
217 231 250
214 228 247
213 227 246
211 226 246
210 225 246
214 229 248
219 234 253
208 223 244
213 228 248
215 230 250
209 224 243
216 230 250
214 228 247
209 224 244
210 224 244
212 227 246
216 230 250
215 229 249
210 225 244
215 229 248
212 226 246
207 222 240
216 230 250
216 230 250
215 229 249
185 200 223
60 91 121
78 105 144
125 146 176
215 229 250
212 226 247
207 222 242
211 225 245
200 215 235
206 220 241
163 180 204
60 94 137
60 95 139
60 95 133
58 92 128
61 96 141
60 95 136
59 93 129
60 94 131
59 94 135
60 94 136
61 96 136
60 94 131
60 94 131
61 96 142
60 94 136
61 96 139
61 96 143
61 96 141
59 94 128
61 95 137
60 94 135
60 94 135
58 92 126
59 94 130
59 92 122
58 92 122
60 95 129
61 96 139
59 94 126
59 93 130
60 94 129
60 95 134
60 95 134
60 94 135
60 95 136
60 94 136
61 95 137
60 95 144
60 95 144
60 94 130
60 95 133
60 94 133
61 96 143
59 94 130
61 95 131
58 93 133
61 95 134
61 97 142
58 93 128
60 94 130
59 93 135
60 95 136
59 93 129
60 95 140
61 96 137
59 93 121
59 93 134
59 93 124
60 95 140
60 95 143
58 92 131
60 94 141
58 92 121
58 92 123
60 95 139
59 93 143
57 91 121
62 96 145
58 92 130
58 92 121
60 94 135
58 91 118
56 89 117
60 94 132
60 93 131
59 92 129
59 92 134
59 92 129
60 94 142
59 93 131
60 94 146
58 91 136
58 91 124
59 93 134
58 90 128
58 89 119
59 90 119
57 89 128
57 88 112
59 91 130
58 90 120
56 87 116
57 89 115
58 88 120
56 86 116
55 85 106
56 87 125
55 84 115
53 81 114
54 82 102
53 80 111
52 78 109
76 78 71
89 81 41
91 78 36
75 65 30
65 57 23
60 57 30
61 53 20
61 58 32
76 69 32
70 68 39
67 65 37
72 71 39
75 75 47
78 75 41
93 92 47
85 85 46
94 93 51
94 93 54
82 81 48
96 95 57
105 104 55
115 111 60
112 111 63
106 105 59
118 116 65
126 124 72
125 124 71
115 115 60
127 125 70
126 123 68
124 122 62
127 124 65
133 131 71
128 125 63
132 129 62
141 137 72
134 131 66
147 143 84
139 136 76
137 135 73
143 139 76
141 139 72
153 149 78
147 144 74
142 140 76
150 146 78
149 145 77
158 154 80
149 144 75
158 152 79
153 149 81
160 154 80
159 154 84
154 150 79
163 157 82
157 152 75
164 158 82
161 156 85
164 158 81
165 159 86
161 155 80
161 156 75
163 158 73
168 162 84
161 156 83
167 160 87
170 162 86
173 165 87
167 162 82
164 158 84
164 157 87
164 159 84
169 161 86
170 163 82
169 162 78
171 163 88
167 161 77
170 163 82
169 162 87
172 164 84
170 163 87
167 160 80
166 160 82
169 163 83
168 161 81
168 161 79
169 163 81
168 161 85
170 162 81
169 163 82
173 166 85
169 160 81
164 156 77
170 163 81
166 160 72
169 162 83
171 165 88
171 163 88
171 163 87
168 161 80
168 160 77
171 163 83
167 161 84
168 161 81
167 160 82
168 162 81
167 158 80
165 159 82
172 164 87
169 160 82
170 162 84
170 162 82
169 162 85
166 158 76
168 161 77
168 161 79
167 159 78
170 162 85
166 158 79
161 152 78
170 162 85
163 155 79
168 160 82
171 163 87
169 160 82
167 158 85
166 158 80
165 157 82
164 158 75
168 160 81
165 155 77
168 160 76
168 159 84
159 149 67
167 158 81
169 159 85
168 160 81
162 153 72
162 154 81
169 160 80
164 154 76
158 150 64
164 155 82
168 160 82
165 156 80
168 160 84
165 156 78
164 156 80
162 152 79
222 236 255
222 236 255
222 236 255
222 236 255
222 236 255
222 236 255
222 236 255
222 236 255
221 235 254
222 236 255
222 236 255
222 236 255
222 236 255
221 235 254
220 234 254
222 236 255
221 235 255
222 236 255
222 236 255
222 236 255
220 234 254
222 236 255
221 235 254
220 234 254
219 233 253
222 236 255
222 236 255
221 235 255
222 236 255
221 235 255
222 236 255
222 236 255
222 236 255
222 236 255
222 236 255
222 236 255
222 236 255
222 236 255
222 236 255
222 236 255
222 236 255
222 236 255
222 236 255
222 236 255
222 236 255
222 236 255
220 234 254
216 230 251
214 228 249
220 234 254
219 233 253
212 226 247
218 232 252
218 232 252
217 231 251
213 228 246
215 229 250
219 233 252
218 232 250
212 227 246
214 228 249
211 226 246
213 228 243
215 229 247
220 234 252
214 228 248
211 225 246
211 225 243
214 228 246
214 228 247
215 230 248
217 231 251
216 230 251
217 231 250
211 226 242
213 227 246
219 233 250
220 234 250
221 235 253
221 235 252
221 235 253
222 236 254
221 235 252
220 234 249
222 236 254
220 234 249
218 233 244
219 234 246
221 235 252
220 234 250
221 235 253
218 233 244
219 234 248
221 235 252
218 233 244
219 234 248
219 234 248
219 233 246
219 233 245
219 233 246
217 232 242
220 235 252
220 234 250
219 233 246
218 233 246
220 234 249
221 235 252
220 234 249
221 235 252
219 233 246
218 232 250
218 233 252
218 232 251
216 231 248
216 229 246
215 229 249
215 229 250
214 228 250
210 225 242
213 227 248
214 228 248
215 230 249
213 227 248
215 229 248
217 231 251
215 229 248
214 228 247
213 227 248
216 230 250
214 228 248
213 227 246
215 229 249
210 224 244
209 223 242
211 225 244
210 224 245
207 221 242
216 230 250
166 182 206
70 100 143
65 96 122
159 176 196
218 232 252
212 226 245
209 223 244
209 223 243
195 210 231
211 225 243
162 179 202
60 94 121
60 95 128
60 95 139
60 95 144
57 90 116
60 94 129
60 94 140
58 92 124
61 96 142
60 94 131
60 95 136
60 95 130
59 94 134
60 95 134
60 95 137
59 93 139
60 94 134
60 94 134
59 93 133
60 95 131
59 94 129
59 93 124
59 94 125
60 95 140
61 96 143
61 96 140
58 93 125
60 94 131
58 92 124
59 93 128
61 95 139
59 93 128
60 94 135
60 95 137
62 97 145
60 94 131
60 95 135
59 93 125
59 94 133
60 95 140
59 94 134
58 92 121
59 94 130
61 96 144
59 92 118
60 94 128
61 95 135
60 94 130
59 93 126
59 94 131
60 94 133
60 94 126
60 95 140
59 93 135
61 95 140
59 93 133
60 94 135
59 93 126
60 94 136
58 92 124
59 93 126
59 93 124
61 96 140
60 95 136
59 92 125
59 94 131
59 94 126
58 92 129
59 92 129
58 92 130
60 94 143
60 94 134
59 92 122
59 93 133
58 91 122
57 88 120
59 92 128
60 94 136
59 93 134
59 92 128
60 94 138
56 89 114
58 91 131
59 92 127
57 89 124
58 91 131
57 89 118
59 92 127
58 90 119
58 90 121
59 91 130
56 88 119
55 86 118
55 85 106
55 85 116
56 86 122
58 90 124
55 84 114
51 77 101
56 85 114
51 77 103
52 76 94
79 78 59
92 81 35
85 71 30
82 72 28
80 68 24
64 58 24
71 62 29
68 64 37
74 68 34
74 70 34
63 63 32
74 70 40
73 71 32
80 76 41
86 85 47
91 90 47
88 90 55
94 93 52
94 93 57
101 98 54
113 112 60
105 104 50
104 104 57
113 112 59
122 122 72
110 108 62
118 116 67
110 108 54
123 121 65
131 129 69
124 122 67
130 128 70
129 127 64
140 137 79
147 143 71
144 139 74
141 138 74
138 135 74
137 135 73
137 135 73
150 147 74
148 145 71
142 139 76
142 138 72
157 151 79
151 146 77
147 143 76
150 145 66
151 147 76
156 150 78
159 153 82
154 150 78
164 158 88
156 151 79
157 152 77
159 152 80
158 153 78
160 155 77
159 154 75
161 155 76
159 154 78
161 156 78
162 156 79
162 155 82
162 156 77
163 158 86
163 157 83
163 157 80
166 159 80
164 158 77
165 159 82
165 159 82
166 159 81
166 160 81
162 157 78
169 161 82
170 163 83
172 166 85
169 163 82
166 160 85
167 160 82
168 162 82
166 160 79
165 158 75
168 161 80
170 164 87
167 160 80
172 165 82
169 162 80
169 162 82
171 164 87
167 161 78
166 159 73
169 162 86
168 161 78
173 164 87
173 165 87
168 161 80
166 161 80
168 161 83
168 162 81
167 161 80
164 158 79
168 162 77
169 161 77
169 159 78
170 162 85
168 161 80
163 156 74
167 160 83
163 156 78
167 160 80
168 159 78
168 159 82
165 157 78
170 162 81
166 159 81
169 160 75
167 159 81
167 159 75
166 160 79
171 162 81
169 160 80
169 159 82
165 158 81
165 157 77
167 157 84
170 163 82
166 156 79
168 159 82
161 153 71
164 156 79
166 156 74
163 154 76
165 157 78
168 158 79
167 158 78
164 154 75
165 155 80
160 151 71
164 156 76
164 155 73
166 156 75
167 158 79
165 156 79
166 157 76
167 159 82
161 150 73
166 158 76
223 236 255
222 235 255
221 235 254
223 236 255
222 236 255
221 235 255
222 236 255
222 236 255
222 236 255
223 236 255
222 236 255
223 236 255
222 236 255
221 235 254
222 236 255
222 236 255
221 235 255
220 234 254
221 235 255
221 235 254
221 235 254
222 236 255
222 236 255
222 236 255
221 235 254
222 236 255
222 236 255
222 236 255
222 236 255
222 236 255
222 236 255
222 236 255
223 236 255
222 236 255
221 236 254
222 236 255
222 236 255
222 236 254
221 236 254
222 236 255
221 235 253
222 236 254
221 235 250
222 236 254
222 236 254
221 235 252
219 234 249
215 230 247
219 233 247
218 232 249
216 230 246
215 229 246
212 226 244
214 229 246
216 230 243
211 226 240
210 225 242
211 225 240
214 228 248
213 227 244
216 230 246
215 230 242
215 230 245
207 222 238
212 227 243
213 228 244
214 228 242
214 229 242
210 225 240
213 228 244
203 218 238
218 232 246
216 231 242
212 226 240
217 231 246
215 230 238
219 234 248
216 231 238
218 232 242
220 234 250
219 234 248
219 233 245
219 234 248
219 233 245
219 234 246
219 233 245
216 231 237
217 232 242
217 232 242
219 234 248
220 235 250
220 234 249
217 232 241
216 231 238
217 232 240
218 233 244
219 233 245
220 234 248
217 232 241
220 234 248
217 232 242
220 234 249
218 232 241
220 234 249
219 233 245
219 234 248
219 234 246
217 232 242
219 233 248
220 234 248
220 234 249
212 227 242
215 230 246
217 231 246
213 227 242
211 224 241
218 232 250
212 226 247
208 222 240
215 230 248
212 227 246
217 231 250
219 233 252
214 228 248
215 229 250
212 226 246
216 230 250
215 229 249
214 228 248
210 224 242
218 232 251
212 226 246
216 230 250
217 230 249
205 219 236
214 228 248
215 229 248
210 225 238
148 166 179
71 99 132
72 102 133
161 179 190
219 232 250
209 222 239
213 227 246
211 225 246
203 217 239
219 232 251
182 197 220
59 94 128
60 94 134
59 94 128
60 95 134
59 93 130
60 95 135
59 93 131
61 96 144
61 96 141
60 95 126
60 95 134
59 93 128
61 96 139
59 94 128
61 95 140
59 93 124
58 92 128
60 94 133
61 96 142
58 92 117
61 96 141
61 96 148
59 94 129
59 94 129
59 93 131
61 96 140
60 95 139
61 95 133
60 95 140
62 97 141
59 94 131
60 94 133
58 92 128
60 95 135
60 95 134
58 93 133
59 93 140
58 92 133
59 94 129
60 94 126
61 95 140
60 94 122
60 95 136
59 94 126
59 93 125
60 94 130
59 94 133
60 95 130
60 95 141
60 95 137
61 96 136
60 95 136
60 94 129
59 92 123
60 95 135
59 94 134
59 94 126
59 93 128
60 95 131
59 93 128
58 91 128
59 93 126
60 95 135
59 93 135
61 95 138
60 94 136
59 93 131
59 93 126
60 95 144
59 93 133
59 93 125
60 94 130
58 92 131
60 94 129
58 92 129
60 94 131
59 92 125
59 92 126
59 92 132
60 93 139
57 89 112
60 94 130
60 93 136
58 90 121
56 88 115
57 89 123
58 91 124
58 90 118
58 91 134
58 89 116
56 87 115
58 89 130
56 87 118
58 89 128
55 86 116
54 84 113
55 84 112
56 87 115
53 81 103
51 77 99
52 79 93
47 72 83
107 98 63
97 81 36
97 83 27
73 64 22
80 68 26
60 53 24
53 48 18
68 62 34
64 60 26
74 67 35
75 71 38
68 67 35
74 72 43
83 81 44
86 85 44
77 76 37
92 91 51
81 83 48
94 93 57
101 100 50
102 102 60
106 106 58
116 113 59
117 115 67
112 111 57
115 112 53
113 112 59
109 109 55
117 115 63
126 124 62
122 120 59
131 128 71
127 126 64
128 126 68
130 128 65
128 125 64
129 125 64
131 129 63
138 135 66
146 141 75
152 147 73
149 145 77
138 136 68
146 142 75
149 145 79
152 148 78
153 150 76
155 149 81
156 151 78
155 150 76
161 154 81
150 146 73
162 156 86
155 151 74
151 147 71
160 155 78
159 154 82
163 158 85
161 156 78
160 154 82
167 160 76
159 153 80
162 157 80
165 158 82
163 157 80
165 158 78
169 162 86
167 161 82
165 159 84
165 159 78
162 156 77
165 159 74
169 162 82
165 159 74
170 163 82
165 159 72
165 159 80
170 163 78
167 161 79
168 161 75
166 160 78
167 160 81
164 159 75
170 163 83
167 160 78
165 158 80
171 163 85
166 160 77
164 159 76
173 165 85
169 161 78
164 157 72
168 160 80
167 159 80
169 162 81
167 160 78
172 165 84
167 160 77
165 157 78
169 161 80
166 159 79
165 158 75
166 158 81
172 164 86
170 161 79
168 161 85
169 162 81
163 156 72
167 158 80
166 158 75
167 160 76
167 160 75
168 161 82
166 158 80
170 162 87
163 155 76
165 157 73
170 160 82
166 158 82
169 161 84
167 159 78
166 158 79
166 158 75
165 156 75
165 157 75
165 156 78
165 156 80
164 156 73
161 154 72
164 155 72
169 161 84
165 156 79
165 156 73
164 157 70
165 157 76
164 155 77
166 158 78
168 159 81
165 156 81
162 152 73
162 153 76
164 156 73
159 150 70
165 155 78
162 152 74
166 157 79
164 155 80
165 157 81
164 154 76
223 236 255
223 236 255
223 237 255
223 236 255
223 236 255
223 236 255
222 235 255
223 236 255
223 236 255
223 236 255
222 235 254
223 236 255
223 236 255
223 236 255
223 236 255
222 235 255
222 235 255
221 234 254
222 235 254
223 236 255
222 236 254
221 235 254
222 236 254
221 235 252
222 236 254
221 235 252
219 233 248
220 234 248
221 235 249
220 234 246
217 232 242
219 233 247
219 233 245
220 234 248
219 234 248
221 235 252
219 234 246
220 234 248
221 235 250
219 233 245
219 234 246
219 233 245
220 234 249
217 232 241
219 234 245
219 233 246
218 232 246
217 231 243
218 233 246
213 228 244
217 231 244
211 226 241
214 229 242
214 228 242
215 229 237
214 229 242
211 226 240
209 224 238
213 228 237
214 228 242
212 227 237
212 227 240
212 226 240
211 225 237
209 224 232
213 227 240
214 228 239
213 228 241
212 227 234
213 227 243
208 223 236
215 229 238
212 227 242
211 226 240
217 231 244
219 233 244
221 235 252
218 233 245
221 235 252
217 232 240
218 233 245
218 233 242
220 234 248
220 235 250
218 233 242
219 233 245
219 233 245
216 231 238
216 231 238
218 232 241
217 232 242
218 233 246
218 233 242
219 234 246
217 232 241
219 233 245
217 232 242
220 234 249
219 234 248
219 234 248
220 234 248
220 234 246
218 233 242
218 233 244
218 233 246
220 234 248
218 233 245
217 232 241
218 232 244
218 233 245
219 233 246
217 231 244
217 232 246
213 227 238
217 231 248
216 229 247
214 227 246
215 229 249
214 228 246
212 226 245
208 222 241
217 231 250
215 229 250
212 226 244
214 227 247
216 230 249
220 234 253
214 227 246
219 232 252
215 229 246
217 231 248
215 229 248
218 232 249
220 233 251
215 229 240
208 224 223
192 210 176
191 210 151
117 140 141
63 94 118
61 94 118
159 181 82
173 193 110
204 220 211
218 231 249
208 222 240
198 212 233
216 229 246
181 197 220
57 91 114
58 92 126
59 94 140
57 90 120
59 94 131
58 92 125
59 94 126
59 93 129
59 94 140
61 96 139
61 95 142
60 95 134
60 94 130
60 94 137
60 94 130
59 94 124
58 92 124
60 94 131
60 95 137
60 95 136
58 92 122
59 94 133
60 94 131
59 93 128
60 94 124
59 93 134
60 94 122
61 96 136
60 95 136
60 95 136
60 94 133
61 96 140
60 95 137
60 95 134
60 94 133
60 94 131
58 92 122
61 96 133
61 95 139
60 94 133
59 94 126
59 93 130
60 94 134
59 94 128
59 93 133
58 93 125
61 96 139
60 94 133
60 94 136
60 94 130
60 94 131
62 96 140
60 94 134
58 92 128
59 93 125
60 94 134
59 94 125
60 94 130
59 93 133
61 95 144
59 93 134
60 94 135
59 93 126
59 93 129
60 95 134
60 94 133
60 94 135
58 92 124
58 92 122
58 92 129
60 94 126
60 94 145
60 94 137
58 91 123
59 92 131
58 91 116
60 93 134
58 91 123
60 94 128
59 92 126
58 91 131
60 93 129
58 90 123
58 91 129
57 89 119
56 88 118
59 92 137
58 89 119
58 91 125
56 87 121
56 87 113
56 88 121
57 87 111
56 86 113
57 89 127
54 84 117
55 84 108
55 84 118
54 82 107
52 78 93
52 79 113
47 69 76
107 97 55
97 82 31
86 72 25
76 66 28
75 66 27
73 65 23
60 55 22
74 65 26
71 67 37
59 55 32
73 72 30
63 61 31
69 67 32
76 71 28
89 85 37
88 88 46
93 91 41
91 90 45
86 87 42
101 101 58
97 97 49
100 102 63
107 105 61
114 112 64
110 108 60
109 109 56
111 111 54
128 126 67
121 119 62
119 118 65
124 123 62
122 121 65
133 129 67
137 133 69
130 125 62
129 126 56
129 127 70
143 138 67
144 141 73
139 136 70
138 136 68
146 142 74
142 139 69
144 141 67
150 145 74
144 141 68
149 145 75
147 141 75
149 145 75
155 149 78
160 155 80
143 140 68
154 149 73
158 153 78
159 154 76
159 153 78
159 153 77
164 158 82
156 150 71
158 153 76
163 156 79
161 156 76
161 156 78
161 155 75
164 158 78
164 158 75
167 160 81
166 160 79
168 162 81
166 161 82
161 156 72
168 161 85
161 155 77
161 156 77
165 159 79
165 160 78
165 160 78
164 158 80
170 163 84
166 160 80
162 156 76
164 159 78
169 161 79
169 161 81
170 164 87
166 161 79
173 164 81
167 160 80
170 162 80
167 162 85
168 161 81
165 158 72
170 162 81
166 158 76
169 161 80
169 162 79
170 162 83
170 161 84
167 159 79
165 158 71
166 159 74
171 161 80
167 159 79
169 162 81
167 160 76
167 161 77
165 158 80
170 162 82
173 164 86
170 163 87
168 160 79
169 160 79
166 158 79
170 162 87
165 156 75
168 160 84
167 158 78
173 164 83
167 159 80
165 158 80
165 157 77
163 154 79
169 160 83
166 156 78
166 157 81
167 159 79
165 157 78
167 158 84
166 157 80
164 155 73
167 160 78
165 157 76
161 154 71
165 156 77
163 156 78
167 158 79
161 153 72
166 157 77
163 154 74
166 156 79
164 154 76
162 152 75
166 158 80
164 154 79
163 155 76
163 156 70
164 154 76
156 147 68
165 156 71
223 237 255
223 237 255
222 236 255
222 236 254
223 237 255
223 237 255
221 235 252
222 236 252
220 234 250
222 235 252
219 233 244
220 234 248
219 233 242
220 234 246
220 234 248
220 234 250
219 233 245
220 234 245
220 235 249
219 234 245
218 232 244
216 231 238
217 231 240
218 232 242
217 231 236
218 232 244
218 233 244
218 233 242
215 230 235
217 232 240
216 231 237
219 234 245
221 235 250
219 233 244
219 233 244
219 234 245
220 235 250
218 233 241
220 234 246
221 235 249
220 234 246
217 232 241
218 233 244
220 234 246
221 235 250
219 233 245
219 234 246
217 232 243
219 233 248
218 232 244
219 233 247
216 230 244
219 233 247
209 224 240
213 227 242
214 228 243
211 226 238
209 224 234
209 224 236
211 225 234
214 228 241
213 227 241
213 228 238
213 228 237
210 224 238
215 230 241
214 229 236
214 228 246
209 224 236
217 231 244
215 229 239
213 227 242
209 224 240
215 230 236
218 233 242
219 233 244
219 233 245
220 234 249
219 234 246
217 232 241
217 232 240
219 233 244
220 234 249
218 232 242
217 232 238
220 234 244
220 234 249
220 234 248
220 234 249
215 230 237
219 234 246
220 234 246
218 232 242
219 233 248
219 233 244
218 233 244
218 233 244
219 233 244
219 233 246
218 233 244
219 234 248
218 233 245
219 233 248
219 233 244
218 232 242
219 233 244
217 231 240
219 233 246
217 231 238
218 232 243
218 232 240
215 230 245
215 229 244
216 230 246
217 231 249
211 225 238
217 231 249
215 228 248
211 225 244
211 225 242
214 228 244
210 224 242
212 226 246
217 231 250
218 231 249
214 228 248
214 228 246
217 230 250
217 230 248
213 227 245
211 225 234
205 221 208
197 215 189
181 202 134
174 196 92
175 196 118
189 209 153
185 205 141
89 115 96
67 98 115
101 127 113
168 190 54
169 192 67
170 193 70
184 203 160
206 220 238
203 217 235
213 229 226
199 213 235
61 96 139
59 92 131
59 93 130
57 91 115
58 93 126
59 93 120
58 92 128
60 95 140
59 93 133
59 93 131
60 95 140
59 93 131
60 95 131
59 94 133
59 94 135
58 92 121
58 92 124
59 94 131
59 93 129
60 94 134
59 94 130
60 94 135
59 93 128
61 95 137
59 93 126
58 92 125
60 95 136
61 95 135
60 95 139
59 94 131
60 94 134
59 93 129
59 94 131
58 92 135
59 93 124
60 94 126
61 95 134
60 94 129
59 93 131
59 93 134
59 92 125
59 92 125
58 93 126
60 95 129
58 92 120
59 94 124
59 93 133
59 93 125
59 93 128
58 92 125
61 96 140
59 93 125
59 93 128
60 94 128
59 94 130
59 92 128
60 94 130
59 93 124
57 90 111
60 94 125
59 93 133
60 94 131
60 94 139
61 95 139
59 92 130
60 94 125
57 90 124
60 93 134
59 93 134
59 92 122
58 91 120
60 94 138
58 91 125
58 92 133
58 92 123
59 92 124
58 91 119
58 92 118
58 91 120
58 91 120
59 92 130
58 91 130
58 91 123
58 91 129
58 91 131
57 89 127
58 91 123
58 91 124
55 85 103
58 89 129
58 90 123
56 86 115
57 88 114
55 85 109
55 86 123
55 85 117
54 83 110
53 81 113
54 82 101
53 80 107
48 71 87
46 69 83
110 100 64
105 90 42
83 71 20
82 70 23
82 66 21
73 63 21
73 61 22
76 70 27
64 59 25
74 70 30
72 69 33
78 74 34
73 71 38
91 90 41
72 73 37
84 81 40
88 85 43
91 87 46
89 89 40
97 94 41
104 102 54
96 97 55
98 97 56
103 103 53
109 108 52
108 107 58
119 115 60
112 113 51
123 121 63
119 117 55
127 124 57
126 123 63
134 132 64
134 130 60
128 125 62
140 136 72
132 130 65
137 134 70
137 134 68
139 135 64
138 135 70
144 140 65
152 147 74
150 144 68
151 145 70
145 141 69
142 138 67
149 145 75
152 148 72
149 144 67
151 147 71
160 155 81
151 147 69
164 158 78
158 154 75
160 154 79
155 150 72
157 152 79
160 155 77
163 158 78
158 154 74
162 156 79
160 155 75
163 156 76
160 154 79
163 158 76
166 160 82
159 154 74
165 159 80
167 160 78
166 159 78
167 160 75
164 157 73
167 160 78
169 162 80
170 163 83
163 156 70
167 160 71
168 162 80
166 158 76
167 160 78
168 161 85
169 163 80
167 160 79
170 164 84
165 159 78
169 163 82
169 162 78
164 157 74
168 162 83
161 156 71
169 162 76
169 161 81
168 162 80
170 163 80
167 158 75
169 162 79
172 164 82
163 156 76
170 163 81
170 163 80
171 163 86
165 159 72
166 157 78
167 159 81
167 161 76
166 159 75
170 162 78
169 162 79
162 153 77
170 161 81
167 159 78
170 162 85
168 160 79
166 159 77
170 162 82
162 156 75
169 159 79
164 157 75
168 159 82
167 158 79
162 154 71
166 157 75
167 158 81
167 157 78
164 155 77
168 159 71
170 161 83
168 159 83
161 154 68
164 155 72
166 157 78
164 156 74
163 154 69
166 159 76
168 159 79
163 154 71
162 154 70
164 156 67
170 162 85
163 154 71
163 153 76
164 154 84
165 157 81
165 156 81
169 159 81
165 156 76
166 157 84
168 158 83
221 235 248
220 234 245
220 234 244
219 233 244
219 233 242
219 233 242
219 233 244
220 234 248
218 233 241
219 233 242
220 234 246
219 233 244
221 235 250
220 234 246
220 234 248
216 230 238
218 232 246
220 234 245
220 234 248
219 233 244
218 232 246
221 235 249
221 235 249
220 234 248
218 233 241
217 232 238
218 232 243
221 235 250
217 232 242
220 234 246
218 232 238
219 234 245
219 233 246
221 235 250
221 235 249
218 233 245
220 234 246
219 233 242
220 235 249
217 232 238
220 234 248
219 233 245
219 233 244
219 233 244
220 234 248
216 231 234
220 234 248
220 234 249
218 232 240
217 231 242
214 229 237
216 230 241
214 228 240
217 232 247
211 225 237
208 223 233
215 229 240
208 222 230
211 226 235
213 228 243
215 229 238
211 225 236
216 231 240
210 225 241
216 230 246
213 227 239
212 226 238
212 227 238
212 227 242
217 231 244
212 226 242
214 228 241
216 230 244
216 231 238
220 234 249
218 233 242
221 235 250
218 232 242
218 233 245
217 232 242
219 233 245
220 234 246
220 234 249
220 234 248
217 232 240
219 233 245
220 234 246
219 233 245
222 235 252
220 233 246
219 234 245
219 233 244
218 233 242
221 234 250
218 233 245
221 235 250
219 234 245
221 235 249
218 232 242
219 233 246
217 231 240
221 235 252
215 230 238
218 233 244
218 232 238
219 233 250
218 232 244
219 232 244
222 236 252
222 235 252
217 231 238
216 230 244
218 232 246
217 231 247
218 232 246
217 230 248
218 232 249
216 230 248
213 227 245
212 226 245
215 228 247
212 225 242
213 227 246
221 235 253
217 231 242
208 224 220
203 220 202
192 210 177
185 205 147
176 198 124
171 194 79
173 195 86
175 197 100
173 197 80
172 194 100
179 200 124
186 207 136
177 197 117
61 92 117
69 100 107
135 159 82
171 194 40
165 188 52
163 186 70
166 189 67
187 205 188
213 228 238
211 227 217
207 222 233
58 93 122
58 92 119
58 92 130
59 94 122
59 94 126
60 94 130
57 92 122
59 93 128
59 94 122
60 94 130
59 93 118
60 95 135
60 94 131
59 93 131
60 94 135
57 91 115
58 92 124
61 96 136
60 94 135
59 94 130
61 95 133
59 94 122
60 95 136
59 93 125
60 95 133
60 94 122
60 94 131
60 94 125
58 92 117
60 94 130
60 94 133
59 94 135
58 92 118
59 93 128
59 94 133
59 93 124
58 91 128
60 94 130
60 94 140
61 96 137
60 95 135
61 96 137
60 94 136
59 93 124
61 96 141
58 91 125
59 94 137
60 94 128
60 95 140
57 91 114
59 93 126
60 95 136
60 94 134
60 94 140
60 94 132
58 92 121
59 92 124
60 93 134
59 94 126
60 94 134
59 93 128
60 94 134
60 94 133
59 93 131
59 93 130
58 91 117
59 92 124
60 94 129
59 92 124
58 92 126
59 92 125
59 93 121
59 92 121
57 91 117
58 90 128
58 91 125
58 91 123
60 93 132
58 91 129
58 91 119
59 93 125
57 90 116
58 90 122
57 89 111
56 88 117
58 91 121
57 89 117
57 89 119
56 88 110
55 85 109
58 90 121
57 88 123
56 87 117
56 85 112
53 81 101
54 83 97
55 83 104
53 81 114
52 79 100
53 80 104
48 73 91
47 70 80
153 153 139
115 102 45
93 83 32
79 66 21
74 63 17
81 72 22
82 72 19
76 73 29
73 64 21
78 70 33
68 66 31
80 73 37
76 72 34
83 80 35
78 77 28
81 81 34
82 81 37
91 89 48
90 89 41
101 99 56
103 104 52
104 102 44
105 104 51
104 102 53
108 106 59
105 105 49
124 121 58
118 114 56
121 117 58
115 114 56
130 126 59
127 123 59
126 121 53
130 127 71
122 120 61
134 132 61
137 132 67
141 137 73
137 134 70
136 132 68
136 133 62
138 136 68
147 141 71
147 143 67
145 142 69
138 135 66
143 139 69
151 147 72
149 145 67
153 148 74
155 150 76
148 145 66
155 150 71
159 153 73
156 151 73
152 147 74
153 149 69
156 151 73
157 152 78
166 159 82
154 151 62
161 154 74
160 155 72
159 153 75
162 155 71
164 158 75
163 156 79
165 159 76
160 154 76
165 159 81
159 153 73
171 163 86
167 161 80
160 154 64
162 156 74
168 161 86
164 157 73
168 160 82
168 160 79
165 159 74
168 161 77
164 158 74
165 159 76
172 165 86
167 160 78
170 163 82
171 164 84
165 158 78
164 157 69
166 159 78
164 158 75
167 160 81
168 160 79
168 162 80
163 157 80
170 162 80
165 159 70
168 161 80
170 163 80
168 161 83
158 152 64
167 160 80
168 160 83
166 159 80
166 156 74
165 157 72
166 159 74
165 158 70
169 161 82
167 158 75
164 154 77
171 162 84
164 156 71
167 159 82
167 159 78
170 161 83
164 155 75
169 161 83
166 158 78
163 153 74
168 159 80
170 160 86
166 156 79
166 157 77
163 155 71
161 153 71
164 155 71
165 156 78
164 154 74
164 155 79
162 153 71
161 151 72
166 157 77
166 157 77
169 159 81
161 153 69
166 158 76
167 160 78
165 156 77
163 155 74
163 155 72
163 153 73
164 155 78
165 156 74
165 156 78
161 153 74
162 151 77
161 150 71
166 154 76
218 232 240
221 235 249
220 234 246
220 234 246
219 233 241
219 233 244
220 234 246
221 235 248
220 234 245
218 232 243
219 233 244
218 233 240
220 234 246
221 235 246
220 234 246
220 234 248
218 233 241
220 234 244
220 234 246
220 234 244
220 233 246
219 233 242
218 232 243
221 235 250
216 231 236
220 234 249
219 233 244
219 233 248
218 232 244
220 234 246
220 234 248
220 234 246
220 234 248
219 233 244
218 233 241
219 233 245
219 233 242
221 235 249
219 233 242
219 234 245
221 235 249
219 233 244
218 233 242
219 233 242
222 235 252
220 234 246
220 234 248
218 233 241
218 232 241
219 233 248
215 230 242
217 231 242
214 229 238
218 232 244
219 233 244
215 229 240
214 228 242
217 230 246
213 227 236
215 229 242
215 230 243
214 228 241
212 227 237
212 226 239
213 227 237
217 231 248
218 232 246
207 222 231
218 231 247
211 226 235
214 228 242
216 231 242
218 232 241
218 232 241
219 233 242
219 233 245
217 231 240
219 233 244
219 234 245
218 232 245
219 233 244
219 233 245
217 232 240
219 233 244
219 233 244
218 233 245
220 234 248
218 233 242
220 234 248
219 234 246
218 233 241
218 232 241
221 235 249
220 234 249
219 233 245
221 235 252
220 234 249
219 233 245
220 234 246
218 232 241
219 233 245
221 235 250
218 233 244
219 232 248
220 234 246
216 230 242
220 234 246
218 232 244
221 235 249
220 233 246
218 232 245
214 228 241
212 225 242
216 230 242
219 233 250
216 231 242
212 227 229
204 220 215
203 219 203
200 218 194
196 214 181
188 207 157
183 204 134
171 194 76
165 188 72
171 195 47
169 191 73
171 194 74
175 197 72
173 196 68
173 196 76
174 197 72
174 195 110
178 199 105
171 193 97
182 203 121
189 208 160
158 179 112
58 91 112
77 107 124
168 192 18
168 192 31
170 193 54
169 192 40
167 189 61
168 189 112
202 217 213
206 222 199
216 231 236
66 98 136
59 93 130
60 94 133
58 91 123
59 93 120
58 92 120
59 94 129
58 92 125
58 92 122
59 93 124
59 93 129
59 93 128
60 94 133
60 95 134
59 94 128
59 93 129
56 89 109
60 94 131
60 95 133
58 92 122
60 94 135
60 94 130
59 94 122
60 95 134
61 95 134
58 93 131
59 94 131
59 93 122
59 92 122
58 92 124
59 93 124
59 94 126
60 95 135
60 95 129
58 92 121
62 97 150
59 93 122
59 93 136
58 92 124
60 94 126
59 93 124
59 94 125
60 94 136
60 94 131
60 94 125
60 94 122
58 92 118
60 94 130
59 93 130
61 95 140
58 91 122
60 94 136
59 93 128
59 93 133
60 94 139
57 90 118
59 94 125
60 94 122
60 94 136
59 92 125
60 94 133
60 95 142
60 94 133
60 95 128
58 92 110
58 91 124
59 92 121
58 92 121
58 90 128
60 94 139
58 91 125
59 92 115
59 92 127
58 91 124
57 91 124
60 94 131
59 92 124
58 90 120
59 92 128
59 93 131
57 90 114
58 91 112
58 92 120
57 89 119
58 91 122
59 91 126
57 89 125
54 84 105
58 90 110
56 89 118
56 87 118
56 87 116
54 85 109
57 88 124
55 84 110
55 86 110
57 87 121
53 81 101
52 80 100
54 81 111
49 75 100
77 93 95
184 187 186
102 90 34
100 83 26
90 79 27
68 60 21
76 64 16
76 64 16
79 72 21
74 68 20
73 64 26
81 79 32
73 69 21
80 75 33
79 75 32
81 82 40
81 79 40
84 82 40
96 93 39
81 82 42
105 102 48
92 89 45
104 102 52
108 107 55
117 113 60
107 107 52
103 105 47
120 119 50
124 122 56
122 119 62
126 123 56
115 112 55
119 117 56
135 133 63
121 120 57
135 131 59
134 130 60
137 134 60
134 131 65
145 141 72
138 135 62
138 135 61
147 142 74
142 138 69
138 134 69
146 142 70
147 144 75
147 144 64
146 142 65
158 152 72
154 149 72
154 148 72
151 146 73
156 151 66
152 146 66
153 148 72
150 146 71
152 146 72
160 154 77
157 152 76
162 157 82
159 153 72
160 155 75
168 161 80
166 159 75
162 156 72
154 149 64
166 159 75
159 154 72
161 155 71
165 158 80
164 157 74
169 162 78
164 157 80
165 159 72
165 159 74
161 155 75
170 163 82
166 159 77
162 156 71
164 158 76
166 159 80
165 158 79
166 159 74
167 159 75
168 160 76
164 158 75
167 161 76
163 156 75
173 165 86
165 157 73
167 160 80
166 158 72
163 157 73
166 159 75
167 161 79
167 159 75
165 159 77
165 156 72
168 161 75
165 159 69
166 158 75
167 159 77
160 154 68
169 161 76
168 160 77
167 160 73
166 158 77
166 159 75
165 158 72
168 160 77
171 162 81
165 156 74
165 157 75
163 156 74
163 154 73
167 158 76
166 156 79
168 161 79
165 157 76
168 161 76
170 162 80
168 160 80
163 155 71
166 156 77
165 156 74
159 151 70
163 155 71
164 155 69
165 157 76
169 160 81
161 153 73
163 153 75
164 154 75
163 154 72
168 158 81
165 157 76
166 156 75
167 159 79
164 154 73
164 155 73
167 158 84
164 154 74
163 155 78
161 153 70
164 155 71
163 151 70
165 154 76
160 149 69
162 154 74
214 229 227
221 235 248
222 235 250
220 234 244
219 233 240
220 234 247
221 235 248
220 234 244
220 234 244
219 233 242
221 235 248
220 234 244
219 233 241
219 233 241
220 233 244
221 234 246
221 235 250
218 232 241
219 233 248
219 233 246
217 232 244
218 232 242
218 232 246
219 233 245
218 232 240
222 235 250
220 234 248
218 232 240
220 234 250
219 233 241
219 233 246
218 232 244
221 235 248
221 235 250
220 234 246
220 234 246
220 234 245
219 234 245
221 235 248
217 232 238
221 235 249
219 233 245
220 234 246
221 235 250
221 234 246
219 233 245
220 234 245
219 233 244
220 234 245
220 234 248
220 234 246
218 232 242
215 229 241
215 230 242
216 230 242
217 231 244
213 227 236
217 231 246
215 229 246
220 234 251
214 228 242
212 227 232
217 231 242
213 228 238
210 225 236
213 228 240
210 225 234
212 226 234
215 229 243
213 227 245
220 234 248
217 232 242
220 234 246
220 234 248
220 234 245
218 232 244
221 234 246
218 232 242
221 235 249
218 232 238
219 233 242
222 235 250
219 234 246
219 233 242
220 234 246
218 233 241
221 235 250
220 234 246
217 232 240
218 232 238
218 233 242
216 230 238
220 234 246
221 235 252
220 234 245
220 234 246
216 231 238
220 233 245
214 229 237
218 233 241
219 234 248
216 231 242
222 236 250
214 229 233
213 227 233
210 226 228
207 223 211
206 222 203
201 218 193
196 214 174
198 216 181
194 212 161
183 204 140
181 203 118
181 202 103
170 193 51
172 195 84
171 195 76
167 190 65
169 192 47
173 196 76
166 190 72
170 193 72
173 195 84
171 195 62
173 195 78
175 198 92
171 194 67
170 193 102
174 197 86
173 196 82
176 198 94
176 198 94
174 196 84
182 202 122
175 196 108
175 197 107
135 157 102
68 98 107
133 157 80
164 188 44
168 191 36
170 193 36
160 184 61
166 189 62
168 191 67
208 224 214
201 219 182
218 233 240
105 128 158
58 92 122
59 94 131
59 94 130
57 90 120
59 94 125
59 93 126
59 94 131
58 92 120
58 92 129
59 93 122
59 93 128
59 94 131
60 95 136
59 93 120
60 94 129
59 93 133
59 92 129
58 91 114
58 92 126
60 95 136
60 94 130
58 92 117
58 92 130
61 96 142
58 91 115
60 94 130
60 94 125
59 94 128
60 94 126
59 93 128
58 93 133
59 93 122
60 95 129
60 94 129
60 94 129
59 94 131
60 95 135
60 94 122
59 93 125
60 94 125
58 92 121
61 95 131
59 93 125
59 93 129
58 92 118
59 93 130
59 92 126
60 95 139
60 94 128
60 95 139
58 91 125
60 94 134
59 93 131
59 93 129
59 93 128
59 93 133
59 93 135
59 92 128
58 92 121
59 93 126
58 92 123
59 93 125
58 91 120
60 93 130
58 91 122
58 92 124
58 92 125
58 91 120
59 92 129
57 89 110
59 92 126
58 91 129
59 92 123
57 90 120
58 91 124
61 95 144
58 91 120
56 88 113
58 90 125
59 92 125
58 90 123
58 90 130
57 89 113
58 91 123
58 91 133
55 86 117
56 87 117
55 85 114
53 83 108
56 87 108
57 89 111
55 84 112
54 84 110
55 84 111
56 86 116
52 80 107
52 79 102
53 79 91
51 78 100
51 77 94
98 112 126
202 209 219
107 93 33
102 89 35
84 70 28
74 64 18
84 75 25
75 67 21
73 66 29
68 59 21
69 64 28
74 68 24
64 64 27
66 65 32
80 78 38
81 81 43
68 68 29
90 86 44
91 89 40
97 94 43
96 94 44
102 100 48
101 98 46
106 102 47
102 102 49
117 115 56
113 112 45
118 117 56
121 118 60
139 135 60
119 118 55
125 121 63
124 121 53
133 129 61
133 129 63
130 127 65
128 124 56
131 127 63
135 132 66
137 133 62
140 135 68
139 135 63
136 134 67
140 136 64
140 137 62
139 136 68
141 137 61
137 135 68
148 145 60
148 143 65
146 143 67
146 142 68
149 145 67
159 153 80
156 151 77
156 151 70
157 152 70
159 154 63
153 149 72
157 152 72
159 153 69
154 148 64
160 155 71
155 149 74
154 148 71
164 157 71
164 158 75
163 157 86
162 156 73
155 150 65
156 150 70
158 152 73
158 152 70
162 156 75
162 156 74
162 155 72
164 157 74
163 157 71
165 157 73
167 160 78
166 158 72
160 154 67
167 160 78
168 161 76
163 156 75
167 160 74
165 158 74
165 159 69
166 160 73
166 159 80
169 161 78
165 157 69
169 162 85
169 160 74
163 155 60
166 159 73
166 159 74
166 158 71
167 160 74
163 155 75
171 163 81
168 161 76
169 161 84
163 156 73
168 160 78
166 158 79
167 159 77
168 160 75
162 154 68
171 163 84
167 160 75
164 156 76
168 158 82
170 161 80
164 156 70
166 159 78
166 159 74
160 152 69
161 153 66
160 151 67
164 156 75
163 155 72
168 158 80
163 154 73
169 161 82
168 160 80
166 157 77
165 154 77
167 158 77
167 159 73
166 158 80
167 159 76
165 157 76
166 158 78
158 148 68
162 152 77
164 155 74
163 154 72
162 152 73
161 152 74
163 154 66
167 158 77
162 153 75
166 157 75
166 157 78
162 151 73
160 151 70
164 155 78
161 150 72
162 153 68
186 207 117
187 208 130
193 212 151
191 211 144
194 213 151
203 220 188
205 222 198
212 228 225
216 231 233
219 233 238
221 235 246
221 234 245
220 234 245
217 231 238
221 235 249
221 235 248
221 235 248
220 234 245
220 234 245
218 232 241
219 234 245
220 234 247
220 234 245
218 233 240
219 233 245
220 234 244
220 234 244
218 232 242
218 232 239
221 234 246
220 234 248
219 233 244
220 234 248
219 233 241
220 234 246
220 233 245
219 233 241
219 233 242
221 235 249
221 235 248
222 235 250
218 233 240
220 234 244
222 235 250
218 233 242
222 236 250
218 233 241
221 235 248
219 233 241
221 235 249
220 234 246
218 233 241
219 233 242
216 230 241
217 231 246
214 229 240
217 231 241
218 232 245
218 232 244
215 229 240
211 225 237
217 231 248
218 232 246
216 230 241
215 229 245
213 227 241
213 227 238
213 227 240
220 234 246
219 233 246
217 232 240
220 234 244
221 235 249
219 233 245
219 233 242
218 232 241
220 234 242
221 235 249
215 230 234
220 234 245
221 235 249
218 232 238
219 233 244
219 233 244
219 233 246
219 233 244
214 230 236
213 228 227
215 229 231
215 229 230
208 225 214
207 223 207
208 225 212
203 221 193
202 220 189
197 216 175
191 211 155
193 212 157
188 208 128
186 207 142
184 204 122
178 200 88
178 201 84
176 200 72
176 198 67
179 202 92
177 200 80
177 200 62
175 197 76
175 198 44
177 200 76
175 198 65
176 198 44
171 194 60
169 192 57
170 193 65
169 193 67
175 198 88
172 196 72
173 197 76
172 195 62
175 198 76
173 196 88
168 191 67
170 193 76
169 192 60
170 192 90
174 197 76
169 193 82
170 193 82
173 195 74
170 192 79
168 191 92
173 195 93
173 194 110
180 200 136
172 194 100
92 117 101
91 117 92
166 189 18
169 193 31
167 191 31
170 193 36
170 192 62
161 185 57
172 194 76
201 218 184
202 220 191
224 237 255
159 176 197
59 93 125
59 93 121
58 91 117
60 94 120
58 93 128
58 93 129
59 93 120
58 92 120
58 92 117
58 91 115
61 96 141
57 91 117
59 93 122
59 94 131
58 92 120
60 95 135
60 94 131
59 93 129
60 94 124
59 93 121
58 92 117
59 93 124
59 93 120
59 94 129
59 94 124
59 93 120
58 92 124
58 92 121
57 91 110
61 96 140
61 96 143
60 95 135
61 95 136
58 92 122
59 93 125
58 92 126
59 93 128
59 93 122
59 94 130
59 93 125
60 94 135
58 91 114
59 93 122
60 94 129
59 93 130
59 93 117
59 93 128
60 95 129
60 94 139
60 95 135
58 92 124
59 93 128
60 94 134
57 90 107
59 92 130
60 94 131
59 93 122
59 93 125
60 94 130
58 91 126
58 92 125
57 90 126
58 91 118
59 92 130
58 91 114
58 91 126
59 94 130
58 91 126
58 91 121
58 91 124
58 91 120
58 91 117
59 93 128
59 93 128
57 89 119
57 90 118
59 93 125
57 89 113
58 91 124
58 91 123
56 88 107
57 89 114
58 91 123
57 90 117
58 89 113
56 88 117
55 87 104
59 92 126
58 89 122
57 88 107
55 85 105
54 83 115
55 85 109
54 84 112
55 85 116
54 82 109
52 81 101
51 78 101
51 79 103
50 74 87
136 149 159
220 233 250
118 105 44
101 92 31
102 88 36
74 68 19
72 63 18
74 65 14
77 70 22
80 70 25
76 68 21
77 71 24
75 68 24
72 65 27
78 73 31
66 64 30
81 80 36
89 87 43
95 92 38
94 93 40
88 87 42
91 90 43
104 102 44
106 105 44
99 98 47
108 107 49
105 102 43
112 111 54
115 114 54
103 103 45
125 121 61
126 123 56
113 111 49
123 120 56
115 114 55
128 126 60
132 128 63
141 135 67
141 137 67
144 138 64
133 130 65
145 140 66
144 140 66
135 132 67
148 144 65
145 139 67
150 145 64
147 142 65
149 143 62
151 146 72
141 137 61
152 148 71
144 140 63
156 150 72
157 151 74
155 150 73
154 149 71
157 151 69
154 149 66
159 152 66
156 150 69
159 152 72
157 152 74
166 158 82
152 148 62
157 150 73
160 153 63
157 151 68
166 159 72
161 156 75
161 154 66
163 157 69
161 155 72
159 153 72
160 154 73
166 158 75
164 157 70
162 155 77
161 154 67
167 159 78
159 152 69
165 158 72
169 161 83
166 158 74
173 165 81
164 158 68
166 160 73
167 159 73
168 161 75
166 159 74
163 156 74
166 159 72
161 156 66
165 158 73
166 158 76
168 160 79
165 159 75
166 159 74
169 161 79
168 160 76
163 157 72
166 159 72
162 155 66
165 157 72
164 156 69
168 161 80
164 156 74
168 160 77
163 156 70
163 157 76
166 158 75
164 155 68
169 160 77
165 156 76
165 158 76
168 160 80
165 157 75
167 160 77
168 160 74
170 161 82
165 156 72
165 157 76
163 156 68
163 157 69
161 155 73
164 154 70
166 158 74
164 157 73
166 158 70
159 150 70
163 154 74
158 150 62
166 157 77
162 152 65
161 153 69
163 155 73
165 157 73
164 156 72
169 159 77
162 154 76
161 153 75
165 156 72
165 156 77
165 156 79
164 154 77
158 150 70
163 153 72
163 154 70
164 153 74
163 152 75
190 210 135
186 207 122
186 207 117
184 205 105
182 204 111
183 204 113
181 203 100
180 202 88
180 203 95
179 201 80
180 202 88
184 205 108
189 209 141
189 209 133
196 214 162
197 215 167
196 215 167
205 222 198
206 223 201
206 222 199
209 225 209
209 225 211
213 228 221
212 227 221
217 231 236
217 231 233
217 232 236
219 233 242
217 231 236
220 234 248
218 232 241
219 233 243
218 232 238
219 233 242
221 235 246
218 232 243
222 236 250
221 235 249
219 233 241
221 235 246
221 234 246
222 236 252
220 234 244
222 235 250
221 234 248
219 233 244
218 232 240
219 233 242
221 234 246
221 235 250
219 233 242
219 233 244
219 234 245
220 234 245
223 236 253
221 234 250
219 233 246
220 234 245
217 231 240
206 222 230
216 230 238
214 229 233
211 226 227
207 223 214
215 229 236
214 229 231
211 227 222
209 225 214
208 224 207
207 223 201
202 220 191
208 224 211
201 219 186
202 219 191
199 216 181
194 213 159
196 214 163
192 212 151
190 210 144
191 211 149
189 209 135
186 208 130
184 205 120
183 205 108
179 202 99
179 201 88
177 200 76
176 199 72
176 200 76
175 199 51
174 198 44
176 199 36
178 201 72
173 197 44
178 201 84
175 198 62
178 201 80
173 198 44
177 200 76
173 198 67
176 200 72
174 197 44
173 196 67
175 198 72
174 197 36
176 200 76
176 200 80
174 196 57
173 197 57
175 198 92
175 197 67
173 197 78
174 197 67
179 202 88
175 198 76
168 191 84
169 193 54
171 193 60
172 195 72
170 193 76
173 196 54
171 194 92
170 193 57
169 193 47
168 190 76
171 194 76
175 197 72
171 194 90
173 195 65
173 196 78
168 191 65
171 193 86
173 195 105
174 196 99
180 201 124
174 196 99
174 194 120
61 92 105
155 178 40
160 184 36
163 187 44
167 190 25
167 190 25
167 190 65
165 188 51
176 198 36
204 221 193
201 219 182
217 231 234
176 193 192
58 92 121
59 93 128
59 93 126
58 92 112
58 91 120
58 92 130
58 92 114
59 93 124
60 94 133
58 92 120
59 94 121
58 92 122
61 95 135
59 93 129
58 92 117
60 95 135
60 94 128
58 91 121
58 92 121
59 94 124
61 97 143
60 94 131
58 92 117
59 93 137
58 92 115
59 93 120
58 91 121
60 95 134
57 91 115
60 94 126
61 95 133
59 94 125
56 89 124
61 96 139
60 94 130
60 94 131
57 90 111
60 94 133
59 93 124
58 92 118
57 91 111
60 94 126
59 93 124
60 94 133
60 95 135
58 91 121
56 90 114
57 89 111
59 93 129
57 90 125
58 92 117
60 94 133
60 95 136
58 92 122
59 93 126
59 92 121
59 94 133
59 92 123
60 94 125
57 90 114
61 95 135
58 92 125
60 93 130
59 93 129
60 95 133
60 93 135
59 92 131
58 91 128
59 92 126
59 92 124
57 91 125
58 91 111
59 92 127
59 92 123
59 94 125
57 89 117
57 90 116
57 90 126
58 91 125
60 93 137
57 88 122
56 88 121
57 90 121
57 89 117
57 89 126
57 89 120
56 88 115
58 91 123
56 87 117
58 90 115
58 90 118
56 86 117
55 84 116
55 85 112
52 81 103
56 86 113
54 81 102
52 79 106
50 75 93
46 69 71
163 178 163
214 229 223
142 140 114
108 97 36
103 87 31
95 84 21
92 78 17
77 64 11
67 61 14
72 63 16
77 72 22
64 64 29
72 69 26
82 74 29
75 74 34
89 88 40
80 78 34
88 85 34
98 95 37
90 89 39
83 81 39
100 96 41
101 98 39
97 97 50
110 108 50
104 103 48
111 110 57
108 108 50
110 108 47
113 110 46
111 110 48
121 117 56
127 122 57
127 124 59
126 122 54
128 125 50
129 125 57
125 124 57
125 121 56
141 137 61
138 135 66
147 141 68
154 147 74
145 140 61
141 138 61
142 139 69
144 139 61
154 148 70
150 145 62
148 144 67
143 138 63
143 140 66
149 144 62
151 145 64
154 149 73
160 153 71
154 149 65
155 150 66
154 148 66
159 153 72
160 153 70
163 156 73
162 156 75
156 150 65
155 151 68
162 156 75
157 152 69
158 152 73
158 152 66
165 158 75
162 156 67
162 156 75
163 156 72
159 154 69
163 157 71
162 155 70
160 155 71
161 154 70
160 153 65
163 155 68
163 156 73
164 158 68
164 157 70
164 156 69
165 158 76
159 153 66
165 159 70
160 153 61
163 157 70
165 159 69
168 160 76
169 161 77
167 160 74
161 155 69
167 160 71
163 155 70
169 160 81
162 156 72
161 154 73
163 155 68
163 156 74
165 158 76
165 159 70
169 161 79
168 160 78
165 158 70
169 162 77
165 158 68
167 160 80
165 157 68
165 157 71
159 151 63
157 150 70
160 151 68
165 156 70
159 152 59
167 159 79
164 157 74
168 159 80
162 155 70
163 155 69
161 153 66
161 154 65
164 156 74
158 149 62
161 154 71
162 152 66
161 153 69
164 155 73
161 153 71
169 161 82
162 153 75
164 156 76
159 151 70
167 158 73
165 156 69
167 158 78
165 156 74
163 154 73
164 154 74
161 151 70
162 152 71
163 155 74
164 156 73
163 154 75
159 152 68
162 154 70
162 152 78
166 158 78
163 154 73
188 209 140
185 206 114
186 207 122
187 208 128
183 205 102
185 206 122
179 202 88
179 201 72
181 203 92
181 203 92
182 204 92
178 201 76
181 204 102
177 200 62
179 201 72
177 200 67
177 200 72
178 201 62
178 201 80
178 201 82
181 203 84
181 203 95
175 199 80
178 200 67
180 201 88
176 199 65
177 200 62
178 201 94
175 198 62
176 199 57
179 202 94
179 202 95
181 203 99
182 204 92
181 203 100
188 208 128
185 206 114
181 203 92
186 207 122
183 205 111
183 204 99
185 206 120
184 205 111
186 207 114
189 208 133
180 203 92
182 204 105
184 206 117
182 205 114
182 204 99
180 202 88
179 201 80
183 204 105
178 201 84
182 203 92
182 204 108
177 200 72
177 200 57
176 199 57
177 201 84
177 200 67
178 201 76
176 200 62
175 199 67
176 200 67
177 200 62
178 201 84
175 198 62
176 199 62
176 199 72
176 199 57
178 201 76
176 199 72
175 198 44
175 199 67
177 200 76
177 200 80
178 201 84
175 198 80
177 200 72
177 200 67
177 200 72
176 200 67
174 198 76
177 199 51
177 200 67
176 200 72
177 200 62
173 198 44
177 200 67
173 196 62
176 199 67
174 197 57
174 198 62
174 198 57
173 197 51
174 198 62
175 198 67
175 197 76
174 198 67
176 199 62
174 197 57
173 197 67
176 199 51
176 199 62
175 198 80
175 198 72
175 199 72
175 198 67
173 197 80
176 199 62
176 199 67
175 198 76
171 194 62
175 198 76
169 192 74
171 194 70
174 196 76
172 196 90
169 193 51
168 191 62
173 195 82
171 195 70
171 194 86
174 197 62
169 192 72
170 193 90
166 188 70
170 193 94
169 191 88
169 192 82
170 193 67
174 196 90
173 195 97
178 200 120
176 198 88
135 158 95
144 168 62
165 190 25
167 190 25
167 190 36
163 187 25
166 189 44
168 190 62
168 192 31
178 200 57
205 221 198
181 204 102
175 198 0
166 188 31
58 92 125
57 91 110
57 91 113
57 90 115
59 93 131
57 91 118
56 89 102
57 90 107
58 91 124
56 89 115
58 93 117
58 92 123
59 93 125
59 93 126
58 92 125
58 92 121
59 94 125
58 91 117
61 95 135
59 93 126
59 92 120
59 93 128
58 92 124
59 93 122
59 94 120
59 94 128
61 95 136
58 92 118
58 91 114
58 92 125
58 91 121
60 94 136
58 93 128
60 95 136
58 92 126
60 95 133
58 91 125
57 91 117
58 92 129
58 92 124
59 93 131
60 94 121
60 94 130
59 93 126
58 92 121
57 90 114
59 92 130
58 91 117
57 90 116
59 93 111
60 95 131
60 94 133
59 92 129
59 93 128
59 93 128
58 91 124
58 91 135
58 92 128
57 91 120
59 92 135
59 92 129
58 92 126
58 91 113
58 92 122
58 92 122
57 91 108
59 93 128
58 91 114
58 91 130
58 91 123
59 92 131
59 92 135
59 92 131
59 93 126
57 90 113
59 92 124
57 90 126
55 87 110
59 92 127
57 89 112
58 90 128
57 90 120
58 90 114
58 91 129
57 89 114
60 93 125
56 87 125
54 85 102
57 89 119
55 85 107
56 87 110
55 86 104
54 82 97
55 86 111
54 82 111
55 85 109
52 78 99
52 79 82
52 77 89
47 69 72
166 189 32
175 198 0
156 166 32
117 103 41
95 81 22
97 86 18
82 71 20
85 78 15
85 72 20
71 66 25
81 71 18
79 73 23
77 73 27
77 74 26
75 72 29
65 63 20
90 86 33
87 84 34
99 94 40
90 87 36
79 79 37
88 89 38
100 100 48
83 83 36
104 102 43
103 103 43
106 106 46
111 110 55
123 119 50
122 120 54
127 123 57
124 122 50
127 122 56
125 123 56
123 120 63
126 124 59
129 128 62
130 128 58
134 130 64
139 136 69
133 130 52
136 132 56
136 133 55
143 137 60
141 135 55
136 132 64
143 138 62
145 141 61
148 144 70
145 141 60
145 141 62
150 145 61
154 148 63
149 144 61
153 147 62
156 150 70
157 150 65
157 151 69
159 153 73
161 154 77
154 149 63
160 155 70
152 147 68
164 157 82
156 152 67
159 153 67
163 157 78
150 144 68
158 151 65
153 147 63
164 158 71
160 152 71
166 158 74
160 154 71
162 156 68
160 154 74
162 156 65
164 156 71
161 155 65
169 161 77
163 157 64
166 159 77
165 159 71
160 155 67
162 155 71
159 153 65
161 156 68
164 156 70
165 159 69
165 158 72
164 157 68
163 156 67
163 155 71
165 157 65
161 153 66
163 157 73
165 158 76
164 157 71
167 160 72
163 155 74
166 158 78
163 156 67
165 157 74
162 154 67
162 157 71
166 157 70
165 157 73
164 156 67
164 156 72
163 156 65
166 158 73
166 156 73
165 157 72
163 155 72
162 154 69
169 160 80
165 155 75
164 155 69
162 154 66
167 159 71
163 155 74
163 153 71
159 151 68
163 156 70
163 153 75
167 159 73
168 159 79
164 155 74
160 151 72
163 155 70
163 153 64
162 153 68
166 158 74
166 157 74
154 144 63
164 155 71
165 156 75
162 155 63
155 146 66
162 155 67
165 154 73
163 155 71
162 153 73
160 150 66
165 156 75
167 157 80
159 149 69
162 152 69
167 160 77
164 154 72
185 206 120
182 204 107
185 206 120
187 207 128
183 205 111
181 203 92
184 205 105
182 204 105
181 204 108
181 204 99
183 205 102
179 201 62
178 200 62
179 201 72
180 202 84
177 200 72
178 201 80
179 201 80
174 198 60
176 199 70
177 200 67
174 197 57
177 200 74
179 201 80
178 201 74
176 199 70
178 200 70
176 199 62
174 198 65
177 199 51
175 199 51
174 197 47
175 199 67
176 200 67
176 200 62
176 199 44
176 200 67
177 200 67
177 201 76
179 201 67
175 199 44
179 201 80
178 200 57
180 202 88
178 201 76
176 199 51
176 199 57
176 199 62
177 200 72
178 201 76
175 199 57
175 198 25
177 200 72
177 200 67
176 200 82
178 201 67
177 200 76
175 199 57
177 200 67
178 201 62
177 199 44
176 199 51
177 200 67
177 200 80
177 200 62
174 198 51
175 199 67
177 200 67
176 200 72
177 200 72
177 200 57
176 200 84
175 199 67
177 200 62
175 198 44
176 199 67
175 198 44
176 200 76
177 200 72
177 200 72
176 199 72
179 202 84
174 198 62
172 195 44
175 198 44
175 199 51
175 198 72
175 197 72
176 200 72
176 199 67
175 199 57
177 200 88
174 198 72
178 201 84
176 200 72
174 197 51
176 200 72
175 198 57
174 197 67
176 199 67
169 193 57
174 197 44
174 198 57
174 197 36
173 197 67
175 198 72
176 199 80
172 196 44
177 200 76
172 195 51
171 194 51
170 194 57
176 199 88
173 196 57
175 198 76
170 194 57
171 194 74
174 198 84
174 197 82
173 196 82
171 195 80
174 197 65
168 192 65
169 192 84
172 195 67
168 191 65
167 190 80
171 193 86
172 195 76
174 197 74
170 193 76
172 194 84
172 195 84
179 200 140
175 196 105
171 193 80
133 156 57
159 182 36
159 183 36
164 188 25
166 190 0
167 190 25
156 180 51
167 190 65
172 195 36
177 200 72
200 218 182
178 201 62
177 199 0
174 197 0
79 107 102
60 94 122
59 93 115
58 91 120
56 90 118
57 90 128
58 92 120
58 92 117
58 92 118
58 92 118
59 93 124
58 92 124
59 94 125
59 93 126
57 91 107
60 95 129
58 92 113
59 94 124
60 94 130
59 93 125
58 92 120
57 91 114
59 94 121
60 94 135
60 94 129
57 91 120
57 90 113
60 94 131
60 94 133
60 94 122
59 94 126
60 94 128
59 92 130
60 95 130
60 94 130
59 92 122
58 92 118
58 91 118
60 95 131
60 94 134
60 95 139
60 95 130
60 94 133
58 91 124
59 93 122
60 94 128
59 93 134
60 94 129
59 94 122
58 91 115
58 92 125
59 93 121
59 93 124
59 93 125
60 94 128
60 93 128
56 89 122
58 91 114
59 93 126
58 92 115
57 90 122
59 93 125
60 94 124
60 94 129
59 93 122
59 92 125
58 91 121
58 91 117
56 89 111
59 92 126
58 91 125
57 90 120
59 92 121
59 92 125
58 92 118
56 89 107
58 92 128
58 91 119
57 90 116
56 87 110
58 91 116
58 91 126
57 88 115
56 88 109
57 88 105
56 87 109
56 88 111
55 86 108
56 88 111
56 87 111
56 86 110
56 87 123
56 85 110
55 85 114
53 80 109
52 81 102
52 79 101
52 78 101
49 73 79
72 92 58
175 198 0
174 197 0
168 185 24
117 104 40
107 94 33
99 89 26
85 78 26
100 89 18
81 74 18
88 85 28
65 54 14
70 65 16
83 77 23
86 78 20
75 71 24
83 77 24
74 71 24
88 88 28
91 86 32
92 88 37
99 97 34
89 89 33
101 96 37
96 97 45
107 104 42
115 111 50
117 113 42
111 108 48
113 109 52
116 112 47
117 115 49
131 126 52
115 111 48
131 125 59
128 126 55
128 125 59
126 123 56
121 118 49
129 125 55
121 119 56
135 132 60
141 136 60
136 132 59
141 138 60
138 133 55
140 136 62
134 131 51
150 145 67
148 144 66
141 137 53
141 137 63
146 141 65
150 145 69
154 147 71
151 145 62
147 142 65
141 136 55
154 148 68
156 151 70
160 154 75
154 148 67
152 146 68
162 155 72
153 147 61
157 151 68
158 152 69
157 150 64
162 156 69
162 155 65
158 151 69
160 152 71
163 157 74
165 158 77
165 159 71
156 151 63
161 155 65
162 155 70
166 158 74
162 155 65
161 154 77
162 154 67
163 157 69
161 154 72
160 154 69
160 154 70
164 156 69
163 154 71
163 155 70
161 154 64
166 157 71
164 156 70
163 155 66
164 157 73
160 152 66
165 158 74
164 156 70
162 157 66
164 156 70
161 154 64
160 153 70
166 156 78
167 158 81
160 153 65
166 158 75
167 159 75
160 153 66
164 158 72
161 154 62
165 159 72
165 158 70
166 158 71
162 154 69
170 162 78
165 157 67
166 159 76
167 160 81
169 160 78
162 154 71
165 156 73
168 159 76
166 157 77
163 155 68
165 157 72
164 155 76
163 156 65
161 153 69
164 154 76
159 150 66
161 153 65
158 149 69
159 149 62
161 152 69
162 153 70
160 152 64
159 151 67
164 156 73
158 150 62
164 156 70
164 156 70
160 150 72
163 154 71
162 152 73
161 150 73
159 150 63
160 151 66
164 156 76
166 155 78
159 150 61
162 153 66
157 148 65
195 214 161
185 206 126
185 206 114
184 206 111
185 206 120
181 203 92
187 207 122
182 203 92
178 201 80
181 203 84
175 198 62
178 201 76
178 201 84
179 201 88
176 199 51
179 201 76
176 199 80
179 201 84
179 202 84
181 203 95
180 202 92
178 201 67
176 199 57
176 199 51
177 201 80
175 198 57
178 201 76
178 200 57
178 201 84
175 198 60
177 200 84
178 200 62
178 201 84
178 201 57
177 200 76
176 199 76
175 199 76
178 201 76
177 200 57
177 199 67
177 200 72
176 199 72
179 201 80
174 198 44
176 200 62
180 202 80
176 199 51
177 200 72
177 200 84
176 199 62
176 199 57
178 201 84
175 199 62
176 200 76
179 201 76
176 199 51
179 202 76
175 199 51
174 198 62
176 199 67
175 199 51
176 200 72
176 199 67
174 198 51
177 200 84
175 199 84
178 201 84
176 200 67
176 200 67
176 200 67
176 199 57
175 198 44
178 201 80
177 201 88
176 200 76
177 200 84
177 200 80
175 199 72
175 199 67
174 197 36
177 201 84
173 197 57
177 201 95
175 199 67
175 199 67
175 198 36
175 199 67
174 198 62
177 200 84
174 198 36
175 198 57
174 197 44
175 199 80
173 197 67
173 197 62
175 200 80
176 199 67
177 201 80
174 198 51
172 196 67
176 200 95
176 199 67
172 195 62
174 198 62
174 197 67
173 196 76
173 196 57
176 199 67
175 198 51
174 197 62
172 195 44
171 195 44
171 194 57
175 198 76
171 194 51
171 194 60
168 191 74
170 194 67
176 199 86
170 193 86
166 189 88
177 200 108
171 194 74
169 192 62
167 190 86
171 195 88
167 190 67
169 192 47
173 196 78
175 197 74
171 194 81
173 194 74
175 197 110
171 193 95
168 191 90
173 194 95
158 180 25
159 182 40
159 183 31
163 186 18
166 190 0
169 192 25
161 184 40
171 195 25
178 200 72
182 204 111
192 212 147
173 196 0
174 198 0
175 198 0
120 144 80
56 90 103
59 92 126
57 90 121
58 92 120
58 91 121
57 91 120
56 90 97
56 90 117
58 92 117
59 92 119
58 91 115
57 91 107
59 93 125
59 93 117
59 93 126
59 93 130
59 93 118
59 93 129
57 91 114
58 92 118
60 93 124
57 91 120
58 92 118
58 92 118
59 93 125
57 91 121
56 89 114
60 94 126
56 89 113
58 92 118
58 92 117
59 93 128
59 93 125
57 90 113
59 93 128
59 93 118
60 95 130
59 93 130
55 88 105
59 93 122
57 91 121
58 91 118
59 93 125
58 91 118
61 95 138
59 93 126
59 93 128
58 92 131
58 91 120
59 92 122
59 92 124
57 91 120
58 92 128
58 92 121
60 94 134
60 94 125
58 92 121
58 92 116
57 89 115
57 90 113
59 93 121
59 93 126
59 93 130
57 90 115
58 91 110
59 92 129
58 91 124
57 90 110
56 89 107
60 94 131
59 93 128
58 91 122
57 89 116
57 89 120
57 90 110
58 91 125
59 92 125
56 88 113
60 93 131
58 91 126
56 88 113
57 89 113
57 89 107
58 91 120
54 83 110
55 86 105
57 88 115
56 86 110
55 84 116
55 86 109
55 84 111
56 87 122
56 86 124
54 81 94
55 84 107
51 78 89
50 76 94
48 72 72
122 142 64
174 197 0
174 198 0
175 198 0
132 129 37
109 95 32
101 89 33
92 81 22
89 76 17
87 80 24
75 69 21
78 70 16
78 75 21
77 72 25
78 77 19
83 79 30
75 70 27
82 79 29
84 80 36
85 80 17
90 87 24
86 84 38
86 86 34
100 98 47
106 103 39
106 104 44
112 107 47
107 106 42
111 109 49
109 105 49
112 108 42
117 113 45
117 114 42
121 118 52
128 124 50
121 117 51
125 122 54
133 128 60
122 118 47
132 129 58
129 125 51
132 128 62
135 130 59
144 138 62
143 137 53
143 138 58
151 144 66
139 135 60
139 135 54
152 146 67
150 144 66
151 144 73
150 145 67
155 149 76
153 148 63
145 140 64
148 142 56
156 150 67
144 140 58
152 147 63
157 151 63
158 152 74
155 150 71
154 147 65
158 152 62
158 151 70
159 153 67
157 151 64
161 155 64
152 148 63
166 157 71
159 152 67
163 156 69
159 152 64
161 155 71
165 158 69
162 156 68
162 155 70
164 157 75
162 156 70
164 158 73
158 151 65
162 155 69
162 155 64
162 154 70
166 158 72
164 158 64
164 156 69
162 154 71
162 154 73
164 158 71
161 155 64
163 155 70
163 156 70
164 158 63
161 154 64
164 157 66
169 161 80
166 160 74
167 158 69
164 157 72
162 155 72
167 160 76
167 159 75
165 157 68
159 151 67
167 158 75
164 158 69
163 155 69
167 158 72
165 157 72
157 149 62
170 160 77
164 157 75
166 159 73
160 153 73
162 155 66
166 156 78
161 152 69
162 153 72
163 154 72
163 154 69
168 159 74
162 152 69
163 152 68
163 154 69
166 158 75
166 156 77
163 155 72
168 160 73
161 152 69
162 153 70
166 157 75
163 156 70
160 150 68
156 147 63
159 151 65
161 152 70
160 152 64
157 149 70
163 152 70
163 154 81
163 156 72
162 152 74
161 153 65
159 149 67
167 157 77
163 155 73
157 148 64
160 149 67
168 158 74
194 213 151
188 209 135
186 207 122
184 206 114
181 203 108
183 205 114
184 206 108
181 203 92
183 205 102
178 201 84
181 203 105
181 203 102
179 202 94
179 202 84
179 202 88
180 202 88
180 203 92
180 202 76
178 200 76
178 201 86
178 200 80
178 200 70
176 199 51
174 198 47
178 201 92
178 200 78
177 200 72
177 200 72
177 200 74
180 202 90
178 200 76
177 201 80
177 199 62
178 201 80
173 197 44
177 200 62
177 201 76
173 198 51
179 202 88
179 202 88
176 199 62
178 201 76
177 200 44
178 200 62
178 201 76
177 200 80
176 200 67
177 200 67
178 200 62
176 199 72
176 200 72
176 199 51
176 200 84
176 199 51
177 200 57
176 199 57
177 200 62
175 199 51
177 200 51
176 199 62
173 197 36
178 201 72
176 199 57
174 198 62
174 198 57
175 199 67
176 199 67
177 200 72
176 200 62
176 199 62
177 200 51
176 199 51
172 196 36
177 200 72
177 200 51
175 198 44
176 200 76
176 199 57
176 200 76
176 199 67
176 199 67
175 199 62
175 200 76
176 199 72
175 198 57
175 199 76
177 201 84
177 200 67
174 198 72
175 199 57
176 198 72
176 199 67
175 198 62
175 198 67
177 200 67
177 200 80
175 198 51
175 199 76
174 198 95
175 199 80
174 197 72
174 199 88
173 197 80
174 198 57
174 199 92
174 199 80
175 198 72
174 197 76
175 198 67
172 196 57
174 197 72
173 197 51
172 195 67
169 193 72
171 194 67
169 193 62
172 196 62
175 198 95
175 198 67
171 195 88
169 192 90
165 188 82
172 195 67
175 198 76
168 191 57
170 193 76
167 190 65
174 197 97
171 194 94
173 195 107
169 191 102
179 200 129
176 197 111
172 193 100
172 194 90
159 180 36
157 179 18
158 181 18
157 180 36
161 184 36
161 184 31
166 189 25
171 194 54
172 195 25
172 196 25
186 207 128
184 205 108
175 198 0
175 198 0
174 197 0
141 166 67
58 92 113
57 90 110
57 90 107
59 93 124
58 92 121
58 92 129
57 91 115
58 92 125
58 92 121
58 92 113
58 92 131
59 93 118
58 92 124
58 92 115
58 91 113
60 95 126
58 91 114
57 90 113
59 92 125
60 94 120
59 93 128
59 93 125
59 93 125
58 92 118
57 91 110
60 94 128
59 92 128
58 92 111
58 92 118
59 93 130
59 92 118
59 92 128
58 91 120
59 93 126
60 94 134
57 91 114
60 95 128
57 90 108
60 94 120
59 93 117
59 93 128
60 95 126
59 93 125
57 91 115
58 91 121
58 92 121
58 91 115
59 93 128
57 91 115
57 91 114
58 91 122
57 90 117
59 92 121
60 94 130
59 92 120
58 92 115
58 91 118
61 95 130
58 92 115
58 91 117
59 93 126
56 88 107
59 92 128
59 93 125
58 90 121
59 92 124
58 91 122
58 90 121
59 93 125
58 90 119
58 90 126
57 89 108
57 90 116
56 88 118
58 91 116
58 91 129
56 88 115
58 91 115
58 91 128
58 90 123
57 89 110
59 90 117
57 87 109
57 89 121
56 86 98
57 89 106
55 84 113
54 84 110
56 87 113
55 85 113
55 86 110
56 85 105
55 85 106
55 84 98
52 81 94
52 78 94
49 75 91
45 68 70
146 167 25
173 197 0
176 198 0
173 197 0
147 154 25
115 103 35
90 78 28
98 84 24
84 75 21
85 73 22
100 89 19
86 78 28
84 78 20
78 71 24
93 85 23
77 72 19
84 81 24
84 79 31
81 78 28
82 76 28
86 84 29
88 85 30
93 90 40
89 85 30
96 94 39
111 109 39
102 97 39
100 98 41
113 108 43
110 110 33
106 103 38
115 113 55
121 119 39
125 120 50
123 120 45
120 117 50
125 121 48
124 121 47
136 133 60
127 125 48
129 125 54
131 126 56
138 132 57
133 131 55
135 132 56
143 138 66
137 134 51
140 136 57
141 136 60
145 139 55
149 142 60
144 140 58
144 140 64
154 148 66
155 149 69
156 149 69
144 138 55
150 143 63
157 151 66
156 150 65
150 144 67
152 146 61
157 152 65
152 147 58
162 155 72
156 151 61
151 145 61
155 149 63
156 151 67
152 147 65
156 150 64
157 151 60
160 153 65
158 153 65
161 155 63
156 150 57
160 153 68
161 155 72
159 153 64
165 157 68
158 151 64
164 157 69
160 154 64
163 156 67
163 156 69
163 156 69
161 154 68
164 157 68
164 157 67
163 156 67
158 151 60
166 158 75
159 153 64
162 155 64
156 149 62
161 154 63
159 151 67
169 160 75
160 153 69
164 157 70
161 154 64
161 152 62
167 159 74
161 153 69
168 160 75
162 155 66
164 155 72
161 155 66
161 154 66
169 161 73
162 155 68
158 151 64
160 151 63
161 152 69
162 154 60
165 157 67
167 159 80
158 150 63
163 155 64
165 158 70
163 155 67
162 152 65
162 153 70
162 155 67
163 154 71
166 157 75
168 158 73
164 154 76
163 156 71
158 151 65
164 155 74
164 156 72
161 152 63
162 153 71
162 152 74
160 153 65
155 145 64
167 157 74
160 151 64
158 149 57
162 153 70
168 158 76
160 150 62
156 147 63
163 152 69
162 153 71
158 150 60
157 147 69
158 148 71
156 146 68
162 152 67
183 205 114
190 210 137
188 208 130
181 203 105
184 205 111
182 204 102
184 206 117
178 200 67
186 206 114
178 200 88
183 204 108
180 202 95
180 203 88
182 204 102
177 200 72
176 199 57
179 202 80
178 201 80
179 201 80
178 200 67
178 201 88
179 201 76
179 201 90
176 199 54
174 197 70
178 200 62
174 197 47
177 200 72
175 199 62
175 198 67
173 196 57
178 201 67
178 201 84
177 200 76
177 200 76
177 201 90
175 198 51
178 200 72
178 200 67
180 202 92
175 199 72
177 200 57
177 201 88
177 200 76
174 198 72
177 201 92
175 198 51
178 201 67
177 200 84
175 198 25
175 199 72
178 201 76
176 200 72
175 199 62
178 202 95
175 199 76
178 200 62
175 199 62
177 199 72
175 199 67
176 199 44
176 200 80
176 200 72
176 199 76
176 199 67
178 201 80
177 200 80
174 199 67
177 199 51
175 199 67
175 198 62
174 198 62
176 199 62
175 199 62
176 200 76
174 198 67
176 201 95
177 200 76
175 198 76
175 199 72
176 199 62
175 198 51
173 197 67
175 198 67
174 198 72
176 200 67
176 199 62
176 200 88
176 199 72
175 198 57
174 199 80
176 200 76
174 199 72
175 199 84
174 197 51
177 200 67
174 198 44
176 200 72
175 198 88
174 198 72
174 197 62
173 197 67
175 199 57
176 199 67
173 197 57
173 196 44
174 196 36
173 196 67
170 194 62
175 199 57
174 197 51
178 201 102
170 194 57
174 198 44
170 192 57
172 196 62
173 196 57
173 196 62
170 193 62
172 195 84
171 195 78
171 194 88
165 188 65
169 192 92
172 195 86
169 192 67
170 193 84
171 195 74
171 193 94
165 188 60
172 195 100
172 194 78
176 198 92
176 198 110
163 185 76
148 170 31
156 179 25
155 177 25
158 182 0
160 184 0
161 184 40
167 191 18
173 196 44
172 194 36
176 200 57
190 210 147
176 199 44
174 198 0
176 199 0
175 198 0
171 195 18
64 95 113
57 90 108
58 92 126
56 89 102
59 93 121
58 92 121
58 92 115
58 92 118
56 89 111
59 93 122
58 92 111
58 92 117
59 93 125
58 92 122
58 92 117
58 92 122
59 94 133
58 92 111
59 94 128
58 91 121
57 91 117
58 92 115
58 92 118
57 90 118
58 92 125
60 94 134
59 93 121
58 91 110
59 93 122
58 92 120
59 94 125
59 93 129
57 91 117
58 92 111
58 91 118
58 91 114
59 93 121
58 92 124
58 92 114
58 92 120
54 87 102
56 89 99
58 92 115
58 91 110
60 94 128
59 93 118
58 92 118
59 93 124
58 91 124
58 91 118
59 93 126
59 92 123
57 91 113
59 93 131
60 94 134
59 93 121
58 92 121
58 92 135
59 92 132
59 92 124
59 93 133
58 90 121
58 91 118
58 91 121
57 89 114
59 92 123
59 92 125
57 90 122
56 87 104
57 89 113
58 91 121
57 89 110
59 92 128
55 87 105
56 89 113
55 87 109
57 89 119
56 88 115
59 91 124
58 90 117
56 87 111
57 88 114
57 89 113
57 89 120
56 87 107
57 88 118
56 87 113
57 89 120
57 88 120
56 86 100
53 82 98
55 83 102
53 81 99
53 80 91
54 84 114
53 80 102
47 72 75
50 72 67
168 191 18
174 198 0
174 198 0
174 197 0
166 185 16
108 94 32
110 97 36
95 85 29
98 87 29
92 77 18
81 73 15
82 73 24
90 81 13
84 78 16
80 74 14
65 62 20
92 88 23
83 80 26
84 81 25
84 80 31
82 78 23
86 82 32
100 95 35
97 94 32
90 87 29
92 92 32
103 100 41
100 97 34
103 101 42
105 103 41
124 120 50
122 119 49
116 113 46
119 115 44
118 116 49
131 127 59
121 118 43
123 119 48
128 124 57
140 134 53
126 123 47
130 127 53
142 136 59
131 126 52
137 132 51
136 132 56
136 131 53
148 141 62
140 135 57
148 142 59
145 138 58
151 144 58
144 139 55
149 143 59
149 144 58
141 136 52
146 143 60
146 142 60
149 144 63
147 142 57
149 142 56
153 147 57
157 150 62
155 149 67
151 145 64
148 143 58
149 144 64
160 153 66
158 151 66
156 150 59
161 153 71
156 151 63
159 152 64
156 151 67
167 160 72
158 151 62
157 152 61
160 153 68
158 151 58
157 152 61
156 149 64
162 156 66
162 154 66
168 159 71
160 155 63
164 156 66
161 154 62
159 153 67
163 156 67
166 159 65
166 158 70
162 155 62
163 156 69
167 160 70
159 152 66
165 156 69
162 154 72
164 156 72
159 152 63
164 155 71
161 154 67
162 154 69
158 151 59
165 158 73
163 156 71
157 148 66
163 155 69
167 159 74
163 155 65
157 151 57
161 154 65
163 154 70
163 155 71
163 152 71
158 150 61
163 155 67
163 154 63
162 154 61
162 154 67
163 154 72
159 150 69
161 153 69
162 153 67
166 157 71
164 156 75
161 151 67
165 156 69
162 153 71
167 158 75
162 154 68
161 152 68
157 148 64
156 148 68
156 146 60
159 150 66
160 152 67
161 152 71
160 152 70
162 155 71
163 154 68
161 150 66
155 145 67
162 151 69
163 152 76
160 150 63
163 154 71
155 143 64
163 153 68
157 147 66
159 148 63
156 145 59
181 203 88
181 203 88
186 207 122
186 207 120
186 207 122
185 207 128
184 206 118
183 205 102
181 203 95
182 203 92
181 203 95
180 202 88
179 201 94
178 200 72
178 200 62
178 201 72
178 201 88
178 201 76
178 201 80
176 199 60
176 199 57
177 200 76
177 200 76
177 200 67
177 199 76
175 198 51
176 199 67
177 200 86
176 199 72
178 201 72
178 201 76
176 199 76
174 198 25
173 198 62
177 200 76
177 200 57
178 201 80
174 197 40
178 201 84
179 202 84
179 202 88
176 200 62
176 199 67
180 202 88
176 199 57
179 201 84
177 200 62
177 201 84
178 201 84
177 200 72
175 199 62
177 200 67
175 199 67
175 199 57
177 200 67
175 199 80
172 196 44
177 200 72
177 200 80
177 201 80
177 200 67
176 199 57
176 199 80
175 199 72
175 200 80
177 200 76
175 198 51
177 200 80
177 200 72
174 198 76
175 200 88
176 200 76
175 198 51
174 198 72
175 198 67
177 200 72
173 196 25
178 202 102
176 200 76
173 197 67
174 197 67
174 198 67
177 200 72
175 199 72
173 198 84
178 201 72
175 199 72
176 200 80
176 200 84
174 198 67
175 198 51
176 200 84
174 198 51
175 198 51
177 200 67
175 199 62
173 197 51
173 197 67
175 199 84
174 198 67
174 197 57
174 199 76
174 198 67
175 199 76
174 198 51
173 196 67
172 196 76
171 194 51
174 198 80
173 197 51
173 196 67
171 194 51
171 195 84
172 195 62
174 198 72
171 194 62
165 188 67
172 195 80
173 195 72
168 190 76
169 193 51
168 191 70
170 193 57
171 194 74
168 191 62
169 192 62
169 192 82
173 196 88
165 188 67
173 195 94
178 199 113
181 201 128
170 192 97
174 196 103
154 176 44
147 170 31
155 178 18
160 184 22
161 185 18
157 180 25
166 189 44
170 194 0
171 195 62
174 198 51
180 202 92
188 208 137
173 197 0
172 196 0
173 197 0
173 197 0
175 198 0
117 142 78
56 88 98
55 88 109
57 90 117
57 89 113
57 90 118
57 90 113
59 93 128
58 91 120
58 92 122
58 91 113
58 92 113
59 93 118
58 91 113
60 94 128
58 92 118
60 94 139
57 91 128
56 89 102
59 93 129
58 91 118
59 93 122
59 93 122
58 92 115
59 92 124
58 91 121
58 92 114
59 92 118
59 93 124
59 93 122
59 93 126
58 91 118
58 92 131
57 91 114
58 92 121
59 93 124
60 94 125
56 89 105
59 93 126
60 94 129
59 92 124
58 91 114
60 94 134
58 91 122
58 92 126
59 93 129
59 92 121
60 94 130
57 90 111
55 87 114
60 94 135
58 92 123
58 91 123
57 90 113
59 92 119
57 89 114
57 90 117
58 92 130
58 92 128
56 88 95
58 91 110
56 89 105
56 89 105
57 90 113
59 92 126
58 91 107
58 92 122
56 88 103
59 93 132
58 91 119
56 88 112
59 93 133
58 91 118
57 90 118
58 90 125
57 90 113
59 91 125
59 92 123
57 90 113
57 89 114
56 88 113
56 88 103
54 83 104
57 89 120
57 88 109
57 88 109
55 86 103
54 85 101
54 86 113
54 83 94
52 79 88
54 83 104
53 83 107
52 80 94
54 83 102
49 75 78
50 75 86
121 142 43
175 198 0
173 197 0
173 196 0
175 198 0
176 198 0
135 133 32
104 92 33
103 93 34
105 94 26
95 85 19
83 76 18
76 68 20
85 78 22
78 75 20
86 78 21
82 76 19
75 71 22
97 93 32
93 89 31
82 80 24
95 92 30
94 87 29
98 93 33
99 93 25
106 102 42
105 100 28
102 97 35
106 104 32
111 108 43
117 112 46
115 113 51
111 109 44
116 112 47
120 117 48
112 110 34
123 119 43
129 124 54
125 122 51
127 123 54
131 127 57
129 125 39
126 122 48
137 133 58
124 121 53
137 132 51
134 129 48
139 133 53
135 129 53
137 132 55
144 138 54
146 141 60
148 142 62
149 142 61
140 136 53
145 139 55
140 134 53
150 143 61
153 147 64
154 148 59
149 144 65
153 146 61
148 141 56
148 143 54
152 147 53
148 143 56
148 143 50
163 156 68
151 145 57
156 149 59
157 152 65
154 149 57
158 151 59
163 155 66
158 151 66
158 152 62
162 154 66
158 150 62
161 154 72
160 154 67
160 153 66
162 155 67
159 151 67
159 153 60
165 157 70
154 149 64
164 156 67
164 156 70
163 155 68
165 157 70
162 154 65
164 156 66
166 160 73
163 156 65
159 151 63
161 155 63
167 160 73
165 157 67
160 152 58
161 154 64
161 153 66
160 152 63
161 155 62
161 154 71
160 152 64
162 156 64
158 152 60
164 155 66
166 157 74
158 151 64
160 152 63
161 153 63
153 144 53
161 152 67
158 150 61
158 150 62
164 156 72
158 149 63
157 149 64
160 152 64
164 155 66
161 153 70
162 154 70
161 154 59
161 154 64
158 151 58
164 154 68
166 157 72
166 157 70
161 152 61
163 154 71
163 155 68
165 156 70
164 154 71
159 150 67
157 148 60
156 147 65
163 153 68
156 146 67
162 154 67
162 152 69
162 152 66
164 155 72
166 157 75
162 151 66
162 152 66
154 144 65
157 147 67
165 155 72
164 152 73
160 149 68
160 149 68
183 205 108
184 205 105
180 202 92
189 210 142
183 204 111
186 207 133
183 205 108
181 202 102
177 200 72
186 206 111
179 202 80
179 201 72
182 204 95
179 202 86
178 200 76
179 202 92
179 201 62
181 203 95
178 201 84
177 200 82
178 200 62
177 199 44
176 199 82
178 201 88
175 198 44
176 199 62
177 200 62
178 201 80
173 196 54
177 200 62
176 199 72
174 197 70
177 200 74
178 201 76
178 201 88
174 198 57
177 200 82
177 200 76
174 198 51
175 199 51
179 202 92
177 200 51
178 201 76
176 199 76
180 202 76
176 200 57
176 199 44
178 201 80
178 201 76
175 199 67
175 199 57
176 199 62
177 200 80
175 199 62
177 201 92
175 199 62
175 198 67
175 199 57
174 198 44
177 200 84
174 198 72
177 200 72
176 199 57
177 200 88
174 197 67
172 196 57
174 197 67
175 199 72
173 198 62
174 199 57
176 200 76
175 198 51
175 199 76
175 198 57
175 198 67
175 199 76
175 198 51
173 197 44
174 197 51
176 200 67
175 198 62
172 196 51
173 197 67
175 199 67
174 198 57
175 199 72
174 198 62
177 200 62
175 199 62
174 198 57
177 201 76
173 196 44
176 199 62
173 197 51
174 197 62
172 195 44
174 198 76
174 198 62
173 197 57
170 194 72
174 198 67
174 198 72
174 198 62
173 196 72
171 195 62
175 199 84
170 194 51
174 197 88
170 194 51
174 197 57
171 195 57
175 199 84
171 195 76
171 196 80
169 192 36
169 193 67
175 198 57
169 192 92
173 196 67
172 194 67
167 189 67
171 194 62
165 188 51
173 196 57
169 191 95
171 193 60
167 190 60
171 194 97
168 191 76
171 193 78
177 197 134
175 196 111
170 193 80
163 185 82
142 164 25
155 178 18
157 179 18
150 172 25
158 180 36
165 189 18
166 190 0
171 194 25
172 195 36
173 197 0
185 205 125
179 200 80
174 198 0
174 197 0
174 197 0
175 198 0
174 198 0
140 164 67
57 90 105
56 89 113
60 94 129
57 90 108
59 93 128
57 91 108
57 90 117
57 91 114
58 92 107
57 91 110
58 92 110
57 90 114
58 92 120
57 91 111
58 91 115
59 93 121
57 90 107
59 93 120
58 92 126
59 93 125
58 92 117
59 93 126
58 91 114
56 90 115
58 91 114
59 93 125
58 92 124
57 90 111
59 93 126
58 92 115
58 92 128
57 91 118
57 90 122
60 95 128
58 92 120
57 91 113
57 90 118
59 93 125
58 92 117
57 90 113
60 94 135
57 90 107
58 92 117
59 92 121
57 90 121
58 92 121
58 91 121
59 93 115
58 92 121
56 88 108
58 91 115
57 90 118
59 92 123
60 95 134
57 90 105
56 88 113
58 91 129
57 90 113
59 92 126
58 91 114
57 90 111
58 92 122
55 87 100
57 90 118
56 89 114
56 89 108
57 90 113
58 91 110
59 93 131
58 91 120
56 88 107
57 89 111
56 88 112
58 91 127
57 89 123
58 90 124
56 88 110
56 88 108
56 88 119
58 90 123
57 89 112
56 86 111
56 88 108
58 90 118
57 88 113
53 82 92
56 86 101
53 82 99
52 82 81
53 81 88
51 79 90
51 78 89
53 80 91
49 76 90
52 79 85
49 72 84
151 172 34
173 196 0
175 198 0
173 196 0
174 197 0
175 198 0
158 172 31
112 99 37
112 102 31
105 94 32
87 76 16
93 81 19
93 84 16
72 66 11
88 78 17
75 70 17
91 84 14
85 79 26
88 80 15
83 78 21
80 76 25
97 93 29
93 91 28
96 93 26
96 94 27
100 94 37
97 91 27
95 91 29
109 107 37
102 100 38
115 110 39
115 112 40
127 122 43
127 122 43
120 115 46
113 108 43
121 117 46
115 113 44
125 121 40
115 111 45
133 128 52
132 129 46
134 131 58
125 122 49
130 128 52
143 137 54
137 132 54
129 125 51
131 127 49
148 142 54
137 133 49
142 136 55
141 135 54
149 144 53
148 142 59
150 144 56
150 145 57
151 145 62
143 139 56
148 142 55
155 148 68
152 145 65
157 151 67
152 145 59
158 151 63
146 140 49
158 151 57
153 146 57
157 151 56
152 146 58
154 149 60
156 149 60
159 152 67
155 148 66
155 149 62
158 151 66
154 147 57
157 151 62
159 150 61
156 149 59
160 153 62
163 156 62
160 153 62
158 152 59
162 155 66
162 155 65
159 152 65
155 148 56
159 151 65
161 154 59
160 152 66
159 151 63
163 156 65
158 150 63
162 156 66
161 154 67
164 156 68
165 156 68
164 158 68
157 149 61
166 158 73
163 155 70
163 155 67
162 155 61
164 156 63
165 156 69
163 157 65
155 147 62
165 157 68
160 152 64
163 156 70
164 156 70
165 156 66
158 152 61
163 155 68
158 150 61
157 148 61
162 154 65
158 151 63
156 149 60
161 152 72
157 149 58
162 154 62
164 154 69
167 158 73
161 152 68
165 157 71
163 154 68
159 150 64
165 156 71
162 153 72
158 147 65
159 150 67
163 153 67
161 152 68
158 148 63
164 155 73
160 150 63
161 152 69
156 146 64
155 145 64
159 148 60
158 149 63
162 155 64
158 147 70
161 151 67
159 150 65
161 151 65
160 151 68
159 147 72
162 153 63
163 155 71
183 205 111
181 203 95
181 203 99
181 203 92
186 207 122
185 206 111
183 205 120
178 200 67
178 201 88
179 201 72
182 203 99
180 202 92
178 200 72
180 203 95
182 204 99
182 204 105
178 200 76
176 199 62
181 203 95
178 201 82
180 202 88
180 202 92
179 201 76
177 200 62
179 202 80
176 199 78
176 199 72
177 200 74
178 200 76
175 199 74
175 199 70
177 200 72
175 199 78
179 202 92
176 199 70
175 199 67
177 200 76
176 199 67
178 201 72
176 199 51
175 199 62
175 199 76
175 198 62
177 201 80
177 201 88
176 200 76
177 200 76
175 199 67
175 199 57
175 199 72
175 199 67
174 198 44
174 198 57
175 198 51
175 199 62
173 196 44
174 198 67
176 199 44
175 199 51
174 198 67
175 198 36
175 199 72
177 200 76
175 199 72
176 199 76
174 198 76
174 198 67
175 198 62
174 197 51
175 199 51
176 199 36
175 199 72
171 195 67
176 200 76
174 198 67
175 199 62
174 198 57
176 200 76
173 198 67
173 197 57
175 199 57
174 198 62
174 198 44
173 197 51
173 198 76
174 198 36
173 196 44
173 197 67
172 195 36
174 198 80
174 198 67
176 199 62
171 196 51
173 197 72
173 197 57
176 199 51
174 198 51
175 199 72
175 198 44
175 199 76
175 198 76
171 195 57
173 197 76
169 191 67
172 196 67
173 196 62
166 190 57
172 197 92
171 195 67
169 192 67
170 193 62
177 200 57
173 197 62
174 198 80
172 195 76
172 196 80
169 192 44
168 190 44
171 194 76
172 195 67
169 192 57
176 199 80
169 192 67
169 191 76
170 192 95
168 190 80
170 192 65
174 196 95
170 192 92
176 198 115
173 194 115
166 188 92
166 188 74
150 172 47
142 164 0
146 168 0
154 176 18
158 182 0
167 189 25
160 183 0
166 189 0
170 193 51
170 194 36
173 197 51
190 209 147
173 197 0
173 197 0
176 198 0
173 197 0
173 197 0
174 197 0
174 197 0
77 106 101
58 91 123
57 89 113
56 89 102
56 88 113
58 91 113
58 92 114
56 89 108
59 92 115
58 92 118
59 93 126
59 92 118
56 89 107
57 90 108
58 92 125
59 92 130
59 93 125
59 93 129
56 89 102
59 93 120
59 92 117
57 91 110
59 92 120
58 92 115
57 90 117
56 89 114
57 90 113
58 92 115
57 90 120
60 94 134
57 91 118
58 91 124
59 93 126
58 91 120
58 92 113
58 91 113
59 93 118
58 91 117
58 91 121
59 93 122
57 89 102
59 93 121
59 93 125
56 90 111
59 93 118
58 92 114
57 91 115
58 92 121
57 90 113
57 90 117
58 91 124
58 91 114
56 90 105
57 91 118
59 93 125
57 90 124
59 93 123
58 92 115
57 89 111
58 91 117
59 92 118
56 88 105
57 90 116
58 91 129
57 90 114
56 87 105
58 91 121
57 89 115
55 86 111
56 87 116
58 91 122
56 87 108
56 88 109
55 86 96
56 88 114
58 91 122
57 89 113
57 89 114
57 88 108
55 86 108
57 89 114
57 89 107
56 87 121
55 86 105
55 84 107
55 86 104
53 82 99
54 84 103
53 83 105
53 81 105
55 84 109
54 82 95
52 78 83
51 78 95
50 75 80
64 86 81
174 197 0
174 197 0
172 195 0
175 198 0
172 196 0
175 198 0
175 198 0
129 123 32
108 94 19
106 92 27
113 101 29
93 82 17
96 85 14
85 75 10
97 88 18
81 72 14
83 79 19
89 80 20
97 91 20
94 88 22
90 85 18
91 88 18
100 96 31
96 90 22
95 90 19
100 96 22
110 103 30
105 101 25
106 102 37
108 105 38
116 111 40
113 111 49
107 105 41
119 116 37
122 118 46
122 119 39
118 114 39
122 120 52
125 118 51
131 126 52
125 119 39
122 117 38
143 138 59
131 127 46
137 131 49
134 129 50
136 132 51
135 131 48
135 130 51
140 134 48
142 137 53
144 140 54
140 136 58
140 135 51
146 141 56
149 144 54
139 134 54
146 141 55
147 140 50
144 140 50
147 142 54
154 148 62
147 142 53
147 141 54
146 141 50
155 148 60
150 144 58
151 146 54
154 146 54
154 147 57
159 152 65
154 149 61
155 148 65
157 151 62
159 152 63
154 148 62
159 151 60
159 150 67
159 154 61
158 151 61
157 149 63
162 157 68
159 151 66
159 151 68
162 155 63
157 151 61
161 154 66
158 151 56
159 153 61
165 158 69
161 154 58
157 151 61
164 157 66
161 155 61
165 157 70
164 155 68
160 153 61
160 152 61
156 150 48
157 150 57
159 154 56
160 152 62
165 157 72
161 153 67
159 151 57
164 157 66
156 148 57
160 153 62
162 155 65
159 151 64
160 150 63
164 156 71
162 154 64
164 155 65
160 153 64
163 154 67
166 155 71
160 153 61
161 152 63
158 151 67
165 156 67
161 152 69
163 154 68
163 153 70
163 153 66
161 152 61
160 151 67
162 155 66
159 152 62
160 152 63
162 153 67
160 152 61
159 150 62
162 154 66
165 157 71
153 144 53
160 152 64
161 152 71
161 151 64
164 154 68
161 151 71
159 150 60
163 151 67
157 149 68
164 155 75
161 152 67
159 148 63
162 153 71
161 151 70
162 152 65
158 149 66
159 150 68
179 202 76
181 203 95
184 205 111
178 201 88
181 203 92
183 205 105
187 208 130
181 203 99
184 205 120
182 204 102
182 204 99
180 202 84
181 203 92
180 203 92
177 200 80
177 200 76
177 200 67
177 200 76
180 203 92
178 201 80
178 201 74
179 202 92
178 201 72
177 200 78
176 200 62
176 199 74
175 198 72
177 200 80
171 195 60
175 199 44
178 200 72
177 199 57
177 200 62
176 200 72
177 200 84
178 201 82
177 200 62
176 200 74
176 200 72
176 199 57
176 199 51
176 199 62
174 197 44
179 202 88
175 198 44
176 199 51
175 199 72
174 198 62
175 199 57
175 198 62
178 201 72
175 199 62
176 200 67
174 198 57
175 198 51
176 199 62
174 198 62
172 195 51
173 198 62
175 199 67
174 198 76
177 199 72
173 197 76
175 199 72
177 200 72
176 200 67
175 199 72
173 197 44
175 199 67
174 198 62
174 198 51
175 199 88
175 200 76
177 200 51
173 198 51
173 197 57
173 198 72
172 197 62
175 199 76
175 199 57
174 198 72
174 198 51
171 195 62
173 197 57
172 196 62
175 198 51
175 198 57
175 198 72
173 197 36
172 196 80
176 199 51
173 197 72
174 198 84
175 199 67
173 198 76
173 198 62
174 198 76
175 199 72
172 196 57
173 197 76
170 194 67
175 199 67
168 192 62
171 195 51
173 196 62
171 195 84
175 198 72
172 195 51
171 195 67
174 197 80
172 196 67
174 197 72
172 195 76
170 195 67
172 195 88
173 197 57
171 194 88
171 194 88
169 192 76
171 193 51
169 192 80
175 198 72
173 197 67
170 194 88
166 188 84
171 193 72
165 188 65
165 187 88
171 192 95
177 198 111
168 191 57
168 190 107
156 178 57
145 168 0
151 173 0
146 169 31
157 180 18
162 185 0
164 187 0
165 189 0
164 187 0
170 193 44
168 191 51
182 203 108
182 203 105
171 195 0
172 196 0
172 195 0
173 197 0
173 197 0
173 196 0
174 198 0
111 136 78
60 94 128
57 90 103
58 92 115
57 90 111
58 91 121
58 92 115
57 91 108
57 90 113
59 92 120
58 92 120
58 91 121
57 90 115
58 92 110
58 91 113
57 91 103
57 90 102
58 91 113
59 92 126
57 90 115
60 94 139
58 92 105
58 92 121
57 91 118
59 93 128
57 90 111
57 91 103
58 93 118
58 92 118
59 93 121
57 90 115
58 92 121
57 90 117
59 93 131
57 91 125
57 90 113
59 92 121
58 92 130
57 90 103
57 91 110
57 90 113
57 91 124
58 91 115
59 93 129
59 92 124
58 92 124
57 91 105
60 94 133
57 90 115
57 89 117
57 90 115
58 92 115
58 91 120
57 91 105
59 93 124
58 91 120
57 90 111
57 90 115
57 90 122
58 90 121
57 90 110
56 89 110
57 90 120
57 90 114
57 90 113
57 89 114
57 90 117
57 90 117
58 91 116
57 90 114
58 91 111
58 90 122
56 88 103
56 88 108
56 89 116
54 84 99
55 87 105
55 87 102
55 86 111
56 87 99
56 88 111
55 86 115
54 84 103
56 88 102
54 85 96
55 84 104
54 84 101
54 83 110
56 86 98
53 80 99
48 75 82
51 77 85
51 78 81
50 76 87
51 77 90
114 133 40
172 196 0
172 195 0
171 195 0
173 195 0
170 194 0
173 196 0
172 195 0
155 167 24
114 99 31
102 93 29
104 92 20
98 89 31
96 86 28
94 83 14
82 71 18
95 87 15
95 87 15
90 85 17
95 86 15
88 82 21
88 80 26
92 87 23
96 88 23
98 93 26
88 84 26
92 89 35
105 102 35
108 103 33
115 111 46
105 102 31
114 111 36
110 106 34
115 110 41
107 105 40
116 111 34
126 123 30
122 118 49
113 109 42
120 116 38
126 121 50
131 127 51
132 127 52
124 120 41
120 119 41
130 127 47
126 123 51
131 127 44
132 127 36
126 121 45
137 133 53
138 134 48
143 138 49
139 133 52
138 132 52
138 133 59
148 142 56
147 141 58
148 144 56
149 144 51
150 146 55
147 142 58
142 138 46
146 140 55
147 141 63
154 149 64
155 147 60
148 143 53
159 152 65
156 149 58
153 147 63
155 149 58
151 145 61
155 149 59
158 151 58
158 150 65
158 152 61
158 152 62
156 149 53
154 148 58
157 149 60
157 151 57
152 145 59
150 144 54
162 156 64
159 153 57
161 154 65
156 150 51
154 146 61
161 155 60
163 156 63
156 150 61
162 154 64
159 151 58
165 157 72
161 153 64
157 150 63
162 154 64
157 150 60
160 152 63
157 150 58
159 151 62
159 152 58
162 153 65
161 153 67
160 151 65
161 154 68
162 155 64
168 159 73
156 147 60
158 150 59
163 154 62
161 152 66
164 154 68
166 156 73
159 151 58
160 152 62
160 154 61
166 158 69
156 149 59
159 149 60
161 153 66
158 150 62
165 155 72
157 149 58
160 150 65
156 148 58
163 152 68
159 150 63
162 154 68
158 150 59
159 150 61
162 152 73
160 150 63
160 150 62
160 152 65
162 153 61
163 153 69
160 152 63
157 148 62
164 154 77
162 153 62
161 150 65
161 152 68
162 151 69
162 152 72
162 151 69
160 150 61
164 155 72
160 150 61
157 147 63
157 147 70
160 149 64
177 200 62
181 203 92
181 204 108
183 204 95
177 200 67
182 204 108
187 207 122
185 206 128
185 206 114
181 203 102
182 205 114
180 202 99
179 201 84
179 201 84
178 201 76
178 201 80
180 202 80
178 201 86
178 200 76
178 201 72
175 198 44
180 202 80
178 201 76
177 199 74
177 200 72
176 200 72
177 201 80
175 198 51
177 200 67
174 196 82
177 200 76
176 199 78
178 201 86
174 197 67
175 199 57
174 198 65
177 200 62
179 201 67
179 202 88
176 199 51
176 199 57
180 202 84
177 201 84
174 198 44
177 200 80
175 199 67
175 199 67
177 200 67
175 199 67
174 198 72
177 200 84
176 199 51
175 198 62
175 199 62
174 198 57
175 199 76
175 198 62
174 197 36
175 199 62
174 198 62
176 200 62
175 198 67
174 198 62
174 198 76
176 199 72
174 198 84
176 200 84
175 199 57
174 198 51
172 196 51
174 197 80
173 197 62
174 197 62
174 198 67
174 198 76
173 197 67
176 200 80
172 197 62
175 199 84
173 197 72
173 197 57
174 198 84
176 199 51
172 196 76
172 196 72
174 198 57
170 195 72
173 197 67
173 198 88
171 195 51
174 197 57
173 196 44
173 197 76
173 197 62
173 196 51
172 196 51
175 198 62
173 196 51
174 198 72
172 196 84
170 194 72
173 197 76
174 198 84
175 199 72
170 194 67
169 193 72
172 196 57
170 194 57
174 197 57
174 197 62
175 199 80
174 198 67
172 196 62
171 194 51
173 196 76
171 195 57
173 196 62
171 194 44
170 194 44
171 194 62
172 195 76
170 192 57
173 196 80
173 196 84
166 189 67
175 198 95
173 195 84
167 188 88
172 193 108
170 192 80
163 186 76
157 178 62
137 158 0
155 178 18
147 168 0
154 176 0
161 184 0
162 185 0
166 189 25
170 193 0
166 188 62
172 195 25
173 196 51
188 208 135
174 197 25
174 197 0
175 198 0
174 198 0
172 196 0
176 198 0
173 196 0
174 198 0
166 189 25
64 94 105
57 90 114
58 91 117
57 90 113
58 92 117
55 87 103
58 91 120
56 89 102
60 94 118
57 90 107
57 90 113
58 91 110
58 91 121
57 91 115
56 89 103
59 93 133
58 92 122
58 92 118
57 91 121
58 91 120
57 91 114
57 90 114
58 92 120
58 91 114
59 92 114
59 93 120
58 92 121
57 90 110
59 93 122
58 92 118
58 92 114
57 91 110
57 90 120
58 91 118
58 92 117
58 91 122
57 90 115
57 90 115
57 90 115
58 91 120
58 92 122
56 89 113
60 94 129
58 91 128
59 92 121
58 91 110
56 89 115
58 91 114
59 92 121
58 91 117
58 92 132
58 91 118
58 91 118
57 90 123
59 93 128
59 92 125
59 93 126
57 90 121
58 91 122
56 89 118
58 90 116
58 91 124
56 88 111
58 92 119
55 87 118
59 92 123
56 89 114
57 90 116
57 90 113
55 87 106
56 87 113
58 90 115
57 88 112
57 89 117
56 88 98
55 86 109
56 88 112
55 85 103
55 86 106
56 87 103
53 83 107
55 85 113
56 87 113
55 84 106
53 82 92
54 84 100
55 84 110
54 83 108
52 81 89
53 82 87
52 80 91
48 73 82
51 78 88
51 73 69
162 186 21
174 195 0
173 196 0
171 195 0
170 194 0
170 194 0
171 194 0
171 195 0
173 195 11
129 122 37
109 95 22
102 88 22
99 86 14
103 94 26
93 83 18
90 81 19
87 77 12
83 76 20
84 78 13
92 88 13
76 72 19
94 90 16
98 91 26
93 87 15
93 89 18
95 90 29
104 100 28
93 87 26
107 101 24
94 91 28
110 106 42
113 108 34
107 104 21
120 115 43
125 117 37
117 112 34
117 113 42
118 113 34
122 117 32
124 120 38
119 115 34
126 121 42
139 134 49
131 127 35
135 128 43
138 132 53
134 128 44
138 134 47
136 132 38
137 133 46
142 136 55
136 131 45
141 134 51
140 136 50
141 136 41
146 140 52
146 140 57
135 131 42
149 142 55
147 140 55
142 137 47
147 141 54
146 140 49
152 145 57
143 138 45
152 145 59
151 143 65
150 146 60
148 142 53
154 147 61
151 144 56
150 143 52
158 151 56
159 152 61
156 149 56
153 146 57
151 145 59
157 151 57
157 150 57
151 144 52
160 153 63
157 150 62
159 151 63
156 148 51
156 150 59
157 150 61
158 151 59
154 147 59
160 153 67
160 153 60
161 154 62
158 151 54
156 149 61
157 150 56
157 151 57
155 149 57
158 150 62
162 155 63
155 146 58
161 153 62
161 153 67
163 156 62
158 152 59
154 146 60
155 148 57
162 155 68
158 150 64
158 150 58
157 149 63
157 148 58
160 153 60
161 154 66
157 151 58
154 144 54
157 149 62
151 143 50
163 154 65
162 154 62
162 154 56
160 152 60
162 153 64
159 150 60
162 155 64
161 153 59
162 152 66
162 153 67
160 151 63
160 152 57
159 151 61
164 157 68
157 148 64
161 152 67
158 150 62
159 150 66
163 154 73
159 150 63
163 152 68
157 148 62
156 148 57
164 154 68
160 149 67
164 155 68
161 150 61
156 146 58
155 147 59
150 140 50
158 149 67
160 150 64
159 149 60
156 147 61
163 153 70
150 141 57
164 153 72
175 198 25
180 202 88
177 200 67
183 204 102
181 203 99
179 201 80
188 208 130
183 205 114
182 204 114
183 205 124
180 203 88
182 204 108
181 203 92
182 204 95
180 202 92
179 202 95
178 200 72
178 201 88
179 202 92
179 201 92
178 201 72
179 201 92
175 199 57
176 199 80
179 202 84
179 201 80
175 199 60
177 200 72
178 201 97
174 198 62
176 200 67
176 200 67
176 199 74
177 200 92
175 199 65
177 201 99
176 199 44
178 201 94
177 200 88
174 198 57
176 200 62
175 199 80
177 200 76
175 198 44
177 200 92
176 200 72
177 200 84
177 200 76
176 200 67
176 198 44
173 198 51
174 199 67
175 199 57
174 198 72
175 199 67
175 199 62
176 199 67
176 200 80
174 198 51
175 199 95
177 200 67
175 199 72
174 198 67
173 198 57
174 198 62
175 199 76
175 199 62
174 198 57
174 199 67
173 197 62
174 199 76
175 199 76
175 199 84
175 199 51
175 198 72
174 199 84
174 198 51
174 198 62
174 198 67
172 196 76
174 198 80
174 198 72
176 200 76
175 199 67
171 195 44
173 196 57
173 197 51
175 198 76
174 198 36
174 198 57
175 198 51
175 199 80
172 197 62
173 198 88
171 196 67
170 194 57
173 197 76
171 196 51
171 195 25
172 196 51
171 196 67
174 197 72
170 194 62
170 194 62
173 197 51
174 196 62
175 198 57
172 197 67
172 196 62
171 195 62
170 193 51
170 194 62
171 194 57
168 191 51
169 192 36
166 189 44
168 190 36
171 194 67
172 195 84
172 195 62
167 190 76
165 188 67
174 198 92
166 189 72
167 189 72
170 192 80
170 192 92
172 194 102
174 195 99
165 187 80
156 177 92
138 159 0
143 165 0
152 174 0
153 175 0
158 180 0
155 178 0
160 183 0
169 192 25
162 185 25
171 193 51
170 193 36
179 201 111
179 201 95
174 198 0
172 196 0
174 198 0
173 197 0
169 194 0
173 196 0
173 196 0
171 194 0
174 197 0
115 139 84
56 89 106
56 88 100
57 90 108
56 89 100
57 90 117
54 86 92
59 92 115
59 93 131
54 87 95
55 88 100
58 92 122
57 91 118
57 90 114
56 88 107
56 88 99
59 93 121
57 90 113
58 91 118
56 89 107
56 88 102
57 90 118
58 91 120
58 91 125
58 91 122
59 92 120
57 90 111
57 91 117
59 93 129
58 92 129
57 91 120
57 91 118
58 92 111
56 88 107
58 91 125
59 92 115
57 91 100
56 89 107
59 93 125
57 91 111
57 90 120
58 91 107
57 90 120
57 90 113
57 90 110
56 89 105
57 90 120
58 92 114
58 92 114
58 92 130
55 88 113
57 91 121
57 90 111
58 91 118
59 93 121
56 88 113
57 91 120
58 92 120
55 87 103
57 90 120
57 90 120
55 86 101
55 86 99
57 89 120
58 91 120
57 90 110
56 88 102
57 90 113
56 87 106
55 86 102
56 87 107
57 89 120
57 89 115
55 86 100
56 88 107
55 87 103
56 87 102
55 87 113
55 85 112
53 84 89
57 89 110
56 87 113
55 85 100
55 86 105
54 83 103
54 83 107
50 78 89
53 82 92
53 81 100
51 79 87
51 78 85
49 76 75
48 72 71
113 132 51
170 194 0
171 193 0
170 194 0
173 195 0
172 195 0
171 195 0
170 193 0
170 193 0
171 194 0
157 171 25
124 112 38
112 97 37
108 100 20
105 94 33
85 74 20
103 92 23
96 87 17
90 81 15
92 83 10
94 88 17
96 88 18
93 86 24
95 88 9
102 95 30
93 87 17
96 91 18
99 93 15
94 92 25
94 92 21
111 105 44
99 96 26
107 103 19
105 102 29
106 102 33
107 106 26
115 111 37
113 109 40
117 114 32
128 122 46
124 119 47
129 122 39
130 125 50
134 127 49
126 121 37
135 130 48
130 124 42
135 130 43
132 127 42
135 130 47
139 135 50
134 128 49
138 133 48
140 135 49
141 136 47
141 135 45
144 139 50
143 139 45
149 142 50
147 140 55
146 140 50
144 139 56
145 140 53
148 141 60
151 145 57
153 147 53
148 143 60
145 139 48
151 145 53
150 144 56
158 151 61
151 145 54
158 151 64
155 150 57
154 148 57
152 146 48
152 145 64
153 147 55
153 146 52
157 149 62
161 154 60
151 146 51
155 147 53
159 151 58
158 152 63
159 152 62
153 145 51
160 154 58
157 150 58
162 154 67
156 148 51
159 152 63
162 154 58
157 149 61
158 152 63
160 152 58
159 152 56
162 154 66
159 150 63
157 149 60
155 148 52
160 153 63
158 151 61
158 151 61
160 151 62
157 148 67
160 153 57
162 155 67
156 148 56
161 154 55
161 152 64
162 154 67
155 146 57
161 154 63
155 148 57
159 151 63
162 153 64
159 150 65
160 152 66
161 152 63
155 147 59
160 153 63
158 149 63
164 156 67
160 149 63
164 154 71
157 148 60
166 156 69
162 153 66
157 148 70
160 151 67
158 150 63
160 150 63
161 152 65
158 150 64
162 152 71
154 142 57
161 151 69
159 149 65
163 153 72
158 148 59
158 149 63
158 148 65
155 146 58
153 146 60
152 144 49
160 148 63
155 147 63
156 147 57
152 141 57
158 147 60
154 144 62
153 144 55
160 151 65
171 196 0
175 198 25
179 201 72
179 201 67
181 203 92
180 202 92
179 201 88
181 203 99
187 207 120
181 204 105
183 204 108
182 204 102
182 204 108
181 203 92
178 201 72
179 201 72
179 201 84
178 201 76
180 202 84
176 200 76
180 202 80
179 202 88
180 202 95
178 201 76
176 199 62
178 201 88
177 200 80
178 201 92
177 200 57
177 200 72
177 200 76
175 199 72
176 199 57
178 200 57
175 198 62
176 200 62
175 198 54
172 196 62
176 199 62
177 200 92
177 200 84
175 199 57
176 200 80
174 198 67
176 199 62
176 199 67
176 199 76
175 199 67
172 196 92
177 199 57
175 198 57
175 199 62
175 198 76
175 199 67
174 198 72
175 199 84
177 199 51
175 199 76
175 198 72
175 199 62
174 198 62
174 198 44
175 199 84
173 197 67
176 199 44
175 198 57
173 196 57
176 199 72
176 199 62
173 198 51
173 197 57
174 198 76
175 198 57
174 197 62
173 197 67
173 197 67
174 198 76
172 196 67
176 199 67
176 199 62
172 196 51
174 198 72
172 196 62
174 198 57
172 196 62
173 197 72
173 197 62
172 197 57
172 197 72
174 199 76
171 195 51
173 197 67
174 199 62
173 198 67
173 197 57
171 195 62
174 198 76
172 197 76
175 198 62
171 196 76
171 194 51
171 194 51
171 195 51
174 197 51
169 193 57
172 196 95
168 192 57
175 199 92
172 196 62
167 191 76
172 195 76
172 195 76
172 195 67
170 195 36
172 196 80
169 192 44
170 193 62
167 190 51
171 195 57
168 190 57
173 196 92
165 188 76
170 192 80
171 195 67
171 194 88
169 192 84
173 194 111
164 186 57
161 183 51
161 183 57
140 161 25
142 165 0
142 163 0
150 172 0
158 181 0
158 181 0
156 180 0
163 186 0
165 188 0
168 192 36
167 191 25
171 194 36
184 204 122
174 197 0
173 196 0
174 197 0
171 195 0
173 195 0
174 196 0
172 196 0
171 194 0
170 194 0
170 193 0
156 179 36
58 91 102
57 90 102
58 91 113
56 89 105
56 88 99
56 89 105
57 91 107
55 88 103
58 91 107
58 91 110
57 91 103
58 92 111
59 93 121
57 90 108
57 91 110
58 91 107
55 88 100
57 89 103
55 88 99
56 89 103
58 92 117
59 93 126
58 92 114
57 90 103
56 89 107
57 90 110
59 93 118
57 90 114
59 92 114
58 91 121
59 92 120
58 92 124
58 92 115
57 89 115
59 92 113
59 92 118
57 91 118
57 90 108
56 89 113
57 91 111
59 93 114
56 89 113
56 90 111
59 92 113
57 90 110
59 93 130
58 91 121
58 91 125
58 91 105
57 91 114
59 93 120
57 89 110
58 91 107
55 87 107
58 92 125
56 89 108
55 87 107
57 90 113
57 90 118
58 91 120
57 89 117
55 88 110
59 93 129
56 88 103
55 86 96
58 91 116
56 87 105
57 90 111
58 90 113
54 84 102
54 86 92
59 92 121
56 87 115
55 85 111
56 88 99
55 86 110
56 87 110
56 87 107
56 86 110
54 84 100
53 83 94
56 87 114
55 86 105
55 85 106
55 85 103
52 81 96
55 85 96
51 79 84
54 83 98
50 76 90
48 72 81
53 76 60
161 183 45
171 194 0
172 195 0
171 194 0
169 190 0
172 194 0
171 194 0
169 191 0
173 195 0
172 195 0
170 193 0
135 130 33
106 91 24
110 96 31
105 92 29
97 86 23
102 91 21
95 84 14
83 76 17
91 85 17
84 78 17
90 83 18
97 88 24
105 98 25
94 85 15
105 98 17
100 93 17
97 91 22
103 99 27
101 98 26
111 106 29
108 104 31
107 104 26
111 105 25
107 103 31
112 108 31
110 107 33
110 106 24
116 111 34
129 123 45
112 108 35
128 122 34
118 113 33
130 124 42
125 119 40
132 127 42
127 123 43
132 127 42
126 121 49
139 134 41
136 131 50
137 134 44
143 135 52
139 134 38
132 127 38
146 140 53
138 133 45
142 135 43
145 141 54
152 145 62
146 140 54
150 143 58
154 147 62
150 144 51
144 139 45
149 144 53
151 144 51
152 148 56
148 141 48
150 143 52
146 140 54
153 147 53
148 142 50
154 145 58
149 143 54
149 143 49
152 145 51
158 152 54
153 147 58
154 146 52
161 153 64
156 149 61
153 146 52
156 149 60
152 145 48
154 147 53
162 154 65
162 154 67
153 144 53
161 153 65
159 150 64
159 151 62
155 147 57
156 148 52
153 147 51
154 147 56
159 151 63
157 150 56
159 152 59
156 149 53
158 151 62
160 152 70
157 149 58
160 153 56
155 148 53
157 149 61
151 142 47
155 148 56
155 147 59
156 149 55
164 156 70
158 150 58
156 148 57
159 153 54
157 148 59
156 149 63
157 149 53
160 151 63
169 159 78
160 152 61
164 155 70
159 151 60
160 152 64
156 147 57
158 150 58
158 149 53
160 151 59
160 151 60
162 152 62
161 152 62
158 150 59
160 151 66
156 149 57
156 146 61
163 155 70
158 149 57
157 149 62
163 154 71
163 154 71
158 149 61
160 150 67
157 147 57
155 146 57
163 151 68
164 155 75
155 144 57
161 151 63
162 152 68
158 150 59
157 146 73
159 148 67
158 148 64
152 142 53
156 147 63
175 198 0
174 197 0
175 198 36
177 199 84
178 201 76
182 204 99
181 203 92
179 201 92
183 204 95
183 205 114
183 205 111
182 204 102
184 205 117
182 204 95
179 201 76
180 202 92
180 202 80
178 201 76
181 203 95
179 201 84
177 201 76
181 203 92
178 201 72
178 201 92
176 200 84
176 199 72
174 197 76
178 201 72
175 199 67
177 200 72
175 198 57
176 199 76
174 198 76
176 199 57
177 200 57
176 200 74
177 200 74
173 197 67
174 197 62
176 200 72
176 199 72
176 199 57
176 200 72
175 198 67
176 199 62
174 198 44
177 200 72
175 199 67
175 198 51
177 200 80
174 198 67
173 196 44
176 199 62
175 199 80
174 197 51
175 199 67
175 199 57
176 199 72
173 197 62
174 198 76
174 198 57
174 198 51
173 197 51
173 197 51
174 198 67
172 197 84
174 197 51
174 198 72
174 199 76
175 199 62
175 198 57
175 198 57
173 196 44
174 198 36
174 198 51
171 195 62
173 198 72
172 196 51
172 197 72
173 197 51
171 196 76
175 198 51
172 196 72
174 197 44
171 195 62
171 195 72
171 194 62
174 198 72
171 196 57
173 197 88
171 195 76
172 196 51
173 197 72
174 198 62
175 199 72
172 195 57
173 197 51
171 196 72
173 197 76
170 193 57
169 194 72
173 197 57
172 196 51
172 195 57
174 198 95
170 194 80
171 195 67
171 195 88
172 195 72
171 195 72
170 194 76
169 193 44
169 194 67
169 193 72
170 194 67
171 195 84
171 195 62
171 194 67
168 191 67
170 194 88
167 191 92
167 190 72
168 191 76
174 195 88
173 195 95
170 192 114
169 191 105
169 191 88
164 187 80
151 173 51
143 164 0
140 161 0
146 169 0
148 171 0
154 177 0
160 183 25
161 183 0
160 184 0
164 186 25
167 191 0
172 195 36
178 200 105
175 198 62
173 196 0
174 198 0
171 195 0
171 195 0
172 195 0
170 193 0
173 196 0
170 194 0
169 193 0
173 197 0
173 196 0
119 143 82
56 89 108
56 88 99
57 90 102
56 89 99
57 90 107
58 92 111
57 90 118
58 91 119
57 90 99
57 91 115
59 92 120
59 93 124
55 88 95
57 90 113
57 90 105
58 91 105
56 89 102
57 90 103
58 91 113
58 91 117
59 92 115
58 91 105
57 89 115
57 90 114
56 90 107
58 92 118
57 90 108
57 90 108
57 91 117
58 91 115
58 92 120
59 93 120
57 90 107
57 90 110
57 90 110
57 91 113
57 91 114
57 90 114
56 89 110
59 93 120
58 91 125
57 90 115
58 91 108
58 91 125
57 90 118
56 88 108
57 90 108
58 91 122
55 87 99
57 89 114
57 89 120
55 87 107
58 90 121
55 88 107
57 90 111
57 89 102
57 91 113
57 90 113
57 89 109
58 91 115
57 90 107
56 88 102
54 85 92
56 87 114
56 89 103
54 86 102
55 86 101
56 88 116
56 87 108
54 85 96
55 87 101
58 90 124
58 91 113
54 85 103
54 84 96
55 86 103
55 86 104
54 85 99
55 86 104
53 83 92
53 84 101
54 84 107
52 80 90
51 79 92
53 82 103
51 78 88
50 77 86
51 79 91
52 79 95
48 72 74
94 113 38
172 195 0
171 195 0
173 196 0
171 193 0
171 195 0
169 193 0
172 196 0
171 195 0
171 194 0
170 193 0
171 193 0
167 183 26
117 105 32
105 92 22
102 92 25
102 91 22
94 83 17
94 82 17
95 82 22
96 84 21
91 81 18
96 88 17
98 91 21
99 90 19
101 94 21
85 79 28
104 97 21
92 89 23
108 102 26
105 99 26
108 103 26
104 99 26
103 98 23
105 102 30
117 109 33
113 108 29
119 113 29
122 115 34
118 112 32
118 113 35
133 126 43
121 115 30
121 114 38
130 124 42
124 118 35
120 114 38
126 122 39
130 123 47
127 122 35
129 124 34
128 124 43
134 129 35
137 132 50
140 133 42
140 133 48
140 133 45
137 130 44
133 127 35
139 133 49
142 137 43
146 140 50
145 140 51
142 135 45
147 141 49
145 137 43
146 140 49
152 146 57
153 146 53
151 144 57
148 141 52
150 145 51
156 148 54
143 136 41
158 152 62
155 149 59
155 148 54
154 148 55
152 144 51
151 144 44
153 146 53
150 145 48
157 150 49
162 154 66
154 148 62
145 139 43
153 145 53
151 144 53
156 147 60
152 147 47
158 149 59
153 146 50
153 146 52
158 149 62
156 149 61
161 153 65
158 150 58
157 150 52
158 151 59
159 151 57
156 150 59
158 151 60
160 153 59
154 145 55
158 148 63
159 151 63
158 152 57
157 150 57
159 150 60
163 154 63
154 147 56
159 152 63
158 148 58
159 150 55
160 151 63
157 148 56
156 148 58
159 151 58
158 149 62
161 152 64
159 151 67
156 149 56
155 147 53
160 153 60
164 155 66
158 149 59
161 152 62
162 154 65
162 153 65
157 148 64
160 150 66
156 146 63
159 150 67
163 155 58
153 143 57
155 145 55
161 153 69
157 148 63
155 147 54
161 152 64
158 148 62
156 145 58
163 153 67
157 148 62
161 150 69
162 152 70
156 147 61
156 146 58
163 152 75
153 142 57
158 149 64
155 145 53
158 147 65
158 148 66
160 150 62
174 198 0
174 197 0
173 197 0
175 198 57
183 205 111
180 202 88
181 203 102
180 202 92
175 198 62
179 201 72
185 206 114
181 203 102
179 202 92
180 203 95
182 204 95
179 201 88
179 201 92
178 201 88
179 201 76
178 201 84
177 200 62
180 203 99
180 202 92
178 201 80
178 201 95
179 202 88
175 198 67
180 202 92
176 199 62
178 201 76
176 200 76
176 200 72
176 198 78
175 198 47
176 199 76
174 198 60
175 199 76
178 201 80
175 198 62
177 200 84
178 201 88
175 198 76
174 198 51
177 200 76
176 199 62
175 199 72
176 200 67
178 201 76
173 197 51
176 200 67
174 198 57
177 200 72
172 196 57
176 199 67
173 198 62
175 199 72
175 199 51
177 200 72
176 199 72
172 197 62
172 197 67
175 199 84
175 198 67
177 201 95
173 196 36
171 197 67
175 199 67
173 197 44
171 195 62
174 198 72
176 199 57
175 198 51
172 196 62
173 197 72
176 199 67
174 198 62
172 196 44
171 196 80
173 197 67
174 198 72
171 196 51
167 192 67
173 197 62
173 197 80
174 198 51
174 199 76
172 197 62
175 198 62
174 197 57
171 195 67
174 197 72
172 196 67
172 196 57
166 190 67
173 197 57
171 195 67
173 198 76
171 196 76
167 191 36
172 196 76
172 196 57
173 197 72
173 196 44
172 195 67
172 195 76
172 196 76
170 193 51
172 196 72
173 197 76
167 191 76
170 194 72
170 194 67
173 196 44
166 189 76
172 196 76
167 191 51
169 194 76
166 189 51
172 195 62
167 191 88
164 187 67
168 190 76
167 190 84
172 194 84
170 192 95
173 194 105
167 189 92
161 183 57
152 175 25
144 165 0
144 165 0
150 172 0
148 171 0
157 179 0
153 176 0
156 179 0
158 182 0
164 186 0
168 191 0
171 194 44
179 201 88
187 207 137
173 196 0
168 191 0
173 196 0
172 196 0
171 194 0
168 192 0
172 196 0
169 193 0
168 192 0
169 192 0
173 196 0
171 195 0
161 185 36
59 91 90
55 88 103
56 89 102
56 89 103
56 89 111
57 90 114
56 88 103
57 90 111
56 89 99
58 91 110
56 88 111
56 90 115
55 87 110
59 92 117
57 91 107
56 89 107
56 89 108
57 89 107
58 92 114
57 90 111
57 90 110
58 92 120
59 93 121
58 92 125
57 90 114
56 88 113
57 90 111
55 88 105
57 90 114
57 89 107
59 94 125
58 91 113
55 88 102
56 89 100
58 91 122
57 90 113
58 91 122
57 90 117
58 91 114
56 89 105
58 90 122
56 88 102
57 90 117
57 90 102
57 90 111
57 90 117
58 91 117
57 90 111
58 91 120
58 91 117
58 91 124
59 93 124
56 88 105
56 89 115
58 90 120
57 89 110
56 88 105
55 86 103
56 89 114
57 90 115
57 90 102
56 88 110
58 91 114
56 88 105
56 88 117
57 89 110
57 90 105
57 89 111
56 87 111
56 87 105
58 90 114
57 89 106
55 86 101
55 87 106
54 83 100
57 89 107
52 81 94
54 83 94
56 87 112
54 84 98
56 87 113
54 84 105
54 84 91
52 81 93
53 82 88
50 76 74
53 81 94
48 74 82
46 70 70
58 79 74
158 180 18
173 195 0
170 194 0
170 192 0
167 190 0
169 192 0
168 191 0
169 192 0
172 194 0
171 194 0
171 194 0
172 195 0
173 195 0
142 146 25
117 103 37
102 90 17
109 93 27
106 93 21
90 81 9
97 89 15
104 94 26
98 90 14
109 100 26
95 87 23
88 83 20
96 90 16
104 95 19
99 91 13
106 101 17
97 90 17
116 108 27
99 95 18
100 94 25
108 102 30
113 109 27
107 101 21
101 97 28
115 109 28
117 115 29
113 109 28
115 108 34
124 119 29
126 119 41
121 115 28
123 119 29
128 124 38
120 113 32
130 126 37
132 127 39
128 122 41
138 132 38
134 128 46
133 128 41
123 117 35
142 136 44
137 133 49
138 133 44
143 137 47
130 125 36
138 132 44
135 131 32
138 133 42
144 137 45
148 141 49
149 142 45
140 134 44
141 135 45
151 143 56
153 146 58
152 144 56
149 143 45
150 143 48
150 142 50
150 145 47
155 148 54
154 146 52
147 141 47
152 145 54
153 147 55
154 145 52
155 147 57
154 148 51
152 146 51
153 145 49
156 150 49
154 147 56
155 148 51
158 151 58
160 152 59
153 146 55
156 149 60
155 148 59
158 150 55
157 150 58
158 149 57
155 148 57
158 151 56
157 151 58
154 148 53
159 151 59
159 150 53
156 149 54
156 150 53
155 148 57
156 147 57
150 141 43
155 146 50
155 146 56
162 154 63
161 153 63
154 146 59
165 155 65
159 151 53
160 153 56
159 150 60
158 149 59
158 149 58
154 145 56
157 148 58
158 150 59
158 148 60
161 153 61
156 147 51
162 154 63
161 152 67
156 147 66
161 149 63
161 152 65
159 150 63
158 148 59
160 151 66
157 148 56
157 148 65
162 153 66
160 151 64
159 150 62
155 144 55
162 153 66
159 150 67
162 152 71
154 144 55
160 149 62
156 147 64
161 149 63
158 148 61
154 145 61
155 145 59
159 150 68
159 148 61
160 151 62
163 150 74
149 140 52
163 153 66
155 145 59
156 146 63
174 197 0
172 197 0
174 197 0
174 197 0
174 197 62
179 202 84
177 201 80
179 201 84
179 202 99
179 201 72
179 201 84
182 204 117
183 205 114
185 206 117
181 203 92
181 202 99
180 202 88
179 201 80
180 203 92
179 201 76
183 205 117
180 202 105
176 199 62
178 201 84
176 199 90
178 201 92
177 200 76
177 200 72
178 201 84
178 200 84
177 200 51
176 199 62
176 199 51
175 198 76
178 201 84
176 199 62
174 198 54
176 199 57
177 200 80
176 199 72
176 199 76
175 198 57
178 201 95
173 197 57
175 199 57
175 198 84
175 198 51
177 200 57
175 199 67
175 198 76
174 198 51
176 200 80
175 199 67
175 199 84
177 201 95
177 200 76
175 199 72
175 199 72
174 198 67
174 197 57
175 199 72
175 199 67
174 198 51
174 199 80
174 198 62
172 195 44
174 197 51
173 197 67
172 196 67
173 197 80
173 197 0
174 198 76
173 197 25
173 197 67
172 196 62
173 197 57
173 197 67
172 196 51
172 196 44
171 195 57
173 197 62
173 197 62
175 198 57
171 196 84
176 199 57
171 196 57
175 199 72
170 195 76
173 197 44
172 197 67
175 199 76
172 196 25
171 196 67
172 197 57
173 197 72
175 199 57
173 197 62
175 198 62
173 197 51
171 196 67
172 195 67
170 194 72
172 195 36
171 195 72
172 196 76
171 194 76
171 195 72
174 197 80
171 194 57
171 194 84
168 192 44
166 189 62
168 191 62
173 196 76
172 196 76
170 194 72
169 192 67
168 191 76
173 197 84
167 190 72
171 193 88
164 186 80
168 190 76
170 192 99
165 187 92
167 189 76
159 181 76
159 180 76
140 161 0
146 167 0
140 162 0
147 169 0
150 172 0
150 173 0
164 188 0
161 184 0
164 187 0
171 195 25
167 190 25
170 192 57
181 202 102
171 194 36
169 192 0
174 197 0
174 198 0
171 194 0
169 193 0
169 193 0
169 192 0
173 195 0
168 192 0
170 194 0
166 190 0
169 192 0
166 190 0
132 155 60
53 85 94
53 85 100
55 87 103
54 87 86
57 90 102
53 85 100
56 89 110
57 90 108
56 88 108
57 90 110
57 89 108
57 91 102
56 88 100
56 89 97
56 89 105
57 90 110
55 88 108
57 90 105
58 91 117
59 93 128
58 91 111
56 89 108
55 88 114
57 90 111
56 89 111
59 93 117
55 88 100
57 90 115
57 90 111
58 92 120
58 92 124
57 91 108
59 93 122
58 92 117
57 90 115
56 88 110
59 92 120
57 90 117
56 89 110
56 88 108
58 92 121
56 88 103
58 92 117
56 88 97
57 90 113
57 90 114
58 92 118
55 88 105
58 91 120
59 92 124
57 89 110
55 88 102
56 88 108
56 89 107
56 89 108
58 91 110
55 88 95
57 90 116
58 92 128
57 90 120
55 86 102
56 87 104
55 87 107
54 86 105
57 90 114
57 89 113
55 87 103
57 90 110
54 85 108
55 86 110
56 88 105
55 87 96
56 88 115
55 85 104
54 85 101
55 86 101
55 85 107
55 85 113
54 84 94
51 79 84
52 81 83
54 82 103
53 83 90
52 80 90
51 77 83
50 74 88
49 75 76
48 73 72
116 137 46
167 189 0
170 192 0
168 191 0
167 190 0
170 192 0
172 194 0
170 192 0
172 196 0
170 193 0
172 195 0
171 193 0
170 192 0
168 189 0
168 190 0
131 116 42
112 98 26
105 90 18
105 94 21
98 86 22
96 87 19
96 88 16
96 88 18
98 88 16
90 79 16
102 92 15
101 89 15
100 92 14
105 97 14
98 91 15
100 95 14
103 98 23
94 90 24
109 105 26
98 92 24
103 96 27
115 108 32
105 101 26
116 111 28
121 113 29
120 113 25
115 110 31
120 114 30
126 118 38
128 120 40
126 120 37
128 121 39
135 126 45
130 124 35
129 124 33
126 121 28
127 121 33
135 129 38
130 124 43
141 134 45
137 131 45
140 134 37
132 127 34
136 132 35
134 129 30
137 132 43
134 129 39
149 142 60
141 137 49
140 135 45
134 129 34
140 134 42
143 137 37
147 140 39
148 142 48
147 142 53
148 140 47
144 138 47
153 145 49
148 141 48
153 147 51
147 141 43
146 140 45
150 143 49
142 136 51
152 146 54
150 143 49
156 148 56
145 140 37
152 145 50
155 149 58
152 143 52
149 142 45
152 145 52
152 147 48
155 147 54
154 146 56
156 150 52
159 150 57
156 146 61
153 145 56
153 145 55
156 149 57
156 148 59
153 147 52
149 142 47
156 149 54
155 147 49
158 151 62
154 146 54
154 145 50
159 150 63
159 150 57
153 145 50
159 152 61
157 149 61
158 150 60
157 147 58
163 153 64
158 149 60
158 151 61
160 152 63
160 152 55
158 148 63
155 146 57
150 140 52
161 151 57
156 148 57
160 151 65
158 149 57
163 155 60
154 145 55
157 148 60
160 149 54
157 147 58
158 148 60
157 147 57
160 150 65
154 145 57
157 148 62
155 145 56
159 150 59
157 148 59
154 145 55
161 149 71
161 150 65
161 150 63
154 146 48
157 148 63
154 144 53
156 146 57
162 151 65
159 150 68
155 146 55
156 144 60
155 146 52
157 149 67
159 149 59
159 149 62
152 143 48
161 150 67
175 198 0
173 197 0
174 198 0
171 194 0
173 196 0
174 197 67
178 200 76
177 200 72
178 200 99
182 204 108
176 199 57
180 202 84
182 204 105
181 203 102
184 205 114
182 203 111
180 202 92
176 199 108
179 201 100
182 204 102
177 201 88
180 202 88
178 201 80
179 202 92
180 202 88
177 200 80
178 201 84
177 200 72
176 199 72
176 199 67
177 200 72
172 196 51
177 200 80
176 200 76
176 200 84
178 201 76
175 199 62
177 199 72
175 198 62
177 200 76
176 200 76
176 199 57
175 199 57
174 198 67
175 199 57
174 198 80
176 199 67
176 199 67
175 199 67
176 199 76
175 199 76
175 199 76
175 199 57
174 197 44
175 198 51
174 197 51
174 197 62
173 197 67
173 197 62
174 198 80
173 197 51
176 199 67
174 198 84
174 199 67
174 198 72
174 198 57
174 196 57
172 195 72
174 198 57
171 196 51
173 197 80
169 193 72
173 198 62
174 198 67
173 197 44
172 197 62
176 199 51
174 198 72
174 199 88
173 198 95
171 197 92
173 196 25
172 195 36
174 198 62
171 195 67
176 200 88
170 195 62
174 197 62
175 199 67
173 197 62
171 195 36
172 197 72
174 197 72
172 196 36
170 194 57
170 194 67
173 197 62
171 196 72
171 196 72
172 196 57
171 194 72
173 197 67
171 195 62
172 196 76
173 197 80
166 189 72
169 193 44
173 196 88
169 192 72
168 193 67
167 191 80
170 194 67
171 194 67
168 191 80
167 190 72
169 192 88
169 193 88
164 187 67
171 195 80
169 191 102
171 193 76
169 191 92
162 185 92
170 190 99
166 187 72
164 185 62
158 179 84
145 165 0
146 167 0
157 179 0
150 172 0
148 170 0
157 180 0
161 183 0
158 182 0
163 186 0
161 184 25
166 189 25
170 194 44
175 197 95
170 193 57
174 196 0
170 194 0
170 193 0
170 194 0
168 192 0
171 195 0
167 190 0
168 192 0
171 195 0
167 191 0
173 196 0
168 192 0
169 191 0
169 192 0
164 188 0
82 109 90
54 87 92
56 89 95
57 90 107
55 88 100
56 88 97
56 88 103
55 87 105
56 90 107
55 87 90
58 91 105
55 87 88
56 89 108
57 91 113
55 88 110
58 91 105
54 86 102
56 89 103
55 86 99
56 88 105
56 89 105
56 89 113
56 89 120
56 88 111
57 90 105
57 91 114
53 84 94
56 88 99
56 89 103
56 88 100
56 89 110
56 88 105
55 88 99
57 90 121
58 91 113
58 91 113
57 91 111
56 88 110
56 89 113
56 88 105
57 90 121
56 88 108
58 92 107
54 86 95
57 90 105
59 92 111
58 92 118
59 93 121
56 88 105
55 87 103
56 89 107
55 87 105
57 90 110
56 88 103
55 87 99
56 87 100
56 88 105
54 86 102
55 87 99
58 90 114
57 89 113
56 87 97
55 87 98
54 86 99
52 81 85
57 89 116
54 86 99
56 88 111
55 85 102
54 84 103
56 88 105
54 85 97
55 86 105
58 91 120
52 82 77
55 85 102
53 83 95
53 83 103
55 86 99
54 84 95
53 83 98
55 84 96
51 79 86
51 79 89
50 76 79
51 79 88
48 73 72
78 98 65
159 182 18
167 190 0
165 186 0
166 188 0
171 193 0
170 191 0
168 190 0
169 190 0
169 190 0
166 189 0
166 188 0
167 189 0
168 188 0
168 189 0
170 193 0
156 170 14
127 109 41
106 92 29
93 82 18
106 96 20
109 94 19
100 89 18
107 92 19
96 85 12
105 94 18
93 86 13
89 84 18
94 85 14
94 88 14
105 98 21
111 105 22
91 84 22
108 99 18
107 97 14
106 100 27
114 107 25
111 105 33
113 109 25
108 103 31
109 103 22
117 110 28
118 109 26
126 117 41
119 114 28
128 121 34
124 120 35
115 110 27
130 123 34
127 120 35
125 118 42
138 132 32
133 127 32
133 125 34
128 122 39
119 114 33
136 130 44
132 126 24
143 136 44
141 136 35
128 123 29
144 139 48
146 141 51
136 131 37
141 133 42
143 133 47
139 134 34
143 136 44
149 142 56
147 139 59
146 140 49
145 138 57
142 135 49
145 137 44
150 146 51
144 135 47
151 143 49
154 147 54
155 149 58
152 145 51
153 146 51
151 144 51
151 144 50
149 141 45
156 149 51
153 147 48
159 151 59
153 146 53
157 151 48
147 140 49
150 141 53
150 142 48
154 145 49
157 150 50
153 146 51
155 147 54
155 148 51
153 146 49
156 147 59
157 149 51
151 146 48
157 148 51
155 147 51
160 153 60
155 148 52
161 151 60
158 150 59
154 146 54
153 145 51
160 152 61
150 142 53
156 149 53
162 154 57
155 146 49
159 150 63
156 148 61
159 151 56
155 149 53
160 150 60
161 151 65
150 142 54
156 146 47
160 152 63
157 148 58
154 146 53
151 143 48
156 146 55
157 149 58
152 144 52
157 148 61
159 147 63
161 152 62
159 147 60
160 150 66
158 146 61
156 147 54
160 152 57
157 147 56
150 138 48
153 143 53
161 151 63
152 142 46
161 152 68
160 151 62
161 153 62
157 148 59
149 139 51
155 146 62
161 150 63
153 142 55
158 147 60
162 152 65
153 141 63
153 142 62
156 146 55
158 146 57
157 146 61
174 197 0
173 197 0
173 196 0
174 196 0
173 196 0
175 198 0
175 199 62
176 198 62
179 202 84
177 200 88
180 203 95
177 200 95
183 204 102
186 207 122
184 206 117
182 204 108
180 202 95
181 203 102
179 201 80
178 201 88
178 200 84
181 203 95
180 202 103
177 200 78
179 201 72
176 199 76
179 201 100
177 200 72
177 200 80
176 199 67
176 199 67
179 202 92
176 199 62
176 200 76
174 197 67
176 199 67
175 198 76
176 199 80
175 198 57
175 199 76
175 198 76
175 199 57
175 198 67
177 201 92
174 197 62
175 198 51
174 198 92
176 199 76
174 198 57
174 198 67
175 198 72
175 198 76
173 197 44
175 198 72
175 199 51
175 199 88
175 199 62
173 196 44
173 196 57
175 199 67
172 196 62
173 198 57
174 198 57
174 197 67
174 198 80
170 195 57
174 197 57
175 199 72
173 197 72
172 197 67
174 199 84
168 193 57
176 200 84
173 197 80
173 197 57
175 198 36
174 198 72
174 197 51
173 197 57
171 195 57
172 197 62
170 193 44
171 196 67
169 193 67
172 196 72
176 199 62
173 198 51
173 198 72
175 198 44
173 196 62
172 197 62
171 194 57
172 195 57
171 194 51
171 194 44
172 197 76
170 195 72
169 193 57
170 195 57
172 195 44
171 195 51
170 194 62
175 199 80
171 195 84
169 192 72
170 194 62
171 195 51
170 194 80
173 196 80
172 195 67
169 194 84
169 192 57
169 191 51
164 188 80
171 194 51
172 195 92
167 190 62
169 191 88
169 192 88
160 182 84
171 193 111
173 195 102
174 195 105
167 189 84
167 190 72
154 176 25
146 168 0
148 169 0
146 170 0
156 178 0
153 176 0
159 181 0
153 174 0
154 177 0
158 181 0
161 184 25
160 184 44
168 190 51
172 195 72
181 202 108
170 194 0
172 195 0
171 195 0
172 196 0
171 194 0
168 191 0
171 194 0
168 191 0
169 192 0
170 194 0
171 194 0
168 191 0
169 193 0
166 191 0
166 188 0
168 192 0
148 171 31
56 89 102
55 88 94
55 88 99
55 87 105
58 92 107
54 86 102
56 88 103
56 89 111
54 86 95
57 89 111
57 90 99
55 87 99
55 87 86
54 86 107
57 90 114
55 87 102
58 92 111
54 86 92
58 91 115
57 91 118
56 89 105
56 89 103
56 88 90
57 90 115
58 91 117
56 89 102
57 90 110
57 91 120
56 89 110
57 90 110
57 90 114
59 92 125
57 90 113
57 90 114
56 88 113
56 89 107
57 89 113
57 90 120
56 89 113
57 91 111
55 88 103
56 87 105
57 89 104
57 89 118
56 89 105
58 90 118
56 88 110
56 89 114
57 89 110
55 87 97
59 92 118
58 91 120
56 88 102
58 92 114
56 89 110
54 85 97
55 88 96
54 85 97
55 87 111
57 89 114
57 89 111
56 89 114
54 85 100
53 84 96
54 85 98
56 88 110
54 85 102
54 85 98
54 85 101
54 85 99
55 87 92
56 87 103
54 84 95
53 83 90
55 86 104
54 83 101
52 81 95
53 83 93
54 83 96
51 79 87
54 84 91
53 83 101
52 80 88
49 74 77
50 78 90
46 71 71
138 157 42
167 189 0
167 189 0
166 187 0
163 184 0
169 190 0
162 184 0
166 187 0
167 188 0
165 188 0
169 190 0
166 187 0
167 190 0
169 191 0
165 188 0
172 193 0
166 188 0
145 148 18
120 103 34
117 99 27
105 93 23
103 89 19
105 91 12
95 84 14
99 90 10
101 91 20
107 97 18
95 88 22
106 93 15
94 89 19
103 94 23
108 99 10
98 93 23
101 94 13
99 93 22
104 97 17
110 104 19
112 107 12
110 103 19
108 101 20
109 103 28
116 111 29
114 106 29
112 106 30
110 105 32
114 106 14
132 124 34
121 116 20
130 124 39
124 117 31
135 129 42
135 129 36
137 131 38
133 126 41
129 124 40
144 136 42
136 132 29
136 130 39
133 125 37
143 136 34
131 126 38
143 137 41
146 138 45
138 133 47
144 136 48
140 135 42
143 136 42
137 131 39
138 132 44
145 138 48
145 138 48
145 138 47
148 141 34
148 141 48
153 144 51
155 148 54
152 145 50
149 141 49
144 137 43
152 144 47
148 141 40
154 146 54
154 147 56
147 139 48
151 142 56
146 139 36
146 140 48
154 148 49
154 146 52
153 145 51
154 145 50
153 145 49
155 147 54
146 139 48
151 143 44
154 147 56
156 148 52
151 144 49
152 146 52
158 150 59
154 144 54
156 147 58
148 141 41
153 147 52
156 149 56
159 150 59
154 146 51
160 151 62
148 140 45
157 146 61
153 147 47
154 146 59
159 151 59
161 151 62
154 144 55
157 149 59
151 142 43
153 144 54
156 147 61
157 148 57
158 151 58
161 154 58
158 149 61
158 147 60
156 148 52
153 144 53
156 147 59
160 151 59
155 145 66
160 150 62
159 150 58
157 147 63
152 143 54
149 140 53
160 151 62
156 148 58
160 149 61
160 150 65
157 148 55
155 146 54
155 145 61
156 147 59
156 146 57
154 145 54
159 150 60
155 142 57
155 145 53
152 142 53
152 141 59
158 148 55
154 144 58
155 145 56
155 147 54
157 146 63
152 143 55
149 139 51
150 140 52
174 197 0
176 198 0
174 197 0
173 197 0
174 197 0
172 196 0
171 195 0
179 201 67
177 200 67
177 200 76
179 201 99
179 202 92
177 201 95
177 200 72
187 207 133
185 206 122
181 203 92
181 203 102
182 204 105
181 203 95
175 198 51
181 203 102
178 201 76
176 199 57
177 200 72
177 200 76
176 200 80
175 199 62
175 198 67
176 199 80
181 203 102
176 199 72
176 198 62
172 196 44
177 199 84
175 199 62
175 199 72
174 198 57
175 198 67
174 197 51
178 201 84
175 199 51
173 197 57
176 199 57
176 199 51
177 200 72
175 199 84
169 193 57
174 197 62
176 200 88
174 198 76
175 198 84
176 200 80
173 198 72
173 197 67
174 198 51
176 199 67
176 200 84
175 198 62
176 200 92
174 198 62
173 197 67
173 197 51
175 199 62
174 198 80
174 197 44
174 199 76
173 197 67
172 196 57
172 196 51
174 198 57
175 199 76
174 199 99
172 195 44
173 197 57
173 197 67
174 199 72
171 195 67
175 199 72
174 198 67
173 196 72
172 197 44
172 196 72
172 196 57
169 194 72
171 195 72
173 197 76
169 193 57
174 198 62
172 196 67
167 192 67
172 197 67
174 197 80
174 198 80
171 195 44
172 196 51
170 194 51
172 196 76
170 195 62
170 195 88
170 194 72
170 194 76
168 192 76
170 194 72
168 192 76
171 195 76
171 194 84
168 192 76
174 197 57
165 188 62
167 190 62
171 194 62
167 190 72
167 190 76
164 186 57
169 192 67
174 196 92
169 192 84
172 193 80
174 196 105
165 186 108
165 186 95
166 188 92
161 183 67
155 176 67
149 170 0
146 167 25
154 176 0
161 182 0
153 174 0
142 164 0
157 180 0
159 181 0
159 182 0
163 186 0
165 188 51
161 184 51
169 192 51
176 198 99
171 194 0
168 192 0
172 194 0
166 189 0
169 193 0
167 190 0
171 194 0
169 192 0
172 195 0
171 194 0
166 190 0
163 187 0
169 193 0
170 194 0
167 191 0
173 196 0
167 191 0
167 190 0
106 129 67
53 84 90
55 87 100
55 87 99
55 87 92
53 85 86
56 89 107
57 89 102
55 88 100
56 89 105
53 85 85
55 88 97
57 91 111
54 87 95
57 90 114
54 86 90
57 91 114
57 90 113
55 88 108
57 90 108
55 88 95
57 90 111
57 90 108
58 91 105
56 89 99
57 90 105
55 87 102
56 89 102
56 89 107
56 89 111
56 88 107
58 91 111
56 90 95
56 89 107
56 89 111
59 92 117
55 88 103
54 86 100
56 89 107
57 90 103
55 88 107
56 89 100
54 87 99
54 86 90
57 90 114
55 87 110
56 90 113
57 90 124
56 88 108
55 88 97
57 89 103
55 87 102
56 89 115
54 85 97
55 87 108
57 90 117
56 88 113
54 85 97
56 88 113
56 88 113
54 84 101
54 85 90
56 89 102
57 90 109
54 84 90
55 85 110
57 89 110
57 89 116
53 83 109
54 85 102
54 85 104
53 83 94
54 84 96
56 88 117
56 87 103
51 79 87
51 78 83
55 86 103
53 82 98
51 78 80
53 82 93
52 80 84
50 76 84
49 74 80
50 76 76
117 135 29
166 189 0
163 184 0
167 190 0
163 185 0
162 182 0
163 184 0
167 189 0
170 193 0
166 188 0
165 188 0
165 188 0
167 189 0
170 191 0
167 188 0
163 186 0
166 187 0
169 191 0
165 187 0
134 128 26
114 100 26
110 98 30
111 97 21
103 94 22
101 88 15
93 82 19
95 82 12
104 96 25
106 96 18
91 86 9
101 92 15
103 94 12
103 96 15
105 99 10
110 105 16
99 92 15
110 102 23
112 105 14
105 97 25
112 106 24
108 100 24
118 112 29
116 108 24
112 106 31
103 96 26
111 106 26
124 116 37
111 106 30
122 117 35
125 120 25
124 117 27
131 125 34
128 123 30
123 116 32
127 120 42
132 126 34
131 125 34
135 128 33
126 118 31
134 128 33
139 131 42
141 133 44
144 136 39
139 132 39
130 123 37
138 131 33
139 133 31
147 140 46
142 135 37
138 132 35
143 136 42
138 131 29
148 141 51
143 136 42
145 138 44
152 146 48
147 140 47
147 141 47
146 139 39
147 140 44
149 143 41
149 143 40
151 145 50
145 138 51
153 146 52
147 141 42
147 140 44
153 146 45
148 142 43
149 141 41
153 146 45
157 148 56
153 147 54
153 145 48
151 143 43
155 146 60
153 145 51
150 143 53
152 143 47
154 148 55
154 145 51
145 139 44
149 142 49
160 154 56
148 140 47
158 150 53
155 146 50
155 145 51
146 138 39
152 145 54
155 147 44
157 149 47
157 150 54
155 145 53
154 146 52
156 149 56
157 149 51
151 142 51
159 151 55
161 152 59
151 144 44
159 151 62
157 147 60
145 135 41
158 150 65
158 148 58
156 146 54
163 154 62
154 147 50
156 148 51
160 151 62
153 143 50
150 142 49
157 148 58
156 148 56
161 151 67
155 144 56
156 145 49
155 146 54
157 148 50
156 148 62
150 140 48
154 145 61
161 152 67
156 146 60
157 145 62
155 143 55
159 148 65
159 147 64
158 149 55
157 147 59
149 138 50
158 147 63
150 141 51
151 142 50
154 143 55
157 148 58
151 139 56
172 195 0
174 197 0
174 197 0
171 196 0
172 196 0
175 198 0
175 198 0
174 197 0
174 197 36
177 200 72
177 199 72
179 202 88
179 201 80
175 199 84
175 198 67
180 202 84
181 203 105
183 204 111
182 204 115
178 200 95
179 202 99
179 201 84
177 200 86
178 201 92
182 204 102
180 203 92
177 200 95
179 202 92
177 200 67
177 201 80
176 200 84
176 200 95
177 200 84
175 198 84
178 201 99
174 198 44
178 201 84
175 199 76
174 198 57
178 200 88
177 201 95
175 198 51
175 198 62
175 199 76
174 198 57
175 199 72
176 200 72
175 199 76
173 196 25
174 198 72
176 199 62
176 199 62
177 201 88
175 199 67
173 197 76
174 198 67
171 195 44
174 198 51
173 196 76
174 198 76
173 197 44
173 197 67
174 198 76
171 195 62
174 197 80
174 197 62
175 199 57
174 200 95
173 197 57
173 197 51
171 195 57
175 198 51
175 198 57
171 196 51
174 197 62
173 198 57
171 195 57
172 195 72
169 193 67
171 196 72
170 195 44
176 200 88
172 196 67
173 197 72
173 197 88
171 194 44
173 196 72
172 197 88
172 196 51
174 198 76
169 193 72
169 193 67
171 195 67
169 193 62
170 193 36
171 194 62
169 192 72
172 196 76
169 192 72
168 192 72
172 196 72
170 193 62
171 194 76
175 198 36
172 195 67
172 196 95
167 190 62
166 190 67
165 189 76
169 192 57
163 187 57
167 189 80
164 187 72
168 191 88
163 185 72
170 193 84
169 191 92
170 192 84
168 189 84
166 187 67
162 183 80
170 192 76
165 186 76
155 176 57
151 173 0
141 163 0
152 174 0
146 168 0
151 172 0
151 173 0
151 172 0
165 187 0
154 176 0
166 188 0
165 188 25
162 185 36
172 195 25
177 198 105
171 195 25
170 193 0
170 193 0
169 192 0
166 190 0
168 192 0
166 189 0
170 192 0
168 191 0
165 189 0
170 194 0
160 184 0
169 192 0
165 189 0
166 190 0
166 190 0
167 191 0
169 193 0
168 191 0
160 184 18
75 102 92
54 86 90
55 87 95
57 89 108
55 88 105
55 87 100
56 89 92
58 91 103
56 89 113
57 89 107
55 88 97
55 88 99
56 88 102
57 90 108
55 87 108
54 86 99
55 88 111
56 88 100
55 88 99
55 87 97
55 88 95
55 87 99
56 89 114
53 85 100
57 89 105
55 88 97
57 89 108
56 89 110
56 89 102
57 91 108
54 86 95
56 88 103
56 89 107
58 91 115
57 89 114
56 89 111
55 88 86
58 91 111
56 88 100
55 86 100
55 87 110
55 87 99
55 87 100
54 86 97
57 89 102
54 86 107
55 88 103
57 89 110
56 89 105
56 89 103
55 88 108
55 87 105
54 86 108
56 88 99
56 88 110
54 86 89
56 87 107
56 87 110
55 86 111
55 87 102
54 85 102
53 83 92
57 89 111
56 88 104
55 86 111
54 85 104
56 87 106
54 85 104
54 84 95
52 83 97
54 84 105
56 87 113
52 82 84
53 83 87
52 81 90
54 84 100
53 81 94
51 80 92
51 79 68
51 79 95
48 74 67
48 74 61
48 74 81
69 91 60
151 171 0
160 181 0
158 180 0
163 183 0
163 184 0
165 186 0
163 185 0
163 184 0
167 188 0
167 189 0
163 183 0
161 183 0
165 186 0
165 185 0
166 186 0
164 185 0
166 185 0
168 190 0
164 185 0
163 183 12
125 119 16
113 98 25
113 98 24
110 98 28
114 99 19
95 89 14
101 90 8
95 86 9
114 104 18
107 97 16
103 94 16
104 93 18
102 92 13
106 98 17
112 103 9
106 98 18
105 100 24
106 98 21
117 110 20
109 101 23
103 101 20
112 106 14
113 107 31
118 111 29
119 112 27
115 111 23
111 105 32
119 112 37
118 112 23
122 113 28
121 116 25
122 115 26
128 120 26
118 113 30
129 122 26
133 127 40
122 116 24
133 128 35
137 130 39
133 127 39
137 130 41
138 132 34
136 129 31
134 127 40
140 135 34
137 131 25
145 138 41
143 136 40
139 130 36
146 140 45
138 131 34
152 143 39
141 133 46
142 135 40
145 139 32
150 143 40
148 142 39
148 140 45
146 137 42
144 137 38
145 139 38
148 139 50
150 142 46
152 145 48
146 138 44
137 130 38
148 139 42
147 138 47
149 141 49
146 139 48
145 139 42
149 142 47
151 143 38
149 140 51
154 147 49
149 140 45
147 140 42
155 146 47
152 144 51
154 146 52
156 147 54
155 147 51
144 136 46
154 147 50
153 147 47
154 145 44
154 144 46
152 143 51
159 149 53
152 143 49
150 140 47
154 146 52
160 153 59
150 143 48
155 145 51
161 151 66
155 148 53
161 154 64
158 149 55
158 149 60
151 143 48
159 151 60
160 152 57
152 142 51
155 146 52
154 145 56
154 145 53
153 141 59
157 147 62
156 146 57
157 147 55
159 150 63
158 149 56
157 148 58
160 149 60
156 146 61
160 150 56
159 148 63
156 147 56
158 149 60
157 146 60
157 147 54
148 137 46
162 150 70
151 141 43
157 147 61
150 140 44
158 147 60
158 149 62
152 142 59
156 142 59
158 148 58
151 141 56
158 148 65
159 149 57
152 140 54
155 146 56
150 139 42
174 197 0
174 198 0
173 196 0
175 198 0
171 194 0
172 196 0
172 196 0
174 197 0
171 195 0
176 198 44
180 202 84
179 202 92
178 201 76
179 202 88
178 200 62
177 199 57
177 200 84
181 203 108
183 204 108
182 204 102
186 208 135
181 203 102
178 201 95
178 201 88
182 204 105
178 201 102
177 200 76
176 199 62
181 204 114
175 198 76
179 202 88
178 201 88
177 200 88
175 199 67
177 201 80
174 197 72
178 201 80
176 199 88
176 200 72
176 199 57
176 200 80
177 200 92
175 198 76
176 200 72
176 199 80
170 194 67
174 198 67
175 199 67
175 199 76
175 199 72
175 198 80
175 198 80
173 197 62
174 198 76
175 199 57
173 197 62
174 197 57
173 197 44
170 194 44
175 199 72
173 197 84
177 201 88
175 198 76
172 195 76
174 198 67
173 196 57
174 199 88
173 196 57
172 196 36
171 195 72
174 198 72
174 198 57
173 197 76
171 196 72
175 198 44
172 197 72
170 194 62
173 197 44
172 196 57
174 198 88
172 197 80
175 198 57
175 199 80
174 198 92
172 196 62
172 196 62
171 195 62
170 194 62
172 196 51
172 196 76
171 195 84
173 196 67
169 194 80
172 196 62
175 199 80
170 194 76
171 195 72
174 197 76
170 193 36
167 190 62
172 196 62
168 191 57
170 194 80
171 194 80
171 194 57
170 193 72
170 193 84
170 193 62
171 194 67
167 190 80
168 191 72
168 191 84
167 189 51
167 189 57
167 190 84
166 188 102
170 190 105
164 184 114
163 185 80
168 190 72
168 189 80
161 182 67
149 170 44
142 163 0
143 164 0
148 169 0
154 176 0
156 178 0
151 173 0
156 177 0
153 175 0
152 175 0
160 182 0
165 187 25
167 189 51
167 190 44
172 194 95
174 196 72
167 190 0
168 192 0
168 191 0
170 192 0
168 191 0
165 189 0
165 189 0
162 186 0
166 189 0
172 195 0
169 193 0
164 187 0
163 187 0
162 185 0
166 189 0
168 191 0
167 190 0
164 187 0
161 185 0
159 182 0
146 168 31
57 89 78
54 86 97
54 86 102
55 87 97
54 86 88
53 84 90
54 85 88
55 87 94
56 89 102
56 88 108
55 87 86
55 86 105
55 87 90
55 87 90
55 87 102
56 89 99
55 87 108
54 87 97
55 88 102
55 87 97
57 89 105
55 87 105
58 92 120
55 87 107
58 92 111
56 89 95
56 89 111
58 92 120
55 87 97
58 91 110
56 88 103
58 91 113
56 88 108
54 86 100
57 90 111
56 89 117
56 89 110
54 87 100
55 88 99
56 88 104
55 87 97
55 88 102
55 87 107
54 86 100
56 88 110
55 88 99
57 89 115
54 86 92
55 88 111
55 86 99
54 86 102
56 89 107
56 89 105
55 87 103
54 85 95
53 84 97
53 84 86
57 89 108
55 86 92
53 83 94
56 87 95
54 86 104
53 84 99
54 86 90
56 87 104
53 82 99
53 83 101
51 81 83
54 85 98
50 78 83
54 84 97
54 84 92
52 81 92
52 81 93
55 85 116
52 81 87
50 77 81
51 80 84
51 79 85
50 77 81
49 76 77
52 78 83
137 156 32
159 180 0
160 180 0
160 181 0
160 181 0
162 182 0
164 185 0
160 182 0
159 180 0
165 184 0
165 187 0
165 186 0
164 185 0
163 184 0
162 184 0
164 184 0
163 185 0
163 184 0
165 186 0
165 186 0
165 187 0
158 172 21
117 103 30
117 103 26
109 97 26
106 92 28
104 92 22
103 92 9
103 94 25
97 84 18
104 95 7
104 94 10
95 88 10
99 87 11
105 96 17
104 95 15
104 96 21
107 96 19
113 104 20
102 97 20
114 106 16
112 106 17
114 105 19
107 101 21
112 106 23
109 103 16
115 108 24
111 104 12
115 108 21
119 112 29
121 113 32
123 119 31
112 109 24
130 122 23
130 125 24
120 114 33
130 124 30
134 127 33
132 126 32
138 132 30
129 122 32
137 132 36
135 128 31
137 131 36
138 131 31
139 132 42
144 138 42
142 136 40
149 143 41
141 132 40
138 133 34
145 139 37
138 131 38
145 137 47
140 131 36
147 140 47
146 139 39
147 140 43
151 144 40
145 138 34
146 141 39
151 145 41
148 142 39
143 135 39
148 141 48
146 139 41
149 140 51
148 139 43
150 141 47
146 138 41
145 138 39
150 144 36
149 141 41
143 137 41
151 141 44
147 139 50
151 144 49
157 148 52
152 144 48
150 140 55
150 142 49
149 141 44
153 144 51
148 141 38
152 143 47
152 145 49
151 143 41
151 143 50
156 148 58
155 147 53
152 142 42
158 151 58
147 140 44
151 144 55
150 143 52
160 152 53
154 145 52
150 143 45
153 145 50
148 140 48
153 143 50
156 146 54
158 148 56
155 147 58
157 147 57
157 147 53
157 147 54
155 146 52
152 141 48
156 149 52
152 144 46
152 145 42
159 148 61
158 147 59
154 145 56
155 145 56
152 142 55
155 147 49
150 141 50
159 150 57
152 140 57
157 149 51
156 146 53
157 148 59
150 141 58
157 148 53
158 148 59
151 142 44
154 143 52
150 140 54
153 145 46
158 146 63
154 143 49
158 148 59
157 147 57
157 147 64
160 149 64
149 139 48
157 145 63
173 196 0
172 196 0
172 196 0
174 197 25
172 196 0
173 196 0
174 197 0
171 196 0
172 195 0
175 198 25
173 197 36
176 199 72
177 200 84
177 200 76
178 200 92
178 201 84
176 199 72
178 200 72
183 205 105
183 204 111
183 204 125
186 206 122
182 204 105
178 200 80
181 203 95
180 202 102
178 201 88
177 200 76
176 199 80
176 199 76
174 198 67
179 201 80
176 199 88
177 200 76
175 199 62
175 199 72
177 200 84
173 197 62
175 199 67
176 200 72
178 201 76
173 197 62
175 198 57
177 200 76
176 200 95
174 198 62
175 199 76
175 199 76
173 197 44
177 200 67
175 198 76
174 198 51
175 199 51
173 197 67
175 198 72
176 200 92
177 199 51
171 195 57
174 197 51
171 194 67
172 196 67
175 199 67
172 196 62
172 195 67
171 194 76
176 200 95
173 197 88
170 194 62
174 198 72
176 199 84
174 198 72
173 196 62
172 195 72
172 196 44
172 197 57
171 196 80
173 196 36
173 197 72
173 197 76
171 195 51
173 197 57
173 197 80
174 198 57
172 196 80
173 197 57
171 195 67
169 192 51
171 195 57
174 197 57
171 194 44
170 194 62
170 192 62
173 197 80
175 198 72
169 192 51
171 194 57
171 194 44
164 189 76
173 196 88
172 194 72
167 190 57
172 195 76
168 192 80
168 192 76
170 193 72
170 193 57
166 188 88
170 193 67
164 186 80
166 188 84
170 192 76
169 191 92
168 191 92
165 188 72
172 193 80
171 193 99
170 190 105
170 191 80
164 186 76
169 191 84
158 180 67
158 179 0
137 157 0
146 167 0
146 168 0
154 176 0
147 169 0
153 175 0
144 165 0
162 184 0
163 185 0
163 186 0
166 189 25
164 187 62
164 186 44
173 194 92
174 195 88
170 194 0
169 192 0
168 192 0
168 191 0
169 192 0
169 193 0
164 188 0
165 188 0
170 193 0
167 190 0
165 189 0
171 194 0
165 188 0
165 188 0
163 187 0
166 190 0
164 188 0
167 191 0
161 185 0
160 184 0
167 189 0
158 181 0
129 150 58
53 85 86
56 88 95
56 89 102
53 85 90
55 87 94
55 87 107
55 87 97
55 87 94
56 88 99
55 87 95
55 87 97
55 88 107
56 88 105
56 89 102
55 87 84
57 90 103
55 87 105
55 88 99
57 90 100
55 87 95
56 89 107
56 89 107
56 90 103
54 87 92
55 87 107
57 89 107
57 91 113
56 88 102
56 89 107
57 90 99
56 88 105
55 87 80
55 87 99
57 90 108
53 85 97
57 90 105
53 84 102
54 86 99
55 88 107
59 92 117
54 85 100
54 85 110
55 88 97
54 86 97
56 88 110
57 89 108
56 88 110
53 84 94
54 85 102
57 90 114
56 88 105
55 86 92
56 88 117
56 88 107
55 86 103
57 89 107
55 87 99
54 86 99
54 85 94
57 90 113
56 88 102
54 84 94
54 84 90
56 87 109
55 86 111
56 87 107
52 80 95
53 82 90
54 84 98
55 85 99
53 83 101
51 81 86
53 84 89
51 80 83
51 79 80
50 77 75
51 79 83
50 78 82
49 74 71
47 72 62
122 142 42
158 177 0
159 181 0
159 179 0
158 180 0
162 181 0
160 178 0
157 177 0
159 179 0
158 178 0
162 182 0
162 184 0
160 180 0
154 173 0
161 180 0
163 184 0
164 184 0
166 186 0
156 176 0
165 184 0
160 181 0
165 184 0
164 183 0
150 158 21
124 107 42
115 101 29
110 98 31
107 94 25
106 92 16
109 95 20
106 93 17
100 91 16
101 87 10
101 92 19
103 92 16
100 91 16
109 101 8
112 101 16
103 97 8
104 97 18
106 98 19
109 100 12
109 97 19
108 101 17
108 99 19
107 102 22
118 109 27
119 112 26
116 109 20
115 109 22
122 115 21
111 105 27
118 113 26
130 125 30
117 111 17
123 115 24
127 119 30
126 119 29
124 118 30
129 122 29
132 126 37
135 127 42
130 122 38
135 129 30
142 136 48
133 126 37
145 139 37
132 126 31
137 130 37
140 131 43
140 133 25
139 133 35
140 131 32
145 138 47
149 141 45
140 132 36
145 139 39
142 136 32
137 131 30
147 139 36
138 132 39
141 135 36
142 136 37
144 138 37
146 139 33
148 141 32
147 138 42
152 144 49
145 138 34
153 145 52
146 137 48
149 143 45
144 136 28
150 142 41
151 144 48
150 142 48
151 143 39
151 143 47
146 137 47
153 145 52
148 141 39
150 141 43
156 147 50
151 143 44
155 147 52
154 145 48
147 139 41
148 140 33
157 149 48
151 142 51
154 147 49
155 147 46
152 143 47
160 151 56
152 142 41
153 144 41
156 147 56
151 142 43
151 141 52
154 145 56
153 144 46
150 140 51
152 142 56
150 141 50
149 139 47
153 143 52
156 147 52
155 147 52
152 141 50
157 148 50
154 145 56
157 147 59
157 147 59
150 141 49
156 147 59
152 141 55
158 148 52
153 145 52
155 144 55
156 147 54
155 145 56
149 138 51
154 143 55
152 143 46
157 146 60
149 137 51
157 148 54
149 140 44
157 146 60
152 143 54
154 144 57
156 145 61
151 141 49
155 144 54
157 148 54
150 140 46
153 145 55
154 144 57
148 138 54
153 141 55
173 197 0
172 196 0
173 196 0
174 197 0
176 199 0
171 194 0
174 197 0
173 196 0
174 197 0
173 196 0
174 197 0
171 195 0
176 199 67
181 203 84
176 198 76
180 201 95
182 204 99
179 201 76
178 201 80
176 199 84
181 203 95
181 202 108
181 203 99
180 202 105
177 200 80
183 205 114
178 201 92
178 201 76
176 199 84
180 201 95
179 202 95
176 199 72
174 197 62
177 200 76
174 197 76
176 199 95
178 201 76
174 197 76
173 196 62
177 200 88
176 200 72
174 199 80
173 197 51
174 197 51
173 197 57
177 200 84
175 198 80
174 197 62
174 197 72
171 196 57
173 197 51
175 199 76
176 199 72
174 197 67
170 194 67
175 199 84
175 198 57
175 199 76
174 198 76
171 196 57
172 196 72
173 196 80
173 198 76
173 196 72
172 196 62
175 198 67
172 197 88
172 197 57
172 197 84
174 198 67
174 197 72
171 196 80
172 197 76
175 199 57
174 198 80
170 194 72
171 195 57
172 197 72
172 196 57
172 196 62
173 197 72
171 196 72
173 197 80
173 196 62
174 198 80
173 197 80
174 198 62
172 196 72
170 194 80
169 193 76
172 195 76
173 197 62
172 195 62
172 195 51
173 196 92
170 193 80
170 194 67
171 195 80
170 192 51
171 195 72
172 195 72
169 193 88
169 192 67
173 196 72
167 190 72
168 190 62
169 192 80
174 197 72
174 198 99
170 193 72
170 191 80
167 189 88
166 188 84
170 191 76
174 193 125
169 190 92
159 181 62
163 185 72
162 183 57
159 182 57
157 178 51
150 171 0
142 163 0
151 172 0
149 171 0
155 177 0
154 176 0
147 169 0
161 183 0
156 178 0
157 180 0
160 183 36
163 185 0
167 190 44
172 196 51
176 198 95
160 183 0
163 187 0
164 187 0
170 193 0
162 185 0
167 190 0
165 188 0
169 193 0
164 187 0
169 193 0
155 179 0
168 191 0
162 186 0
168 191 0
164 188 0
161 185 0
163 187 0
159 182 0
165 187 0
165 188 0
159 183 0
160 183 0
157 180 0
165 188 0
104 128 60
53 84 84
55 87 92
52 83 76
51 81 84
55 87 88
54 86 84
52 84 84
55 88 94
55 88 99
54 86 95
55 87 95
58 91 103
54 86 99
57 90 114
55 88 107
55 87 97
52 84 86
54 85 97
53 84 92
55 87 100
53 84 88
56 89 100
56 89 105
55 87 88
54 85 82
56 89 111
56 89 110
55 87 103
53 85 99
55 87 94
58 91 113
54 86 95
56 88 108
56 88 100
56 88 110
56 88 107
55 87 97
53 85 94
57 89 111
53 85 94
55 86 111
54 85 86
55 86 105
56 88 103
55 87 105
52 83 94
55 87 111
55 86 99
55 87 102
55 87 97
57 89 107
54 85 104
54 85 92
55 87 102
56 88 111
54 84 94
55 87 104
54 85 99
56 86 97
52 83 87
56 87 101
56 88 104
54 85 101
54 85 97
53 82 96
54 85 106
54 84 103
52 80 90
51 80 88
49 76 70
51 79 84
52 80 93
52 81 91
51 77 93
48 75 78
46 72 81
47 73 75
49 75 76
98 117 51
155 175 0
154 172 0
156 176 0
157 177 0
161 181 0
147 166 0
158 177 0
157 177 0
159 178 0
158 178 0
160 181 0
163 183 0
153 171 0
155 173 0
151 171 0
160 179 0
154 171 0
158 177 0
168 187 0
161 181 0
163 184 0
157 177 0
162 180 0
160 179 0
140 146 18
117 99 34
101 84 18
114 103 30
113 98 17
109 96 14
106 96 25
95 82 14
105 93 15
104 94 11
102 92 12
116 107 18
109 97 9
104 96 13
106 94 11
106 98 10
104 94 19
115 105 23
106 100 22
115 108 14
105 99 8
115 106 20
115 107 18
116 106 18
114 104 23
120 112 21
111 103 21
121 113 30
116 110 21
127 118 18
129 123 26
136 129 34
134 127 28
125 116 25
128 122 14
132 126 30
119 109 24
129 123 26
138 130 26
131 124 28
132 126 35
130 123 28
128 121 31
141 133 38
148 139 45
139 131 33
144 137 34
140 133 37
143 135 37
142 135 42
144 137 39
143 136 35
137 130 28
146 137 34
143 136 47
143 134 38
144 135 41
146 137 45
141 134 40
148 140 49
143 136 37
144 135 45
145 137 36
151 142 47
139 132 36
151 142 44
149 143 36
142 136 34
144 137 28
149 140 48
148 140 45
145 137 34
148 139 47
148 137 41
151 144 46
148 141 40
149 144 38
155 148 50
149 139 39
153 145 48
152 145 50
157 149 47
152 143 51
154 145 46
160 153 60
150 141 44
155 146 52
155 146 52
159 150 61
151 141 47
150 141 30
156 148 52
148 139 44
155 147 57
149 140 51
151 142 49
157 148 55
148 139 45
150 140 50
153 145 55
152 143 50
151 144 47
147 138 46
150 143 47
153 143 51
152 142 49
160 151 52
158 148 55
156 148 54
153 143 51
153 146 48
153 142 51
154 142 55
152 142 49
155 146 54
157 148 52
153 144 52
159 150 60
153 144 52
155 144 54
153 143 49
149 139 50
157 145 56
156 144 52
151 142 56
160 149 67
159 150 58
153 142 54
152 141 49
152 140 49
155 144 60
157 146 57
150 141 45
149 139 48
156 147 56
157 144 61
174 197 0
173 196 0
174 196 0
172 195 0
173 196 0
173 196 0
172 195 0
172 195 0
175 198 0
172 195 0
173 197 0
173 197 0
174 197 0
173 196 62
178 201 80
180 202 102
179 200 88
180 202 95
179 202 88
179 202 88
176 199 62
176 200 84
178 201 92
181 203 108
180 202 102
178 201 84
181 202 92
181 203 92
180 202 88
177 199 88
176 199 80
177 200 95
176 200 84
181 203 99
177 200 72
175 198 72
177 200 84
177 200 99
176 199 84
174 198 67
177 200 88
178 201 92
176 200 84
177 199 72
176 199 67
174 197 67
176 200 80
173 197 57
175 198 72
172 195 51
175 198 51
175 199 80
173 197 72
175 199 80
174 198 80
172 195 44
174 198 67
174 197 72
173 196 44
172 195 72
174 198 62
172 196 76
173 197 51
172 196 62
173 197 57
176 199 72
175 199 92
174 197 62
171 194 36
174 197 44
176 199 62
171 194 51
169 193 62
174 198 44
173 196 57
172 195 67
175 198 62
171 195 62
174 198 72
171 194 51
168 193 76
173 199 99
172 196 67
173 196 72
173 196 80
171 195 84
170 194 84
175 199 62
171 194 62
170 195 84
170 193 72
177 199 62
175 197 67
173 197 67
172 195 76
176 198 76
174 197 80
172 196 51
165 188 57
171 193 67
172 195 62
173 195 67
168 190 67
167 190 80
169 193 84
169 192 72
168 190 67
172 194 84
173 195 88
167 188 92
170 191 88
172 193 84
172 193 108
170 191 114
164 185 76
159 181 76
160 181 84
162 183 51
152 173 36
153 174 25
153 174 0
149 170 0
151 172 0
156 178 0
149 171 0
154 176 0
152 174 0
154 177 0
155 177 0
161 184 0
162 184 0
168 190 51
162 185 44
168 191 51
171 193 76
169 192 0
168 191 0
164 188 0
164 188 0
170 193 0
165 188 0
163 186 0
163 186 0
164 187 0
167 190 0
168 192 0
166 188 0
164 186 0
162 185 0
166 189 0
166 189 0
163 185 0
165 188 0
161 185 0
163 187 0
163 186 0
160 182 0
161 184 0
157 181 0
160 183 0
162 186 0
93 117 65
51 82 74
52 83 88
55 87 94
55 87 88
54 86 86
56 88 108
55 87 110
55 87 90
57 90 108
54 86 90
54 86 97
54 85 95
54 86 82
55 88 100
55 88 94
54 86 90
56 88 97
57 89 107
55 87 100
54 85 95
54 86 92
53 85 88
55 88 105
54 87 97
56 89 108
56 88 108
57 89 117
54 86 100
54 85 100
56 88 108
57 89 105
55 87 99
57 90 110
55 86 103
55 87 102
55 87 105
56 89 100
58 90 115
54 86 105
56 88 100
56 88 97
57 89 102
55 86 94
55 87 102
54 85 92
52 83 92
56 89 111
55 87 97
55 87 107
55 87 110
55 86 104
53 83 84
54 85 88
56 87 107
55 87 107
55 86 94
52 83 94
53 83 92
52 83 84
53 84 107
53 83 84
53 83 94
55 87 97
52 83 89
54 85 92
51 80 85
52 80 93
51 80 96
52 81 89
52 80 81
53 82 100
52 81 90
49 77 79
48 74 86
49 76 81
46 69 70
84 104 62
153 172 0
163 182 0
159 178 0
151 171 0
151 170 0
156 176 0
155 173 0
164 183 0
156 173 0
154 168 0
155 175 0
163 183 0
154 173 0
153 173 0
157 175 0
158 176 0
160 180 0
158 175 0
161 179 0
158 175 0
154 172 0
162 181 0
159 177 0
161 178 0
158 176 0
164 182 0
134 136 13
120 100 27
108 95 26
109 93 15
113 99 15
108 95 19
95 81 14
97 84 10
104 90 12
107 92 15
105 94 13
99 90 12
118 107 13
106 93 17
108 98 13
102 91 10
106 97 21
111 102 20
105 97 9
120 111 14
112 104 17
106 99 18
114 107 16
119 112 23
123 114 16
115 108 23
123 115 19
113 105 16
125 119 29
120 112 19
120 116 19
124 118 23
130 122 20
135 126 25
135 127 28
136 129 34
138 130 34
130 126 32
133 125 30
131 124 20
134 127 29
136 130 32
129 122 24
134 127 38
143 136 37
136 129 30
140 133 42
148 139 39
137 130 29
141 134 36
140 133 21
138 131 30
139 132 25
137 130 32
143 135 44
144 135 43
140 132 35
143 135 45
144 137 34
148 138 45
149 142 42
145 137 33
141 134 34
148 140 43
148 141 38
141 134 30
150 143 41
141 134 37
148 139 48
152 143 44
145 136 42
148 141 38
151 142 40
147 139 45
146 137 44
151 142 44
150 142 41
153 144 48
152 143 44
146 139 42
146 137 42
154 146 44
147 137 44
141 134 32
155 146 52
153 143 46
158 150 52
149 139 47
149 140 50
151 143 39
153 144 42
155 145 51
156 149 53
153 146 47
150 141 44
157 147 51
148 137 43
152 144 48
153 144 52
155 147 42
152 142 47
149 138 48
156 148 54
153 143 54
146 137 37
156 145 53
152 143 51
156 147 60
158 149 60
154 144 47
151 141 36
157 147 47
150 137 52
154 146 49
157 146 63
155 143 55
154 143 54
146 136 45
159 147 60
148 138 50
156 146 50
150 137 53
153 142 54
153 143 51
146 135 49
153 142 55
154 144 56
155 145 61
150 137 53
153 142 54
152 139 51
155 143 57
154 144 49
151 141 50
148 137 48
171 195 0
173 196 0
171 195 0
171 195 0
175 198 0
172 196 0
172 196 0
172 195 0
172 196 0
171 195 0
171 195 0
172 196 0
172 195 0
173 196 0
173 197 0
174 198 62
176 199 62
179 200 102
176 198 76
177 199 80
177 200 76
176 199 76
176 199 72
180 202 95
181 203 108
182 204 108
179 201 99
181 203 102
177 199 92
178 201 88
176 199 99
181 203 102
177 200 76
177 199 92
175 198 67
180 203 99
173 196 62
179 202 99
177 200 76
177 200 80
176 199 72
175 198 80
175 198 80
176 199 62
175 198 44
176 199 62
175 199 76
172 196 57
177 200 95
175 198 67
174 198 76
176 198 57
176 199 57
177 200 80
175 198 62
172 196 72
174 197 57
178 201 80
174 197 67
176 199 92
173 197 67
172 195 44
173 196 51
170 195 67
175 197 57
172 197 88
174 198 80
173 197 72
173 197 76
175 199 76
174 197 72
175 198 67
173 198 76
172 195 67
172 195 57
168 192 62
173 197 62
173 197 84
171 194 67
175 198 67
173 197 62
170 194 51
171 194 57
170 194 51
170 193 67
172 195 72
171 194 72
169 192 44
174 196 67
174 198 76
173 195 36
169 193 92
175 198 80
173 196 57
170 193 72
168 192 67
170 193 57
170 193 62
171 194 84
172 194 76
168 191 57
172 194 80
176 198 88
168 191 51
167 190 84
171 193 84
169 190 84
169 191 57
174 195 84
178 198 120
166 187 95
174 195 102
163 186 72
166 187 80
163 184 76
162 184 76
166 188 67
154 177 0
152 174 0
155 177 0
147 170 0
160 182 0
151 171 0
160 182 0
155 177 0
148 170 0
162 184 0
156 178 0
163 185 0
158 181 25
166 187 72
169 192 44
166 189 44
171 192 80
165 189 0
163 188 0
164 188 0
166 189 0
167 189 0
164 187 0
165 188 0
168 192 0
162 184 0
162 185 0
166 189 0
166 190 0
158 181 0
159 183 0
166 190 0
159 182 0
164 187 0
167 189 0
160 183 0
162 185 0
162 185 0
157 180 0
154 177 0
158 180 0
157 180 0
152 174 0
155 177 0
151 174 25
86 111 70
53 85 80
51 81 74
50 80 72
55 87 92
52 83 82
55 87 94
53 84 90
53 84 88
54 86 94
53 85 88
55 86 95
57 89 100
54 87 94
54 86 78
57 89 110
55 87 95
54 87 80
56 88 100
53 85 100
52 83 97
56 89 95
56 88 99
55 86 107
55 87 105
55 87 97
55 88 100
53 84 90
55 86 94
57 90 107
55 87 86
53 85 90
55 87 105
57 89 111
54 86 94
56 88 107
54 85 107
54 85 86
54 85 88
54 86 99
56 88 115
54 86 96
53 84 90
54 85 92
57 89 118
53 84 95
54 86 89
54 85 95
54 86 97
56 89 105
55 86 96
55 86 105
54 85 97
52 83 78
50 79 92
55 86 107
53 84 96
53 84 104
53 83 81
53 83 94
52 82 95
52 81 87
53 83 81
55 85 98
51 79 80
54 83 92
53 82 93
51 80 90
52 80 84
48 74 75
51 79 85
49 76 72
49 76 63
47 73 77
45 70 59
74 94 58
150 168 18
146 163 0
149 167 0
149 170 0
149 166 0
154 174 0
150 170 0
152 171 0
155 173 0
154 172 0
161 180 0
149 168 0
156 173 0
159 175 0
151 168 0
159 177 0
154 171 0
157 174 0
160 177 0
152 168 0
153 171 0
160 179 0
155 170 0
155 172 0
162 179 0
156 171 0
158 176 0
159 176 0
137 137 29
118 97 23
106 92 21
120 108 24
106 92 23
117 104 23
117 103 19
108 93 20
107 94 15
105 94 20
102 91 20
103 91 21
110 99 6
104 95 13
107 99 9
112 101 10
111 102 17
112 104 6
111 104 17
116 109 24
117 109 9
113 106 14
121 110 16
123 113 26
120 111 17
121 114 24
124 116 19
127 119 8
135 126 22
131 124 17
122 112 26
131 124 32
117 109 22
132 125 29
131 123 24
130 123 31
123 115 28
132 124 27
130 121 28
136 130 24
125 117 23
132 123 26
140 133 31
132 125 26
135 128 22
143 134 16
133 125 30
135 128 28
138 129 28
133 128 24
141 132 30
141 133 32
143 137 34
147 138 36
137 129 23
143 135 37
142 136 38
147 139 34
148 138 38
143 136 32
141 135 32
144 135 32
145 138 51
149 141 47
146 139 36
151 142 42
145 135 40
155 145 51
139 129 38
145 136 36
146 138 42
150 142 45
153 142 45
151 144 36
149 140 32
145 138 42
148 139 38
147 140 43
149 142 42
154 145 44
150 143 39
153 145 48
148 140 34
149 140 48
150 141 48
154 145 53
150 142 44
154 145 56
154 145 47
153 146 48
151 143 48
143 135 39
156 147 51
153 146 50
151 142 43
150 139 44
146 138 43
148 137 51
156 147 54
151 142 44
150 141 50
148 138 50
151 142 46
150 142 47
153 144 48
154 145 49
155 147 56
150 139 46
151 142 49
148 138 43
149 141 43
153 142 51
149 138 48
151 139 46
155 146 48
154 144 46
154 145 49
156 147 55
150 142 46
155 143 51
152 142 52
149 136 44
151 141 53
148 137 42
152 141 53
154 144 56
150 139 46
152 142 55
148 137 41
155 143 49
151 140 52
155 145 53
155 144 54
156 145 55
171 195 0
174 197 0
174 197 0
174 197 0
173 196 0
173 196 0
172 197 0
173 197 0
171 194 0
173 195 0
173 196 0
172 196 0
173 197 0
170 194 0
172 196 0
174 197 0
173 196 36
179 200 92
178 201 72
178 200 84
179 202 88
181 203 102
178 201 95
176 199 57
179 202 84
179 201 88
178 200 95
182 204 111
183 204 105
178 200 95
181 204 117
185 207 125
178 200 76
178 201 84
177 200 88
175 198 67
178 201 99
176 198 62
178 201 92
175 199 72
174 198 76
177 199 84
178 200 72
176 199 95
175 198 88
175 199 80
177 200 84
174 198 80
173 196 62
176 199 62
173 197 67
174 198 84
175 198 57
173 197 57
174 198 84
174 197 62
176 200 92
176 200 76
173 197 44
171 195 88
172 195 51
173 197 67
168 191 57
174 198 76
177 199 67
174 198 84
172 196 76
172 195 67
173 196 57
172 196 51
173 197 76
172 195 67
174 198 80
172 195 72
174 197 72
174 197 76
176 199 88
173 196 67
173 196 76
176 199 76
174 197 76
171 194 72
173 196 80
172 195 72
169 193 72
172 194 57
168 191 67
172 195 67
173 196 88
174 198 99
175 197 67
170 192 57
175 198 72
170 193 67
169 192 72
173 195 67
172 194 67
173 194 57
171 193 51
169 191 51
173 197 102
172 193 88
171 192 72
173 195 80
176 197 88
173 195 88
172 194 84
173 194 105
165 186 62
172 192 111
168 188 88
164 186 72
175 196 88
162 183 51
167 188 72
160 181 51
157 179 0
159 180 0
157 177 0
161 182 0
154 176 0
146 167 0
160 182 0
150 172 0
151 173 0
151 173 0
162 184 0
158 180 0
161 183 0
162 185 44
166 189 44
162 185 57
167 190 84
161 185 0
163 186 0
167 190 0
167 190 0
167 191 0
168 191 0
161 184 0
167 190 0
166 188 0
166 188 0
160 184 0
163 187 0
159 183 0
160 185 0
164 187 0
162 185 0
154 177 0
158 181 0
164 187 0
151 174 0
161 183 0
157 180 0
162 184 0
160 182 0
164 187 0
151 174 0
158 181 0
155 177 0
149 171 0
153 176 18
86 111 78
51 82 72
54 86 82
55 87 97
53 84 84
52 82 84
52 83 86
53 84 86
53 85 76
53 85 88
54 85 86
55 87 94
54 86 84
52 83 94
57 89 103
51 82 82
53 85 88
54 86 95
54 86 92
56 88 103
53 84 78
55 87 95
56 87 102
55 86 90
53 85 97
55 87 97
53 84 92
55 87 99
54 86 88
55 86 84
53 84 90
56 89 102
56 88 99
55 88 100
54 85 103
54 85 100
57 88 110
55 87 100
55 87 97
55 87 100
53 85 102
54 85 107
52 82 90
55 87 102
53 85 86
53 83 95
53 84 90
54 85 96
52 83 86
50 79 85
53 83 92
55 86 103
53 83 99
50 80 79
53 83 92
53 83 97
52 81 95
54 85 97
53 83 89
54 84 99
52 82 92
52 82 87
53 83 90
56 87 99
52 81 92
51 80 79
51 80 80
50 78 86
54 84 92
50 78 82
52 79 86
48 73 66
47 71 71
60 80 53
143 161 8
144 162 0
151 169 0
148 167 0
154 174 0
146 162 0
148 166 0
152 171 0
157 175 0
150 168 0
158 177 0
152 169 0
157 174 0
153 169 0
146 162 0
154 172 0
152 166 0
153 169 0
152 168 0
158 174 0
152 168 0
151 170 0
146 163 0
161 179 0
156 172 0
156 174 0
159 173 0
158 174 0
160 175 0
156 173 2
128 124 21
118 101 28
115 99 35
104 93 17
116 102 23
101 89 24
116 104 11
102 92 25
97 85 11
105 95 1
115 104 20
104 94 14
122 110 14
106 93 6
110 98 17
118 107 5
116 107 10
115 106 11
113 103 13
122 114 15
117 108 16
114 106 14
109 103 12
122 114 23
124 114 19
122 112 16
120 110 21
123 112 17
124 115 27
127 119 20
125 118 23
126 119 18
126 118 20
125 115 24
123 116 26
128 119 16
136 129 20
128 119 25
126 119 25
126 119 18
136 128 24
132 124 19
132 122 25
130 124 25
141 133 35
137 128 32
131 124 19
136 130 27
134 126 26
134 127 23
148 141 23
145 137 32
137 131 30
141 134 28
140 131 20
137 128 32
146 138 40
141 134 30
149 142 41
146 136 34
143 134 36
139 133 30
146 135 50
148 139 46
146 136 43
146 138 36
145 138 34
144 135 41
149 141 40
147 140 38
153 146 51
144 136 36
150 141 51
141 134 33
144 135 35
148 139 42
146 137 41
146 138 39
142 135 36
147 138 30
149 139 49
147 138 45
146 137 38
147 139 40
146 137 37
149 138 43
149 139 50
145 133 40
149 140 41
156 148 48
150 140 51
152 143 46
151 141 56
147 139 40
152 142 48
145 133 38
144 136 41
152 144 43
148 137 36
151 142 44
154 144 50
147 136 47
152 143 50
150 142 47
152 141 46
153 144 44
150 140 49
156 144 55
146 135 45
158 147 53
147 136 39
145 134 47
159 147 59
149 139 44
153 143 51
150 141 52
151 142 44
157 146 58
151 142 55
149 138 50
151 141 54
149 140 47
153 143 47
146 136 39
150 138 49
153 141 52
152 140 53
154 142 57
148 136 51
151 140 49
148 134 51
159 147 55
152 142 44
174 197 0
173 196 0
173 197 0
169 192 0
171 194 0
176 198 0
173 197 0
171 195 0
171 195 0
171 195 0
173 196 0
172 195 0
171 195 0
174 197 0
173 197 0
171 195 0
172 196 0
173 197 0
176 198 72
175 198 67
176 198 72
178 201 99
183 205 117
178 200 84
175 198 57
175 198 67
177 200 72
179 201 76
182 204 111
183 205 114
183 205 111
180 202 99
181 202 114
180 201 105
180 202 108
178 200 84
178 200 95
176 199 84
178 201 84
178 201 102
175 198 80
178 201 95
176 199 84
176 200 76
173 196 62
176 199 67
177 200 88
173 195 57
174 197 57
174 197 62
178 201 80
172 196 57
176 199 67
177 200 72
176 200 92
177 200 88
176 199 72
176 199 67
178 201 76
174 197 57
173 197 62
174 197 80
178 200 67
175 198 62
173 197 76
173 196 62
172 195 51
175 198 76
174 197 44
170 194 72
173 197 84
171 195 57
170 192 57
172 195 62
174 198 92
173 196 67
175 198 92
174 197 72
171 194 62
174 196 72
172 195 72
172 195 51
171 194 36
175 197 51
172 195 72
171 194 88
174 197 57
175 197 76
174 196 57
171 194 76
175 198 84
173 195 51
174 196 80
175 197 80
168 190 72
176 197 67
174 196 76
170 192 67
168 190 80
172 194 88
173 195 76
171 193 88
173 194 67
167 188 84
170 192 80
172 193 72
169 189 92
174 194 111
176 196 117
164 185 76
163 184 80
167 188 76
164 186 67
164 186 67
151 173 25
152 173 0
155 175 0
158 179 0
158 180 0
147 168 0
150 171 0
150 170 0
158 180 0
156 178 0
150 172 0
156 177 0
153 177 0
158 180 36
158 180 57
166 188 57
168 190 67
171 192 84
164 187 0
167 190 0
166 189 0
162 186 0
167 191 0
164 187 0
164 188 0
162 184 0
163 186 0
164 186 0
162 184 0
159 182 0
159 182 0
165 188 0
157 179 0
163 185 0
165 188 0
162 185 0
155 178 0
160 183 0
161 184 0
163 186 0
160 183 0
161 184 0
155 178 0
156 178 0
155 177 0
156 179 0
155 177 0
149 172 0
151 173 0
145 169 36
81 107 86
53 84 70
55 87 99
54 85 99
54 85 88
51 82 60
51 81 65
55 88 100
51 82 82
55 86 100
55 86 82
56 88 105
53 83 97
53 84 92
52 83 82
54 86 100
54 85 94
52 82 78
53 85 90
54 85 99
56 89 100
52 83 95
53 85 90
54 86 99
54 86 99
56 89 105
53 84 94
56 89 97
54 86 99
53 84 99
57 89 108
52 83 90
55 87 102
55 88 111
54 85 97
54 85 105
54 86 100
53 84 82
54 86 88
55 86 102
56 88 102
53 84 97
54 85 84
53 84 94
55 87 107
55 86 103
55 86 107
52 82 82
54 85 103
52 81 88
53 83 92
52 82 86
54 85 95
54 85 99
50 79 78
54 84 94
50 79 82
52 82 80
50 79 87
52 81 83
52 82 81
54 82 89
51 80 92
51 79 81
49 76 76
51 81 94
52 80 77
49 76 86
49 76 83
47 72 58
48 74 75
70 91 63
134 153 31
145 162 0
148 167 0
135 152 0
143 160 0
144 161 0
141 159 0
140 155 0
141 156 0
143 159 0
146 161 0
151 166 0
146 164 0
138 153 0
145 160 0
148 164 0
143 158 0
152 166 0
144 158 0
155 174 0
157 173 0
156 171 0
152 166 0
152 165 0
153 168 0
155 171 0
151 166 0
148 161 0
149 166 0
159 175 0
154 168 0
154 168 0
135 135 17
112 93 30
112 96 23
114 96 23
110 94 12
99 86 18
103 90 17
111 99 10
106 93 15
111 99 8
107 96 7
112 99 9
100 92 11
110 100 6
112 101 2
116 106 10
113 102 14
111 99 10
107 97 16
110 101 20
113 105 21
113 103 7
116 105 15
122 114 21
122 114 11
121 112 11
120 108 21
117 110 0
133 122 22
129 119 28
127 118 21
124 117 23
129 123 23
133 125 30
130 121 31
127 120 11
131 122 32
127 118 16
128 119 19
137 129 22
122 115 16
126 119 11
138 128 34
137 130 28
137 129 32
136 126 23
139 132 20
134 124 28
142 135 31
135 127 25
146 138 30
136 127 32
140 134 30
138 131 30
139 130 32
139 133 32
144 136 34
144 135 37
139 131 37
142 136 28
140 132 34
134 127 38
144 135 36
137 129 34
143 133 33
143 136 42
148 139 41
144 136 31
141 129 44
145 137 34
146 137 45
146 136 36
148 138 36
145 136 34
146 136 43
149 138 42
150 140 47
147 137 40
146 138 34
142 131 33
151 142 50
144 136 34
150 139 46
146 138 37
153 143 51
153 141 48
149 139 45
152 141 50
153 143 47
146 136 46
151 142 48
151 141 51
151 141 50
146 137 38
149 139 45
149 140 37
151 140 52
148 140 44
152 141 54
147 139 38
153 142 46
155 147 53
154 146 43
154 145 56
153 142 46
151 141 48
150 139 52
150 140 49
144 135 34
153 143 41
149 138 45
150 141 50
153 142 47
152 140 56
151 142 43
152 141 50
141 132 40
154 143 51
150 138 51
149 136 53
143 130 38
151 140 50
150 140 48
150 138 47
155 143 51
150 138 47
154 143 53
154 142 53
153 141 55
147 135 49
153 142 49
148 138 46
171 194 0
173 197 0
173 197 0
172 196 0
172 196 0
173 196 0
172 195 0
173 196 0
173 196 0
172 196 0
171 195 0
172 195 0
171 195 25
172 195 0
172 195 0
171 194 0
173 196 0
174 197 0
170 194 0
175 198 25
176 199 72
176 199 62
175 198 67
179 201 80
178 200 84
173 196 62
176 199 72
174 197 72
176 199 72
176 198 67
181 203 105
180 202 105
181 202 99
176 198 84
177 199 84
182 203 108
178 200 99
179 200 80
178 200 92
177 199 92
175 199 80
177 199 92
176 199 84
179 201 80
176 199 99
174 196 72
172 195 51
176 199 84
176 198 67
179 202 84
175 198 80
174 197 72
174 198 57
178 201 88
178 200 88
173 196 84
172 195 44
176 199 76
174 196 62
176 198 51
176 199 80
175 198 62
175 197 72
175 198 51
171 194 76
173 195 67
179 201 80
178 201 88
172 195 62
174 197 80
171 194 67
173 196 67
173 196 62
174 196 72
173 196 80
175 198 88
170 193 88
169 191 62
171 195 84
174 196 62
174 196 57
172 195 72
171 193 76
174 196 80
173 196 67
173 195 76
171 193 76
173 196 76
175 198 99
173 195 57
172 194 67
171 192 62
174 195 92
175 197 92
172 194 84
175 196 76
174 196 88
171 193 76
171 192 95
169 191 76
178 199 117
175 196 95
170 190 84
176 197 117
170 190 92
174 194 114
169 190 84
169 191 95
162 184 67
168 189 88
166 186 80
166 186 84
150 171 36
154 174 0
153 175 0
150 172 0
159 180 0
155 177 0
149 170 0
152 173 0
152 173 0
152 175 0
157 179 0
159 181 0
157 179 0
167 189 0
157 178 25
163 186 44
169 191 44
165 187 72
170 192 67
162 185 0
162 184 0
158 181 0
164 187 0
162 185 0
168 191 0
160 183 0
162 185 0
156 179 0
156 179 0
166 188 0
160 183 0
160 182 0
161 183 0
155 177 0
157 180 0
150 173 0
161 183 0
155 178 0
160 181 0
159 181 0
157 181 0
154 177 0
151 173 0
144 167 0
144 166 0
152 174 0
150 173 0
151 173 0
145 168 0
145 168 0
150 171 0
147 168 0
145 166 18
79 103 51
52 83 90
53 85 88
50 80 76
51 82 84
55 87 102
52 83 80
53 84 82
54 86 88
53 85 94
56 88 95
54 85 103
56 89 102
53 84 90
54 86 95
55 86 92
53 84 84
52 82 88
54 85 100
57 90 102
55 87 92
52 82 86
52 83 94
53 84 90
51 82 78
53 83 95
55 86 95
54 86 88
54 86 99
54 86 97
54 86 92
55 87 102
54 86 90
53 84 86
53 85 94
53 84 85
54 85 88
54 85 105
53 84 88
55 87 95
52 83 72
53 84 94
52 83 92
53 83 99
53 84 99
52 83 84
55 86 99
53 84 94
52 83 86
54 85 96
52 83 84
55 87 94
49 78 78
51 80 77
51 80 90
52 81 90
53 84 88
52 81 97
49 77 78
53 83 99
51 79 86
54 84 104
46 73 55
47 72 61
49 76 67
50 78 78
52 81 95
50 77 81
48 74 73
70 88 45
129 146 18
147 165 0
131 148 0
136 154 0
144 163 0
132 150 0
139 157 0
143 157 0
142 159 0
138 154 0
149 166 0
136 149 0
146 161 0
147 161 0
149 166 0
137 151 0
147 166 0
144 159 0
151 168 0
146 162 0
153 171 0
152 167 0
146 160 0
149 162 0
143 155 0
150 165 0
154 169 0
147 161 0
149 164 0
151 167 0
151 164 0
150 163 0
155 171 0
154 170 0
138 139 15
114 97 24
109 91 10
116 102 19
115 99 26
108 93 19
104 89 11
112 99 18
106 93 13
110 101 13
102 91 7
99 86 9
116 103 16
107 94 4
111 98 7
113 100 18
117 106 11
116 105 10
116 107 6
114 105 14
119 107 7
107 99 4
114 106 8
120 109 9
114 106 18
125 116 11
126 115 18
116 105 8
120 114 3
127 119 20
125 118 21
125 116 16
120 110 18
124 116 14
126 115 17
124 117 16
129 122 25
130 121 16
135 128 24
136 128 25
133 124 30
133 123 23
135 128 16
132 125 0
139 131 31
142 134 30
142 132 35
139 130 26
131 123 17
141 133 33
141 132 30
138 128 34
133 124 28
146 137 36
143 136 38
140 132 23
137 128 28
147 139 36
142 132 32
141 132 38
139 130 28
148 139 42
144 136 34
145 135 36
145 136 28
141 133 26
145 139 38
144 136 38
144 135 38
144 134 34
146 136 39
142 133 34
138 131 34
147 139 32
145 136 30
150 141 44
147 137 46
146 137 36
140 132 41
152 141 56
138 129 34
140 131 30
148 140 39
144 135 34
150 143 41
151 139 43
150 140 51
150 140 36
147 139 39
148 138 44
144 135 41
150 142 42
146 137 48
149 139 43
148 138 44
152 143 48
146 136 42
151 141 44
149 137 37
152 144 53
147 137 40
148 140 40
144 135 37
152 141 52
152 142 49
155 145 45
147 137 32
152 142 44
146 134 39
155 146 55
153 142 46
147 137 47
154 144 46
148 139 41
152 142 50
153 142 51
152 142 52
148 136 40
156 144 57
154 142 52
151 139 52
156 147 59
151 139 56
146 131 53
146 135 53
148 135 49
153 143 54
154 142 51
148 136 47
155 145 53
154 143 58
171 194 0
173 197 0
171 194 0
174 197 0
173 196 0
172 195 0
175 198 0
170 194 0
176 198 0
171 195 0
173 196 0
173 196 0
172 195 0
173 196 0
174 197 0
170 194 0
174 197 0
175 198 0
173 197 0
173 196 0
171 193 0
171 195 25
175 197 44
175 198 72
177 200 72
177 199 84
178 199 92
176 198 76
180 202 105
175 199 72
176 199 62
176 199 72
180 202 102
181 203 102
182 203 108
177 199 88
180 201 92
182 203 117
177 200 92
177 199 105
178 201 105
179 202 84
179 201 88
175 197 95
177 200 72
175 197 72
178 200 76
176 199 76
177 199 80
177 200 95
179 202 99
175 197 76
175 199 72
173 196 88
176 199 84
173 196 84
170 193 57
177 199 62
173 195 51
175 199 76
176 198 76
174 197 80
172 195 72
174 196 62
177 200 76
172 195 57
175 198 76
174 197 76
173 194 36
175 197 80
177 200 95
170 193 72
176 198 62
175 198 72
176 199 80
173 196 84
176 198 84
169 192 0
176 198 51
172 194 84
178 201 95
175 198 72
173 196 88
175 197 62
171 193 72
170 192 44
170 192 76
174 195 84
175 197 92
177 200 105
174 195 72
175 197 95
174 197 95
175 197 88
173 194 67
173 194 88
173 194 62
178 199 105
171 192 92
172 193 84
171 191 92
172 194 84
174 195 88
175 195 111
173 193 99
170 191 80
169 191 76
176 196 102
159 180 67
163 185 72
159 181 36
154 175 25
163 184 0
162 183 0
151 172 0
153 174 0
159 180 0
155 176 0
163 184 0
151 172 0
159 180 0
158 179 0
154 175 0
163 184 0
151 173 0
161 183 44
164 186 36
165 188 36
161 183 67
166 188 80
163 187 0
159 182 0
168 190 0
166 188 0
162 185 0
166 189 0
165 188 0
162 185 0
158 180 0
167 188 0
159 182 0
159 181 0
168 191 0
160 183 0
159 182 0
155 178 0
156 178 0
159 182 0
154 176 0
160 182 0
155 177 0
154 176 0
150 172 0
155 177 0
147 169 0
155 177 0
150 173 0
148 171 0
146 168 0
153 175 0
156 178 0
145 166 0
148 170 0
145 167 0
149 172 0
134 155 31
94 117 65
51 81 80
52 83 78
52 83 89
52 82 84
53 85 78
53 84 90
53 84 78
54 86 99
53 85 94
53 84 92
53 84 92
55 87 90
52 82 88
53 84 82
55 87 88
55 87 99
51 81 74
52 83 94
52 84 88
55 87 97
52 82 74
55 88 97
53 85 90
51 81 90
52 83 92
52 82 84
56 87 105
51 81 78
54 85 95
55 87 97
54 85 86
54 86 107
56 88 103
54 86 97
53 83 78
51 82 67
53 83 92
55 87 102
54 85 92
53 83 86
53 83 95
52 83 92
53 82 92
50 80 88
51 81 92
51 81 90
52 83 92
51 81 90
51 82 84
50 79 80
49 78 77
51 80 77
49 78 81
53 83 94
52 81 92
52 82 76
51 81 90
50 78 81
53 83 85
51 80 77
49 77 88
49 77 72
49 75 89
49 76 63
47 72 63
47 72 81
81 99 54
129 147 0
143 158 0
134 149 0
137 154 0
140 155 0
143 160 0
138 155 0
136 153 0
138 152 0
137 153 0
136 149 0
142 158 0
140 154 0
142 157 0
138 151 0
145 158 0
137 151 0
144 157 0
148 163 0
138 153 0
144 158 0
142 156 0
144 157 0
150 163 0
144 158 0
144 159 0
150 164 0
153 168 0
155 167 0
149 161 0
149 160 0
147 159 0
152 165 0
149 160 0
157 170 0
153 164 0
140 145 16
113 93 17
107 90 14
104 92 19
112 99 24
111 100 18
106 95 20
105 91 10
108 95 14
102 93 13
103 91 9
106 95 11
115 104 5
103 93 6
110 98 12
124 112 18
112 101 14
111 104 11
118 107 7
109 101 11
116 104 9
114 103 16
119 108 8
123 114 15
122 113 11
116 109 6
128 120 17
133 123 17
121 111 16
126 117 13
125 116 15
116 108 19
130 122 18
122 116 21
119 110 12
127 118 24
123 116 11
128 118 24
133 124 33
137 129 24
126 118 25
137 130 25
125 117 27
134 126 28
129 122 19
134 125 30
133 125 25
138 128 31
132 124 16
141 134 38
137 125 30
141 132 32
136 127 25
140 130 32
145 138 32
134 125 24
144 136 30
147 137 38
137 131 23
140 131 32
144 136 31
139 128 28
139 131 32
142 132 32
138 126 31
143 135 38
145 137 32
145 134 41
144 133 42
143 134 32
144 133 41
141 132 32
145 136 38
145 135 38
144 136 34
149 141 36
145 135 30
146 138 41
155 146 51
143 133 34
145 135 34
145 137 38
146 138 39
151 141 40
155 143 54
145 135 41
143 136 40
148 140 44
148 138 47
140 131 32
146 137 45
149 137 39
154 145 49
149 137 40
152 142 48
147 137 36
151 141 46
154 144 43
154 144 41
146 137 50
153 142 51
147 137 39
152 141 48
151 140 50
148 138 41
155 145 49
140 129 37
149 137 44
151 142 44
152 142 50
151 139 47
155 144 47
153 142 51
148 137 41
152 141 49
154 145 51
149 138 46
150 138 40
146 133 45
151 140 51
151 138 50
151 139 46
142 132 40
151 139 49
150 140 50
146 136 48
149 137 48
152 140 49
151 139 51
154 142 57
175 198 0
173 196 0
173 197 0
172 196 0
173 196 0
173 196 0
174 197 0
172 196 0
171 195 0
169 194 0
174 197 0
172 195 0
175 198 0
172 195 0
172 195 0
170 194 0
168 192 0
172 196 0
170 193 0
170 193 0
171 194 0
173 195 0
170 194 0
177 199 44
175 197 84
179 201 92
178 200 88
176 198 80
180 202 99
177 200 72
176 198 67
177 201 80
175 197 67
179 201 99
179 202 99
182 204 114
176 199 95
179 200 95
179 201 102
182 203 105
183 204 117
173 197 57
175 197 76
179 201 92
182 203 99
177 199 84
176 199 92
176 198 72
174 197 72
176 199 80
175 198 72
178 200 76
176 199 62
174 196 67
175 197 62
176 199 80
178 200 80
176 198 95
171 194 76
177 199 57
175 198 72
173 195 51
172 195 76
174 196 76
175 198 76
176 199 80
175 198 76
174 197 80
176 199 80
172 195 80
174 196 67
174 197 67
173 196 62
170 192 72
171 193 84
175 197 72
177 198 72
178 199 67
169 191 67
170 193 80
176 197 72
174 196 62
178 199 72
178 199 80
173 194 72
175 197 95
177 198 72
178 199 72
175 197 88
176 196 88
171 193 88
168 190 57
173 195 80
176 197 80
177 196 95
166 187 88
174 195 95
175 196 105
173 194 92
174 195 108
179 199 95
172 192 111
171 193 92
164 185 84
170 191 67
169 190 88
169 190 99
161 182 67
159 181 57
158 179 0
160 181 0
157 176 0
150 172 0
161 182 0
149 169 0
153 174 0
158 179 0
155 175 0
153 175 0
155 176 0
155 177 0
157 179 0
159 181 0
160 183 25
161 183 44
167 189 36
170 192 25
171 193 72
169 190 76
156 179 0
161 183 0
164 187 0
161 184 0
156 178 0
164 186 0
164 186 0
159 182 0
160 183 0
151 173 0
157 180 0
160 182 0
159 182 0
151 173 0
155 179 0
158 180 0
158 181 0
154 177 0
163 185 0
156 178 0
148 171 0
156 178 0
148 170 0
156 178 0
154 176 0
151 173 0
147 169 0
145 168 0
146 168 0
150 171 0
140 162 0
141 163 0
147 169 0
147 170 0
144 166 0
144 165 0
141 162 0
139 158 18
110 132 51
51 80 74
47 77 70
52 83 76
52 82 82
52 84 82
51 81 84
51 82 78
55 88 86
53 85 82
52 84 74
50 79 70
51 82 78
51 81 86
51 82 86
54 85 92
51 81 80
55 87 88
54 86 95
52 83 78
52 83 82
56 88 102
55 87 102
55 87 94
54 85 88
54 85 103
54 84 95
49 78 86
54 85 95
55 88 107
52 83 78
53 84 97
52 83 88
54 85 90
54 84 103
54 86 100
53 84 94
54 85 92
53 84 94
53 84 90
55 87 103
54 84 90
54 85 90
53 83 87
53 83 92
51 80 82
52 82 95
52 82 75
53 84 108
51 80 90
49 79 62
51 81 80
50 78 87
51 80 87
49 77 73
50 78 76
49 78 74
51 79 78
48 75 84
49 76 68
51 81 71
48 75 86
48 73 83
45 70 48
48 73 73
106 125 37
124 141 0
125 141 0
128 142 0
129 143 0
129 145 0
129 144 0
133 147 0
135 150 0
128 141 0
131 146 0
136 152 0
140 153 0
144 158 0
144 159 0
136 152 0
139 152 0
144 159 0
145 158 0
135 148 0
146 163 0
145 157 0
137 149 0
144 159 0
138 152 0
151 162 0
151 164 0
133 143 0
150 163 0
139 153 0
140 152 0
146 159 0
140 149 0
148 159 0
142 153 0
153 165 0
149 159 0
143 153 0
151 161 0
140 145 11
115 101 24
107 89 26
107 87 15
109 94 15
121 105 13
116 102 25
108 94 9
108 96 12
103 88 4
111 98 14
107 95 6
108 96 9
112 100 11
101 89 9
114 104 10
107 99 3
111 99 13
118 106 8
116 107 3
108 98 8
116 106 11
117 107 11
118 108 18
112 103 8
119 111 13
125 117 7
119 109 20
120 107 16
125 116 20
125 117 16
126 117 8
122 113 2
124 115 3
126 118 20
123 113 8
125 116 5
127 117 20
124 114 21
131 122 1
130 123 16
137 127 25
132 125 19
132 123 11
138 130 12
129 119 23
135 127 28
137 127 30
136 127 28
138 130 25
129 122 16
136 128 28
139 130 28
135 126 28
128 120 19
131 122 20
136 127 30
141 131 22
137 128 33
142 135 25
147 138 41
146 137 30
141 133 28
141 131 30
140 133 25
145 136 39
140 132 36
140 132 34
148 139 38
149 140 32
143 133 24
143 136 36
151 142 42
143 135 34
144 136 38
144 134 25
146 136 41
147 137 36
143 134 30
144 135 37
148 139 39
150 141 41
148 136 35
146 135 33
152 144 38
147 135 43
148 139 36
148 138 50
146 137 39
146 137 42
150 142 42
146 136 38
150 139 47
145 136 40
150 140 45
146 136 50
149 138 42
149 139 44
149 140 38
153 140 43
144 133 30
149 139 46
146 135 44
155 143 55
147 138 40
155 143 49
151 140 45
152 139 47
150 138 46
152 142 53
155 146 52
147 136 36
149 138 45
149 138 43
150 138 48
144 132 40
149 138 50
152 142 43
151 141 49
150 137 42
149 137 48
150 138 48
152 141 54
158 146 57
154 142 54
149 139 46
148 139 48
149 138 44
148 136 48
174 197 0
170 195 0
175 198 25
172 195 0
173 197 0
174 197 0
171 195 0
173 197 0
172 195 0
171 195 0
172 196 0
173 196 0
172 195 0
170 195 0
174 198 0
173 197 0
171 195 0
174 197 0
173 195 0
171 193 0
172 196 0
172 196 0
172 194 0
171 194 0
172 195 0
175 198 67
175 198 62
178 200 80
178 201 88
178 200 80
176 199 80
180 201 92
177 200 72
177 200 62
177 199 62
176 198 57
175 197 62
179 201 84
182 202 117
180 202 102
182 204 114
180 202 95
180 202 102
180 202 92
179 201 92
182 203 111
179 200 102
176 199 92
177 200 80
177 200 95
176 199 92
179 201 108
174 196 72
173 195 76
175 197 72
175 197 62
178 200 88
176 198 80
179 201 84
175 197 44
173 195 67
176 198 57
174 196 76
175 197 80
171 194 67
176 198 57
172 195 76
177 200 99
173 196 84
170 192 72
173 194 67
174 197 72
173 196 105
177 199 88
173 194 72
178 199 88
174 195 88
174 195 62
173 195 76
176 198 108
176 197 67
174 195 72
168 189 80
176 198 80
178 200 102
171 193 51
173 195 67
175 196 80
174 195 95
177 198 80
176 197 88
174 194 99
171 191 88
177 198 111
174 194 99
174 194 102
172 193 95
170 189 108
169 190 95
168 188 76
168 190 67
169 190 92
167 188 88
166 187 62
162 183 57
165 186 84
163 184 51
159 179 25
159 180 0
152 173 0
154 175 0
155 176 0
158 180 0
160 180 0
158 180 0
154 175 0
158 179 0
158 178 0
160 182 0
162 183 0
160 182 0
157 177 0
152 173 0
158 179 36
158 180 0
164 187 44
170 192 84
161 184 36
159 181 0
159 182 0
160 182 0
164 187 0
157 181 0
168 190 0
163 186 0
162 184 0
157 179 0
159 182 0
160 182 0
155 177 0
153 176 0
158 181 0
158 181 0
147 169 0
156 178 0
150 172 0
155 178 0
156 177 0
151 173 0
151 173 0
149 172 0
150 172 0
151 173 0
151 173 0
153 175 0
151 172 0
154 177 0
140 161 0
143 164 0
145 166 0
149 171 0
147 168 0
137 159 0
139 161 0
124 145 0
138 158 0
124 145 0
141 161 0
115 136 36
57 85 65
51 82 70
49 79 80
52 82 84
49 79 84
52 82 80
52 82 84
54 86 99
53 84 94
51 82 74
52 83 88
51 82 76
51 81 72
52 83 80
53 85 84
53 84 78
53 85 88
56 88 97
53 84 102
53 84 80
53 83 94
52 83 82
53 85 97
53 84 82
53 84 80
52 83 92
54 85 84
53 85 80
51 81 80
51 81 80
54 85 100
53 84 84
53 84 95
54 85 94
52 83 88
52 82 78
53 84 86
55 86 103
52 83 86
53 84 102
52 83 76
50 79 86
52 83 91
51 81 89
52 82 94
48 76 70
53 84 88
50 79 74
51 80 75
52 81 94
51 80 90
51 81 90
52 81 83
47 75 74
48 76 80
50 78 74
51 80 81
49 77 75
46 72 48
47 73 66
46 72 71
50 72 64
105 119 26
126 140 0
119 133 0
132 147 0
125 141 0
134 148 0
134 148 0
128 141 0
113 127 0
128 144 0
134 149 0
138 154 0
133 147 0
130 142 0
135 152 0
137 151 0
135 150 0
144 158 0
142 155 0
136 146 0
139 150 0
144 156 0
137 149 0
142 157 0
142 152 0
145 155 0
137 147 0
127 137 0
138 147 0
142 153 0
136 146 0
143 153 0
135 145 0
143 155 0
145 156 0
148 160 0
147 155 0
147 157 0
140 150 0
149 159 0
153 159 0
139 145 11
116 104 18
111 93 22
113 94 27
111 97 21
119 101 20
106 92 17
109 97 9
97 86 10
107 93 13
111 99 8
105 91 8
115 103 5
115 104 6
119 109 13
121 110 8
115 103 4
113 104 5
114 104 8
116 109 3
112 103 6
113 103 13
122 110 5
119 110 8
125 115 13
119 111 18
126 116 11
118 107 12
125 114 2
124 115 14
117 108 11
125 117 11
126 114 16
121 112 27
130 120 13
134 125 25
118 110 18
128 120 19
132 122 11
126 120 22
123 115 11
131 123 16
134 122 24
137 126 30
130 121 26
133 123 20
140 129 20
132 121 12
133 124 23
130 121 11
140 131 30
132 124 16
137 127 19
129 118 20
135 128 28
140 130 23
138 131 19
135 125 16
141 130 39
138 128 28
142 132 28
144 136 34
141 133 36
144 135 39
141 134 25
142 133 23
147 137 43
144 135 30
142 135 40
143 133 23
145 136 36
143 134 32
143 134 24
149 140 39
141 130 43
145 137 32
146 137 26
145 136 36
143 134 36
145 137 31
147 138 38
152 143 51
148 140 36
143 132 36
152 139 46
146 137 31
151 141 43
143 134 31
151 141 40
145 138 39
148 138 45
146 135 35
149 139 41
144 134 37
150 139 47
145 135 39
150 141 44
154 144 57
150 140 47
148 137 43
147 137 35
143 132 41
144 133 45
149 138 47
149 140 41
155 145 49
146 135 42
149 138 47
147 136 50
150 139 46
151 141 51
145 134 40
149 137 45
149 136 51
149 134 49
153 141 45
149 138 47
150 139 44
149 139 46
142 130 40
150 139 49
150 136 50
151 139 38
151 139 46
155 143 57
145 133 40
149 136 45
147 135 43
173 196 0
172 195 25
171 194 0
173 197 0
170 194 0
171 195 0
175 198 36
174 197 0
168 192 0
174 197 0
172 195 0
173 196 0
174 197 0
172 196 0
174 197 0
174 197 0
173 196 0
171 194 0
174 197 0
172 195 0
170 193 0
172 195 0
172 194 0
171 193 0
170 193 0
172 195 0
171 195 0
172 195 0
174 196 51
174 197 36
178 200 76
177 199 72
176 199 72
177 199 80
180 202 95
178 200 76
177 199 72
176 199 67
175 197 51
178 200 88
181 202 92
180 201 108
184 204 108
182 204 102
178 199 99
180 202 102
179 201 99
180 202 111
178 200 99
177 199 92
177 200 95
173 196 72
178 200 92
172 195 67
177 198 76
180 202 108
179 201 99
177 199 84
176 198 80
173 195 76
173 195 57
176 197 76
178 198 72
175 197 72
177 199 102
177 199 84
177 199 88
176 199 92
177 199 88
176 198 92
174 196 72
175 196 67
173 194 72
176 198 92
169 192 80
178 199 72
177 198 84
173 195 88
178 199 99
173 194 92
174 195 84
177 199 95
175 197 72
173 194 92
178 199 105
174 195 84
175 196 92
173 194 80
177 197 99
172 193 99
175 196 102
174 194 99
172 194 102
174 195 105
173 194 95
170 192 84
167 188 62
165 187 72
166 186 67
167 188 80
173 194 80
166 187 76
170 190 62
166 187 72
164 185 25
160 182 0
151 173 0
152 172 0
155 176 0
158 179 0
156 178 0
155 176 0
148 169 0
152 174 0
161 182 0
155 176 0
158 179 0
160 181 0
155 176 0
158 179 0
160 183 25
156 178 0
154 175 25
155 177 25
162 183 57
165 186 72
164 186 25
162 184 0
159 182 0
156 178 0
160 181 0
163 186 0
164 187 0
156 179 0
159 181 0
162 184 0
157 179 0
159 182 0
161 183 0
153 175 0
154 176 0
154 176 0
156 176 0
143 166 0
156 179 0
156 178 0
152 174 0
154 176 0
150 172 0
151 173 0
150 172 0
148 170 0
150 172 0
153 175 0
143 165 0
152 173 0
145 166 0
143 166 0
131 152 0
143 165 0
150 171 0
141 163 0
153 174 0
132 152 0
129 150 0
142 162 0
133 153 0
130 150 0
136 157 0
120 140 31
68 92 54
49 79 60
49 79 80
50 80 80
50 80 67
49 78 78
50 79 76
53 85 92
51 81 76
50 80 72
51 82 82
52 83 80
52 83 92
53 84 90
51 81 86
51 80 76
52 83 76
53 85 95
50 80 82
54 86 88
53 84 84
49 79 76
49 79 88
52 82 92
53 84 88
52 83 88
51 81 74
52 82 86
51 81 86
51 81 78
54 85 90
50 80 72
51 81 82
53 83 90
54 86 97
51 80 81
51 81 88
50 80 78
52 82 86
53 83 94
53 84 84
51 81 88
52 83 92
53 83 80
54 84 86
51 80 80
50 78 87
53 83 87
49 78 74
49 76 80
51 79 83
51 79 75
49 77 67
48 77 82
49 78 74
48 77 79
49 77 72
45 71 70
44 68 40
66 86 57
118 134 0
114 128 0
120 135 0
106 119 0
121 137 0
137 151 0
121 135 0
126 137 0
119 134 0
130 144 0
119 130 0
128 142 0
125 137 0
125 139 0
133 147 0
119 132 0
130 146 0
120 135 0
136 149 0
133 144 0
134 144 0
130 144 0
136 150 0
139 152 0
138 149 0
133 142 0
134 148 0
131 142 0
133 141 0
136 144 0
136 150 0
137 145 0
138 147 0
147 160 0
138 146 0
138 148 0
142 153 0
145 152 0
136 143 0
141 150 0
138 147 0
142 149 0
149 156 0
148 155 0
126 118 26
110 90 22
114 95 25
112 96 25
111 95 21
110 95 18
111 95 15
102 89 8
110 95 12
121 105 14
122 109 8
109 96 5
106 93 8
107 95 12
108 97 6
113 103 4
113 99 8
115 103 8
106 97 8
122 110 7
117 103 14
122 113 4
117 105 14
111 102 12
122 110 6
123 113 8
124 113 13
124 115 11
125 114 13
127 116 14
131 121 16
125 117 11
122 114 14
130 118 13
127 117 2
120 110 21
129 120 12
128 118 11
131 121 18
141 132 20
127 118 11
125 115 25
133 124 22
128 119 11
131 121 6
133 124 20
131 120 25
133 123 23
135 127 25
140 132 25
143 134 19
135 125 13
137 127 32
137 128 25
136 124 31
143 135 32
141 132 30
137 130 16
142 132 36
140 133 26
144 135 28
139 130 28
140 130 34
143 135 34
141 134 30
132 120 20
142 132 25
145 137 28
143 135 25
140 129 26
141 133 36
142 132 41
143 131 37
145 134 32
146 137 44
147 137 38
148 138 38
144 134 30
144 134 34
143 135 32
145 135 39
142 133 37
149 137 44
145 136 40
149 139 46
148 139 40
148 140 35
151 141 47
147 135 40
153 145 47
148 136 43
140 132 32
147 138 36
148 138 36
148 139 45
149 138 45
153 143 52
144 131 39
143 133 31
148 139 44
147 136 44
147 137 45
151 140 48
147 135 41
141 130 32
151 141 48
143 131 31
155 145 50
151 140 51
147 137 44
146 136 34
147 135 48
151 141 45
150 138 49
152 140 47
147 137 51
154 141 50
150 137 47
153 142 52
152 140 46
153 142 54
149 139 51
146 133 44
149 138 49
154 139 53
149 136 49
174 197 25
172 195 0
170 194 0
172 196 0
173 196 25
174 197 0
172 196 0
172 196 0
172 196 0
171 195 0
173 196 0
174 196 0
174 198 0
171 194 0
170 193 0
170 194 0
173 195 0
173 196 0
175 198 0
172 195 0
173 195 0
170 192 0
174 196 0
173 196 0
174 197 0
175 197 0
171 195 0
172 194 0
170 193 0
173 195 0
171 194 36
176 199 67
175 197 76
175 197 62
179 202 92
176 199 62
180 203 95
177 199 80
178 200 67
177 199 88
178 200 80
178 200 84
176 200 80
178 199 80
179 201 92
179 201 95
175 198 76
183 204 122
179 200 102
178 200 84
176 198 92
181 203 105
177 198 102
181 202 102
181 202 88
179 201 76
176 198 88
178 199 84
176 197 72
177 199 88
179 201 95
179 201 99
179 201 99
176 198 95
174 195 72
178 200 84
175 197 88
173 195 62
178 199 84
176 198 67
173 194 67
175 196 57
174 195 76
178 199 88
178 199 88
177 198 92
176 196 80
177 198 57
172 194 72
178 199 92
178 198 105
173 194 76
171 192 76
173 193 84
169 190 72
174 194 95
171 192 92
175 196 117
175 195 102
180 200 108
173 193 92
170 190 76
169 190 88
170 192 80
168 190 57
167 188 62
171 191 62
169 190 80
167 188 88
173 194 67
163 185 62
162 184 44
158 179 25
162 183 0
159 180 0
160 181 0
158 179 25
156 177 0
158 178 0
150 171 0
160 181 0
151 172 0
160 181 0
140 162 0
161 182 0
160 181 0
160 181 25
164 186 0
160 182 25
165 186 25
160 181 44
168 189 44
162 184 57
171 193 57
165 187 62
165 187 0
167 189 0
161 183 0
165 187 0
150 173 0
156 177 0
156 178 0
156 178 0
158 181 0
153 175 0
155 178 0
153 175 0
155 176 0
154 175 0
156 178 0
155 177 0
154 176 0
153 175 0
158 179 0
151 173 0
154 176 0
148 171 0
155 177 0
157 179 0
141 162 0
144 166 0
151 173 0
150 172 0
149 171 0
149 171 0
144 165 0
128 148 0
141 162 0
144 165 0
136 158 0
136 157 0
140 160 0
141 163 0
134 155 0
130 150 0
139 160 0
133 153 0
146 167 0
130 149 0
117 137 0
121 140 0
97 118 40
49 76 62
50 79 78
52 82 60
52 83 92
50 79 78
52 82 82
50 80 72
54 86 99
51 81 97
51 81 80
53 84 88
48 77 70
53 85 84
53 84 99
49 78 78
52 83 80
52 82 78
51 82 88
48 78 67
51 80 74
53 83 88
50 80 78
54 85 110
53 84 84
55 87 100
52 83 86
51 82 70
52 82 92
51 81 74
53 85 86
52 82 82
50 80 88
49 78 74
52 82 90
50 79 74
56 88 99
52 83 99
49 79 78
49 77 78
51 80 81
53 84 90
52 82 90
51 81 85
49 78 80
47 75 70
49 77 72
49 78 65
49 77 77
49 77 78
48 75 70
48 76 71
44 69 70
48 75 68
47 73 70
48 73 70
51 74 60
90 104 37
120 134 0
120 134 0
126 140 0
109 123 0
115 126 0
126 138 0
119 133 0
122 134 0
124 139 0
115 129 0
128 143 0
129 142 0
120 135 0
127 141 0
122 132 0
135 148 0
123 136 0
127 139 0
138 149 0
122 132 0
129 140 0
122 135 0
121 133 0
142 154 0
131 139 0
136 148 0
132 143 0
133 143 0
134 145 0
135 145 0
127 134 0
131 141 0
136 147 0
140 149 0
135 143 0
143 151 0
138 148 0
126 131 0
140 150 0
140 147 0
131 141 0
144 152 0
134 140 0
141 146 0
141 148 0
139 144 0
125 118 13
122 104 22
102 84 17
123 104 25
116 99 12
107 93 14
111 98 17
105 91 6
107 92 14
108 94 6
110 95 12
113 101 8
112 99 5
108 96 15
117 104 8
105 92 9
110 101 10
122 112 12
119 106 3
115 102 6
116 107 2
117 109 2
119 109 10
116 106 7
122 109 15
125 114 8
124 114 0
121 114 6
124 114 5
124 114 11
124 113 13
122 112 3
134 122 15
122 112 19
123 115 17
122 114 1
129 121 12
129 119 11
135 125 16
133 124 12
135 126 20
134 125 2
133 122 23
125 116 12
135 126 16
135 124 3
131 123 12
134 124 20
136 128 22
134 126 25
131 121 28
137 129 23
138 129 32
132 123 22
135 125 28
140 131 26
144 137 28
139 131 19
141 132 25
136 127 30
146 137 36
136 126 25
138 128 25
145 137 26
141 131 33
141 130 32
133 121 30
144 136 28
141 131 32
144 133 32
148 137 42
140 131 25
150 140 33
138 130 28
143 134 28
140 132 26
140 129 28
145 137 25
140 130 32
145 135 36
146 136 31
143 130 37
142 131 39
146 137 39
148 138 41
141 129 40
147 136 40
145 135 45
151 142 43
145 133 41
142 133 31
148 137 39
148 135 37
145 132 40
149 138 43
148 134 42
151 142 43
146 134 43
148 138 31
148 138 43
148 137 32
150 140 49
142 133 33
146 137 42
147 136 41
150 139 44
148 134 42
146 134 43
157 145 59
149 136 42
148 136 45
151 141 46
150 141 51
144 132 44
146 135 38
149 139 46
159 148 56
147 134 42
147 135 33
155 144 53
146 134 42
145 132 41
147 133 50
148 138 46
150 138 52
172 195 0
171 195 0
174 197 0
171 194 0
171 193 0
174 196 0
172 196 0
174 197 0
174 197 0
172 196 0
175 197 0
174 197 0
174 197 0
172 195 0
174 196 0
171 194 0
173 196 0
171 194 0
171 195 0
173 197 0
173 195 0
170 193 0
172 195 0
171 194 0
169 193 0
170 193 0
172 195 0
169 192 0
171 193 0
168 192 0
173 195 0
175 197 0
172 194 0
173 196 44
175 198 67
178 200 88
179 201 92
176 198 80
176 199 80
175 198 62
176 198 88
175 197 76
175 198 72
175 197 57
177 199 76
176 198 92
176 198 76
176 198 111
178 199 88
179 201 111
180 201 111
179 200 99
182 203 120
180 201 84
174 196 76
178 199 99
181 203 122
179 201 99
176 198 99
178 199 92
177 198 84
175 197 84
175 196 76
179 200 99
179 200 95
178 199 84
174 195 76
176 197 92
175 197 76
175 195 102
176 197 88
177 198 99
174 195 76
175 195 72
173 194 84
177 198 92
180 201 120
173 194 92
180 200 114
173 194 92
173 194 92
175 196 111
175 195 114
171 192 88
173 195 80
175 196 117
172 192 80
172 192 95
171 192 95
169 189 92
170 191 62
168 189 62
169 189 72
164 185 80
169 190 92
170 191 88
169 189 72
168 189 67
164 184 44
163 183 0
158 179 0
161 182 0
158 179 0
163 183 0
163 183 0
153 174 0
163 185 0
158 180 0
153 175 0
165 185 0
155 176 0
157 177 0
146 168 0
159 180 0
154 174 0
157 179 25
152 173 0
158 179 0
161 182 25
162 182 25
163 185 36
167 189 36
167 188 72
158 179 44
164 186 0
159 181 0
152 174 0
168 189 0
158 181 0
161 182 0
165 188 0
160 181 0
153 175 0
159 182 0
156 177 0
161 183 0
160 181 0
152 174 0
158 180 0
160 182 0
153 175 0
160 183 0
154 176 0
152 174 0
159 181 0
155 177 0
152 174 0
149 170 0
149 170 0
142 163 0
154 175 0
146 167 0
151 172 0
147 169 0
146 168 0
147 168 0
146 168 0
128 149 0
147 168 0
146 167 0
132 153 0
133 152 0
136 158 0
138 157 0
135 156 0
129 149 0
129 149 0
128 148 0
122 142 0
112 132 0
125 144 0
122 140 0
99 117 18
72 92 18
46 74 62
47 75 67
50 79 65
50 79 67
50 81 80
48 76 74
52 82 90
51 81 72
50 80 70
49 78 74
51 82 76
51 81 70
53 84 76
53 84 97
50 80 80
51 81 82
49 78 72
53 84 92
50 80 74
48 77 74
51 81 95
50 79 72
49 79 74
51 81 76
50 80 74
51 81 92
50 79 78
52 82 82
51 81 95
50 79 75
49 78 68
51 81 80
50 79 80
52 82 72
51 81 86
54 86 94
50 79 70
48 76 76
49 78 82
50 79 76
50 78 80
50 80 94
50 78 80
48 75 62
49 77 70
49 78 76
45 71 54
50 79 86
47 74 65
44 69 61
46 71 56
47 73 56
62 80 51
95 111 25
97 108 0
102 112 0
106 118 0
111 123 0
120 134 0
113 128 0
122 133 0
110 122 0
123 136 0
120 133 0
130 142 0
117 133 0
116 126 0
125 137 0
127 141 0
117 131 0
117 130 0
121 134 0
125 139 0
121 134 0
128 140 0
128 139 0
144 158 0
125 139 0
125 138 0
132 144 0
136 148 0
132 143 0
134 144 0
123 132 0
132 141 0
127 136 0
130 141 0
139 147 0
138 145 0
129 135 0
128 137 0
134 143 0
136 142 0
136 140 0
137 142 0
131 133 0
132 138 0
143 152 0
134 141 0
127 131 0
134 136 0
135 141 0
135 140 5
112 97 21
105 87 20
108 90 14
110 93 20
112 94 18
115 98 9
105 91 9
116 100 9
114 96 10
112 98 10
120 108 15
112 98 13
112 98 8
117 104 4
112 98 8
108 94 8
119 108 3
119 107 13
119 108 9
125 113 7
115 103 2
123 112 1
118 106 5
118 108 4
122 111 2
124 114 12
124 114 6
122 111 5
123 110 4
129 119 4
126 117 17
125 116 2
126 115 8
122 111 4
126 117 16
127 116 23
135 126 5
125 114 2
135 125 14
130 117 11
132 121 25
129 121 11
132 123 19
135 125 16
130 119 1
134 123 18
139 129 22
132 120 20
136 127 25
134 126 17
138 129 13
131 121 20
130 119 25
136 125 23
136 128 26
134 125 32
136 127 23
144 133 28
136 126 23
136 125 21
141 132 28
144 135 28
137 125 26
147 137 38
140 132 25
142 133 32
138 126 30
139 129 26
146 136 41
144 135 21
147 136 32
140 129 34
142 131 29
145 134 36
148 137 34
147 135 39
150 139 48
146 137 38
148 138 31
143 133 43
145 137 30
139 128 31
148 138 40
148 138 42
140 129 36
144 133 37
151 141 34
151 137 45
143 132 35
148 137 39
144 134 36
145 134 37
142 129 42
145 134 40
147 135 48
151 138 42
143 130 40
148 136 39
152 141 49
143 132 43
148 136 50
149 137 44
150 140 41
144 132 42
148 138 40
152 142 48
143 132 31
150 139 42
149 137 47
147 132 44
150 139 40
144 133 36
151 139 47
147 133 42
149 137 44
149 137 44
147 135 47
147 137 43
145 131 48
146 135 41
150 137 47
152 140 46
144 132 41
176 198 0
172 195 36
174 197 0
173 197 0
172 196 0
172 196 0
171 194 0
175 198 25
171 195 0
172 195 0
172 195 0
174 197 36
174 197 0
173 196 0
171 195 0
173 196 0
171 194 0
172 195 0
172 195 0
173 196 0
174 197 0
171 195 0
176 198 0
175 198 0
173 196 0
172 195 0
173 196 0
175 198 0
174 197 0
171 194 0
171 194 0
170 192 0
169 192 0
175 197 0
173 196 0
174 196 25
173 195 51
173 195 62
180 202 99
177 198 57
176 198 67
178 200 76
179 201 88
179 200 88
179 201 84
181 202 102
177 198 72
178 200 80
178 200 80
174 196 67
176 198 80
179 200 92
177 199 88
179 201 88
179 199 108
182 202 102
178 198 95
178 199 105
176 197 105
181 201 114
181 202 102
179 199 95
178 199 99
176 196 92
182 202 117
174 195 105
182 202 102
176 197 80
179 200 92
175 196 84
176 196 95
180 200 105
176 197 99
172 192 108
179 199 95
177 198 111
175 195 88
173 193 92
183 203 117
172 193 108
175 196 92
170 191 99
175 195 76
167 188 76
169 191 80
171 192 57
169 191 88
170 191 67
165 186 57
174 194 102
170 192 67
169 190 51
173 194 92
164 184 80
170 192 57
162 183 51
158 180 0
162 183 0
161 181 0
163 184 0
156 177 0
164 186 0
156 177 0
159 181 0
159 181 0
155 176 0
156 176 0
164 184 0
151 172 0
163 185 0
156 176 0
163 183 25
160 180 0
157 178 25
160 181 0
157 178 25
155 176 0
164 185 51
162 183 44
158 180 44
166 188 44
166 186 84
161 183 25
166 186 0
160 181 0
158 179 0
161 184 0
162 183 0
167 188 0
155 176 0
153 174 0
165 187 0
151 172 0
149 171 0
155 176 0
160 183 0
150 171 0
158 180 0
146 168 0
154 175 0
155 177 0
155 177 0
156 177 0
155 177 0
157 178 0
147 170 0
152 173 0
152 174 0
154 175 0
144 164 0
142 164 0
141 163 0
147 169 0
148 170 0
149 170 0
142 164 0
139 160 0
151 172 0
132 153 0
130 151 0
138 159 0
132 153 0
127 148 0
128 149 0
133 152 0
133 152 0
120 139 0
111 131 0
120 140 0
116 136 0
124 143 0
118 138 0
117 134 0
115 133 0
84 104 44
75 98 62
48 77 76
47 75 60
48 77 67
49 78 72
50 80 65
50 80 65
47 75 62
52 82 92
49 78 74
49 78 70
49 78 72
52 82 82
49 79 70
51 82 72
52 82 74
53 84 92
52 82 88
49 79 78
52 82 80
54 85 100
51 81 76
48 77 78
52 82 88
52 83 78
52 83 92
50 80 82
51 82 86
51 81 76
48 77 76
48 77 78
53 83 92
51 81 74
50 79 80
50 79 78
49 77 85
49 78 54
45 72 54
51 81 83
49 77 82
47 74 74
47 74 65
51 81 78
47 75 68
48 75 79
46 72 51
45 69 70
43 67 51
40 64 47
44 65 65
81 96 47
112 123 0
102 114 0
98 109 0
97 108 0
97 108 0
101 114 0
103 114 0
113 125 0
114 129 0
114 128 0
116 131 0
115 126 0
96 106 0
112 121 0
111 122 0
123 137 0
112 124 0
127 138 0
126 138 0
113 121 0
127 140 0
123 135 0
127 139 0
121 134 0
126 137 0
126 136 0
130 140 0
131 143 0
122 130 0
140 152 0
132 143 0
127 136 0
132 144 0
135 146 0
124 134 0
131 140 0
130 138 0
127 137 0
135 141 0
128 134 0
132 141 0
131 138 0
135 141 0
132 139 0
128 133 0
133 139 0
127 130 0
133 137 0
140 145 0
132 134 0
131 133 0
131 134 11
121 113 21
109 87 21
119 100 13
112 93 19
117 98 24
117 100 25
109 95 8
113 95 11
104 91 9
106 92 6
117 101 8
109 93 2
110 97 12
114 102 11
108 96 2
118 104 8
119 103 10
113 99 4
116 105 8
107 94 3
111 101 9
122 111 5
118 108 9
133 120 9
116 105 7
115 105 4
125 115 2
126 114 12
126 114 9
131 120 3
130 119 13
123 111 12
127 115 11
129 120 2
131 119 13
124 114 5
124 112 2
131 120 5
125 114 2
132 120 12
128 118 12
128 120 1
128 118 16
133 122 20
130 120 16
127 115 5
136 128 22
133 122 23
134 123 21
131 120 18
131 120 23
136 126 16
130 121 17
133 121 20
136 125 23
136 127 18
140 130 26
132 124 22
129 119 16
144 135 23
134 124 13
134 124 23
143 132 30
146 135 30
139 129 26
145 136 28
136 126 20
141 131 29
139 129 26
144 133 35
147 135 38
143 134 37
140 130 25
138 127 29
146 137 32
142 131 30
147 135 37
144 133 28
143 129 41
141 131 27
139 126 26
140 129 25
140 130 34
144 133 34
146 137 38
149 136 45
150 141 38
142 131 37
151 140 37
144 133 41
147 135 38
144 131 38
144 135 36
149 139 40
150 139 40
150 138 40
146 133 45
150 138 39
154 143 49
146 135 42
147 137 40
148 135 38
150 139 44
142 131 27
147 136 40
146 134 42
143 132 29
144 133 34
148 137 38
143 130 41
147 134 37
141 129 40
146 135 39
150 139 43
145 132 45
149 137 40
147 137 36
143 130 41
149 135 44
150 137 48
147 134 45
144 128 43
174 197 0
174 197 0
171 195 0
169 193 0
174 197 0
175 197 0
174 197 0
171 195 0
174 197 25
171 195 0
173 196 0
174 197 0
172 196 25
171 195 0
174 197 0
171 194 0
170 193 0
169 191 0
174 198 0
172 195 0
174 197 0
173 196 0
173 195 0
173 195 0
174 197 0
172 195 0
174 196 0
173 196 25
169 192 0
171 193 0
171 195 0
167 189 0
174 196 0
172 195 0
170 193 0
173 195 0
169 192 0
170 193 0
168 191 0
171 194 36
171 193 36
175 197 67
173 194 72
173 195 67
173 196 44
178 200 92
177 198 76
172 194 80
176 199 80
174 197 95
178 199 88
175 196 62
174 196 72
171 193 84
174 196 76
175 197 76
175 197 57
177 198 76
175 196 67
172 194 51
176 197 72
175 196 72
182 202 102
178 198 84
174 197 84
170 192 72
174 195 76
173 195 84
171 193 88
177 199 95
178 198 84
179 199 84
173 194 84
176 196 84
175 196 67
167 189 62
173 193 72
174 195 76
168 190 44
166 187 57
169 190 72
168 189 67
170 190 67
175 196 84
174 196 88
174 196 44
170 191 62
172 193 62
172 192 72
165 186 57
168 190 67
169 190 36
159 181 25
161 182 0
153 174 0
163 183 0
164 186 0
157 179 0
169 190 0
158 179 0
164 186 0
159 180 0
161 182 0
154 175 0
158 179 0
161 182 0
160 179 0
161 182 0
159 180 25
159 179 0
161 181 0
159 179 0
157 178 0
157 179 25
155 175 0
162 182 25
160 181 36
165 187 44
162 184 44
168 188 84
174 193 72
162 183 0
161 184 0
162 182 0
161 182 0
153 174 0
157 179 0
153 175 0
156 178 0
155 177 0
161 183 0
162 183 0
154 175 0
150 171 0
153 175 0
153 175 0
153 174 0
151 172 0
149 170 0
159 180 0
150 171 0
141 162 0
147 169 0
156 178 0
147 168 0
148 169 0
145 166 0
148 170 0
153 175 0
143 164 0
135 157 0
141 162 0
144 166 0
145 166 0
146 168 0
146 167 0
140 161 0
141 161 0
129 149 0
136 157 0
149 169 0
136 156 0
133 153 0
124 143 0
134 153 0
123 143 0
124 143 0
113 132 0
123 142 0
119 138 0
114 133 0
116 134 0
110 128 0
114 131 0
109 126 0
107 125 0
82 101 36
58 81 60
47 75 82
46 75 62
50 79 80
50 79 70
49 78 78
46 73 62
49 79 62
49 78 80
48 77 67
50 80 82
48 78 65
49 78 67
48 77 60
49 78 67
51 81 86
49 78 72
47 76 72
50 79 82
50 79 81
47 74 62
50 79 84
50 80 78
50 79 74
48 76 77
50 78 80
51 80 86
47 75 70
50 80 80
48 76 67
51 80 80
50 78 70
50 78 80
47 75 63
46 73 72
48 76 84
46 73 67
47 75 70
45 72 54
50 78 84
45 71 70
44 69 60
50 78 81
43 68 57
46 72 66
45 70 54
67 79 26
79 92 0
107 119 0
99 108 0
101 110 0
100 113 0
96 109 0
100 111 0
107 121 0
100 113 0
107 120 0
113 122 0
111 124 0
111 123 0
99 110 0
121 133 0
109 120 0
120 133 0
123 135 0
116 130 0
126 135 0
124 136 0
116 129 0
125 137 0
125 136 0
125 136 0
129 141 0
125 137 0
134 148 0
122 133 0
122 132 0
123 131 0
122 130 0
118 124 0
123 134 0
122 129 0
133 140 0
131 140 0
135 145 0
131 140 0
127 132 0
127 131 0
132 139 0
122 129 0
129 139 0
133 136 0
128 131 0
134 139 0
128 134 0
136 139 0
128 130 0
125 124 0
131 132 0
128 131 0
131 134 0
123 126 0
129 129 4
118 101 31
113 96 15
115 97 16
113 89 17
111 94 18
110 94 11
110 91 9
106 90 12
121 104 14
117 102 9
103 90 11
109 93 14
109 93 2
114 100 7
112 98 9
114 99 5
113 98 10
116 102 8
125 112 9
117 103 6
122 110 9
122 111 6
124 111 2
121 109 9
125 111 6
113 97 4
125 112 6
117 106 3
121 109 10
123 114 2
130 120 12
123 111 8
129 117 14
132 119 14
135 125 6
122 109 7
129 119 3
130 116 11
129 119 5
131 122 13
132 119 5
134 123 11
128 117 1
127 117 14
133 121 6
132 120 2
127 117 12
131 118 17
135 126 5
139 128 12
133 124 5
135 125 16
138 128 24
140 130 25
128 118 23
143 131 16
145 134 24
137 125 17
135 122 17
139 131 20
143 134 32
141 131 23
145 133 28
137 125 16
137 124 26
147 137 35
137 127 30
140 129 28
140 126 27
135 124 20
140 129 26
141 130 29
143 129 37
137 126 27
144 132 39
136 121 31
148 139 38
148 137 41
143 132 33
146 135 37
139 124 31
147 136 34
136 125 31
145 133 37
149 137 38
143 133 36
143 135 30
148 137 42
142 132 36
141 128 41
151 140 48
138 126 36
146 135 41
151 141 46
144 132 26
150 139 43
144 133 39
149 135 43
143 130 42
145 135 35
147 133 46
150 139 42
149 137 42
143 133 38
146 134 41
142 130 36
148 136 46
150 138 43
145 131 48
145 132 47
144 133 34
151 137 45
142 124 44
148 136 46
147 136 44
143 129 39
154 141 57
149 137 46
147 135 44
143 130 40
171 195 0
174 198 0
174 197 25
173 195 0
174 197 0
169 193 0
174 198 0
172 195 0
172 196 0
174 197 25
173 195 0
170 194 0
170 193 0
171 195 0
172 195 0
172 196 0
173 196 0
175 198 0
169 193 0
170 193 0
173 196 0
172 196 0
173 196 0
173 196 0
172 195 0
171 195 0
172 195 0
170 193 0
171 194 0
173 195 0
173 196 0
170 193 0
173 195 0
169 191 0
168 190 0
173 196 0
173 196 0
172 195 0
168 191 0
173 194 0
170 192 0
170 193 0
171 193 0
174 196 36
171 194 57
175 198 62
172 194 44
169 191 62
179 201 76
176 197 72
175 197 72
178 199 76
176 197 76
178 200 84
175 197 67
180 201 72
178 199 99
173 195 88
174 195 72
175 197 62
177 198 88
175 196 76
175 196 57
176 197 67
174 196 76
179 200 95
176 197 67
174 196 80
172 193 84
177 199 84
175 196 57
176 197 84
175 196 84
170 191 62
173 194 76
174 195 80
176 197 92
171 191 84
172 193 80
173 193 84
174 195 80
172 193 57
177 198 95
168 190 67
171 192 72
169 189 76
167 189 44
168 189 51
156 177 0
165 187 36
163 184 0
154 174 0
163 184 0
159 180 0
160 181 0
160 181 0
167 189 0
162 183 0
161 182 0
155 176 0
157 179 0
163 184 0
161 183 0
155 176 0
158 178 0
155 176 25
160 182 0
166 186 0
158 179 25
162 183 0
158 178 25
161 183 0
167 188 25
166 187 0
161 182 25
164 185 44
163 185 51
171 191 62
166 187 57
166 188 0
157 179 0
165 186 0
158 180 0
165 186 0
158 180 0
161 183 0
166 188 0
146 168 0
157 179 0
157 178 0
161 182 0
155 177 0
155 176 0
151 172 0
160 182 0
155 177 0
151 172 0
155 176 0
150 171 0
155 177 0
154 175 0
149 171 0
149 168 0
146 167 0
152 174 0
145 167 0
155 177 0
153 174 0
153 174 0
141 162 0
141 162 0
146 167 0
141 162 0
136 156 0
146 166 0
129 148 0
138 158 0
154 176 0
142 163 0
139 160 0
128 148 0
138 158 0
132 152 0
124 143 0
127 147 0
123 142 0
127 146 0
122 142 0
117 136 0
111 129 0
121 138 0
120 138 0
119 137 0
108 124 0
116 134 0
94 108 0
109 126 0
100 117 18
88 106 31
57 80 57
49 77 78
46 74 57
47 76 70
47 75 70
47 75 65
45 73 76
47 75 74
48 77 70
47 76 67
47 75 76
47 75 78
49 78 84
51 81 86
51 81 80
47 75 62
47 75 62
51 81 78
47 75 76
46 73 70
49 78 74
49 77 74
45 72 54
49 78 80
51 80 76
47 75 90
48 77 74
47 75 62
48 76 65
47 74 67
45 73 65
47 75 60
48 76 72
45 72 72
45 71 60
45 72 70
49 77 79
45 71 57
44 69 67
46 72 60
42 67 65
40 62 51
60 72 31
90 99 0
89 102 0
71 79 0
83 93 0
98 109 0
112 123 0
100 113 0
100 109 0
99 110 0
101 113 0
99 110 0
100 112 0
101 111 0
98 110 0
112 125 0
112 123 0
119 129 0
119 132 0
116 129 0
116 131 0
128 141 0
122 135 0
115 125 0
124 136 0
115 127 0
114 124 0
116 128 0
126 135 0
127 139 0
125 133 0
118 129 0
125 136 0
122 130 0
126 135 0
126 134 0
131 142 0
116 126 0
121 130 0
120 129 0
130 138 0
119 127 0
122 126 0
123 128 0
118 123 0
126 130 0
128 137 0
121 128 0
130 132 0
119 121 0
133 138 0
125 128 0
130 132 0
124 126 0
122 123 0
125 125 0
128 127 0
125 123 0
125 124 0
120 121 2
114 107 14
103 82 20
112 93 17
113 94 14
106 88 10
109 93 14
117 100 14
122 107 15
109 93 11
114 97 10
105 85 8
113 97 9
116 100 13
116 105 8
115 100 11
116 102 6
120 104 9
112 97 7
111 96 4
119 105 5
117 103 4
117 105 6
123 108 9
122 108 6
121 110 3
121 108 7
123 109 5
116 106 5
115 103 2
126 112 7
125 113 3
129 118 5
123 110 6
126 115 12
123 111 7
130 119 12
134 122 1
129 117 13
127 116 14
134 125 20
137 128 21
130 122 12
130 120 3
125 114 7
128 116 16
138 127 8
136 127 19
139 127 20
130 119 5
133 121 11
136 126 23
133 122 23
134 125 13
130 118 26
139 129 23
135 124 23
140 129 26
136 125 17
138 128 17
138 126 15
140 131 16
144 133 28
142 133 20
137 127 24
142 132 27
133 120 31
141 129 29
140 127 32
140 131 32
142 131 39
145 133 32
137 127 17
140 129 38
141 129 28
143 132 32
141 130 41
139 125 26
142 132 31
145 134 33
141 128 34
142 132 28
144 135 36
145 131 38
148 137 40
143 133 31
142 130 38
138 124 26
144 132 36
141 130 30
149 138 43
145 131 35
146 134 40
146 136 36
146 136 43
141 127 37
147 133 48
143 129 32
152 141 40
151 142 46
148 138 35
144 131 38
146 135 33
143 132 33
147 134 45
148 133 43
143 129 49
148 135 47
146 133 42
145 135 37
148 137 43
149 136 45
149 138 40
144 132 32
143 130 42
139 124 40
143 131 39
150 138 53
147 134 44
136 123 38
175 198 44
172 196 0
172 196 0
172 196 0
172 195 0
171 194 25
173 196 0
174 198 25
170 194 0
173 196 0
173 197 0
171 195 0
172 194 0
174 197 25
173 195 0
175 197 25
174 197 0
172 196 0
170 193 0
171 194 0
174 197 0
171 194 0
172 194 0
171 194 0
171 194 0
172 194 0
173 194 0
174 197 0
171 194 0
174 196 0
173 195 0
171 194 0
169 191 0
174 196 0
169 192 0
173 196 0
171 193 0
169 191 0
167 190 0
172 195 0
173 196 0
169 191 0
172 195 0
171 193 0
172 194 0
172 194 0
171 193 0
173 195 0
169 192 0
174 196 44
172 194 57
176 198 57
176 197 72
172 193 67
175 197 67
179 200 95
174 196 67
174 195 67
175 196 62
171 193 67
173 195 76
175 197 76
177 199 67
171 192 51
175 196 95
173 195 62
176 197 62
179 199 88
178 199 88
169 190 57
173 193 57
176 197 84
174 195 72
171 193 62
171 193 57
175 196 62
174 196 84
172 193 62
176 197 80
165 187 51
166 186 51
175 196 51
163 184 44
163 186 25
164 186 0
160 181 0
159 179 0
161 183 0
160 182 0
164 184 0
164 186 0
160 182 0
159 180 0
165 186 0
164 186 0
165 186 0
166 187 0
158 180 0
164 185 0
167 188 0
166 187 0
158 180 0
157 178 0
158 179 25
162 184 0
155 176 0
162 183 0
165 186 0
163 183 0
161 183 25
162 183 0
162 183 25
164 185 25
168 189 44
165 186 36
162 183 51
165 187 67
164 185 44
163 184 0
161 183 0
156 178 0
160 180 0
155 176 0
159 180 0
160 181 0
152 173 0
157 179 0
160 181 0
155 177 0
148 169 0
160 182 0
149 170 0
165 187 0
156 178 0
155 177 0
152 174 0
153 174 0
151 172 0
154 176 0
148 170 0
143 164 0
140 162 0
155 176 0
155 178 0
145 166 0
147 168 0
151 172 0
151 173 0
152 174 0
145 165 0
147 168 0
150 171 0
147 168 0
143 164 0
144 165 0
140 161 0
136 157 0
136 157 0
139 160 0
135 155 0
132 151 0
130 150 0
139 159 0
130 148 0
123 142 0
118 138 0
130 150 0
120 138 0
112 130 0
123 141 0
117 135 0
116 134 0
112 129 0
118 135 0
112 130 0
93 110 0
95 111 0
105 121 0
92 107 0
80 94 0
80 96 36
60 81 36
47 73 57
43 69 60
46 72 76
47 75 82
46 74 72
47 75 62
46 73 62
49 78 74
48 77 62
47 75 74
47 75 72
48 76 74
46 73 65
49 78 74
48 77 60
43 69 57
47 75 57
47 75 74
50 79 82
44 70 68
48 77 67
47 74 78
46 73 65
45 73 57
49 78 74
48 76 70
44 70 44
44 71 67
44 70 57
44 70 70
44 71 57
45 71 70
43 68 67
42 66 60
42 67 57
40 64 57
58 75 32
82 92 25
77 85 0
68 76 0
88 98 0
90 99 0
93 104 0
91 102 0
107 120 0
95 106 0
87 98 0
102 113 0
107 118 0
99 111 0
98 107 0
103 115 0
105 118 0
115 129 0
117 130 0
116 127 0
111 122 0
112 122 0
110 121 0
107 118 0
107 116 0
118 127 0
115 126 0
123 135 0
115 124 0
113 123 0
125 137 0
122 129 0
121 128 0
123 133 0
124 133 0
130 141 0
116 124 0
118 127 0
126 134 0
122 131 0
129 138 0
130 141 0
121 128 0
129 138 0
112 117 0
122 128 0
125 130 0
124 130 0
128 137 0
127 134 0
136 142 0
123 125 0
121 125 0
123 124 0
127 131 0
127 130 0
122 122 0
121 122 0
127 125 0
125 124 0
125 127 0
123 123 0
118 116 0
123 121 0
124 122 5
117 101 21
100 79 16
112 89 15
109 91 6
104 84 14
106 88 14
113 94 9
112 96 9
117 99 8
116 99 6
105 87 5
124 107 8
120 107 5
113 101 3
115 101 2
116 105 3
119 104 9
117 106 3
119 103 9
119 102 8
119 107 3
121 110 4
119 107 9
120 108 5
127 113 5
121 109 3
119 108 5
124 112 9
128 117 5
121 109 8
130 119 3
129 118 6
130 115 14
123 112 3
127 117 5
128 115 7
123 111 3
118 107 7
132 119 13
132 122 0
132 121 12
129 118 3
129 118 12
129 119 11
129 117 11
136 126 16
137 124 15
130 117 22
138 126 20
141 131 29
135 124 22
135 123 18
132 121 22
139 130 23
134 121 24
134 122 16
138 130 20
138 128 25
138 129 21
137 126 32
141 130 28
140 128 18
138 126 26
142 132 35
149 138 32
144 132 24
138 127 24
138 125 24
143 132 39
147 137 28
140 129 23
142 131 32
140 128 28
143 131 33
140 129 21
138 127 31
139 128 26
146 135 38
144 133 35
139 128 22
146 133 29
141 131 30
144 131 33
143 131 34
138 126 30
142 131 37
150 138 43
142 133 36
143 131 36
142 129 38
143 132 33
139 128 33
139 127 34
143 128 40
145 132 33
141 130 29
147 135 47
142 130 27
145 132 35
143 129 39
150 137 45
146 133 39
146 132 46
145 134 47
142 131 30
147 135 37
150 136 46
143 128 45
143 134 38
147 134 42
140 125 34
139 128 32
146 134 42
135 120 34
144 130 44
144 132 43
143 132 45
179 201 57
177 199 25
174 198 25
173 196 0
175 198 25
173 196 0
171 195 0
174 197 0
171 194 0
172 194 0
173 196 0
174 197 0
174 197 0
169 192 0
171 195 0
174 197 0
175 198 0
172 195 0
173 195 25
174 197 25
174 197 0
175 197 0
172 195 0
172 194 0
174 197 0
170 193 0
173 195 0
170 192 0
173 197 0
173 195 0
170 192 0
173 196 0
175 197 0
170 194 0
168 191 0
171 194 0
172 194 0
173 196 0
171 195 0
174 196 0
174 196 0
170 193 0
171 193 0
172 194 0
169 191 0
171 192 0
171 194 0
173 195 0
172 194 0
165 188 0
171 192 0
169 191 0
168 190 0
173 195 0
170 193 0
171 193 25
175 197 0
170 192 25
173 195 57
171 193 36
171 194 36
166 187 36
172 193 57
171 193 76
174 195 57
172 193 72
172 194 44
174 195 67
172 194 51
174 195 51
172 193 57
168 190 57
164 186 44
170 192 25
166 188 0
168 190 36
166 187 0
166 187 0
167 189 0
166 188 0
167 188 0
165 187 0
164 185 0
168 189 0
160 181 0
163 184 0
171 193 0
161 182 0
165 185 0
163 184 0
165 186 0
166 188 0
165 188 0
167 188 0
164 185 0
163 184 0
162 184 0
157 178 0
161 182 0
160 180 0
158 178 0
160 181 0
162 183 0
163 184 0
160 181 0
162 183 0
165 187 0
164 184 0
160 181 0
166 186 25
165 185 36
166 186 25
165 185 36
165 187 36
167 187 51
161 181 62
163 184 0
164 184 0
156 177 0
163 185 0
158 179 0
164 185 0
154 175 0
160 181 0
165 186 0
155 176 0
164 185 0
152 173 0
159 180 0
152 174 0
148 169 0
147 169 0
153 174 0
149 170 0
158 180 0
147 169 0
153 174 0
157 178 0
156 178 0
151 173 0
148 170 0
145 166 0
155 176 0
152 173 0
147 168 0
143 165 0
147 169 0
144 166 0
144 164 0
144 166 0
144 165 0
148 169 0
137 158 0
140 161 0
145 165 0
131 151 0
131 151 0
127 147 0
138 159 0
126 147 0
129 149 0
130 150 0
135 154 0
128 148 0
129 148 0
127 146 0
120 138 0
127 146 0
123 142 0
113 131 0
105 123 0
121 138 0
100 117 0
101 117 0
98 114 0
107 124 0
109 126 0
97 112 0
89 103 0
70 85 0
83 96 0
85 98 0
82 96 18
50 66 31
52 72 47
44 68 40
41 66 57
42 67 47
44 71 51
45 72 51
45 71 67
48 76 74
43 69 67
44 71 57
48 77 67
45 73 74
44 70 57
46 74 54
45 72 57
47 76 65
44 70 62
48 75 84
48 77 60
46 74 67
48 77 72
47 75 65
45 71 74
42 68 54
46 73 62
41 67 60
42 66 57
43 69 62
41 65 57
43 68 51
40 64 36
55 69 48
56 68 40
62 73 31
79 89 0
75 84 0
69 79 0
86 96 0
67 76 0
83 93 0
90 102 0
80 88 0
97 109 0
100 113 0
99 108 0
111 123 0
107 119 0
108 120 0
92 104 0
98 107 0
107 119 0
119 131 0
103 114 0
111 122 0
114 126 0
116 128 0
122 135 0
110 122 0
110 120 0
115 125 0
112 125 0
122 135 0
123 137 0
129 137 0
125 136 0
110 121 0
122 132 0
114 124 0
120 127 0
112 122 0
116 121 0
127 138 0
116 125 0
119 126 0
137 146 0
122 132 0
122 131 0
122 128 0
117 125 0
117 122 0
124 128 0
123 131 0
119 122 0
121 127 0
131 136 0
123 128 0
116 117 0
120 122 0
127 128 0
131 137 0
127 129 0
119 120 0
123 123 0
111 109 0
117 118 0
122 118 0
114 112 0
105 101 0
131 130 0
133 130 0
113 102 3
107 89 16
111 89 17
103 84 9
104 84 9
109 91 16
114 92 9
104 83 9
126 110 13
114 96 8
112 94 11
110 93 5
107 91 6
113 97 5
121 106 5
113 97 5
119 104 7
118 106 7
118 103 8
117 103 2
119 103 5
115 102 6
125 112 3
129 114 7
118 102 3
128 115 1
122 108 6
125 112 1
131 119 9
126 115 10
125 114 8
133 121 5
128 118 6
124 110 9
125 115 1
130 117 5
126 113 8
128 117 17
128 117 3
131 119 13
132 122 11
125 114 2
132 123 5
128 118 14
135 123 12
133 122 2
132 118 17
137 124 6
130 116 20
132 119 13
134 121 12
140 127 17
136 125 7
138 127 17
136 125 26
139 129 24
138 128 17
135 122 26
138 127 21
130 121 23
138 126 23
134 123 26
137 127 23
138 128 28
139 127 29
147 138 38
139 129 26
139 127 33
144 132 31
142 131 38
143 133 33
142 127 35
138 125 38
149 139 38
140 125 29
144 134 30
145 134 33
141 128 32
140 128 36
137 123 38
142 129 35
144 132 35
140 127 33
141 129 30
143 131 40
140 129 33
141 129 33
140 126 32
149 139 44
147 136 31
145 134 41
149 135 47
147 136 37
144 133 40
146 134 35
148 135 42
144 133 39
145 132 36
143 130 31
144 131 38
150 140 47
145 132 42
144 133 27
139 127 32
144 132 41
149 135 40
148 135 44
143 130 41
141 128 41
145 130 43
147 133 33
145 130 44
144 130 46
143 129 36
146 133 45
148 133 46
172 196 36
174 196 36
174 198 57
174 198 36
175 197 25
170 194 0
173 196 0
172 195 0
174 197 0
172 195 0
173 196 0
174 197 0
170 194 0
174 196 0
172 196 0
172 196 0
174 197 0
172 195 0
173 196 25
176 198 0
170 193 0
171 194 0
175 198 0
173 196 0
173 196 0
174 196 0
173 196 0
172 193 0
173 195 0
172 194 0
170 193 0
174 197 0
168 191 0
174 196 0
171 194 0
167 190 0
172 194 0
172 195 0
170 192 0
173 195 0
171 193 0
172 194 0
172 194 0
171 193 0
170 192 0
173 194 0
170 192 0
170 192 0
172 193 0
168 190 0
169 191 0
171 193 0
174 196 0
171 193 0
168 190 0
169 190 0
174 196 0
171 192 0
169 190 0
170 192 0
166 188 0
168 190 0
171 192 0
170 192 0
166 188 0
165 187 0
168 190 0
172 193 0
168 189 0
163 185 0
167 189 0
165 186 0
169 190 0
161 182 0
163 185 0
169 190 0
162 183 0
162 184 0
165 187 0
165 187 0
163 185 0
171 193 0
168 190 0
166 187 0
160 182 0
167 188 0
160 182 0
170 191 0
166 186 0
164 185 0
169 190 0
159 180 0
163 184 0
165 186 0
161 182 0
167 188 0
162 184 0
152 173 0
158 179 0
167 187 0
159 179 0
157 178 25
164 185 0
159 181 0
162 182 0
157 178 0
163 182 36
165 187 51
163 184 44
162 183 25
160 181 36
165 185 57
167 188 72
166 186 67
163 184 0
163 184 0
159 180 0
163 184 0
162 183 0
160 181 0
152 173 0
149 170 0
159 180 0
158 180 0
154 175 0
154 175 0
154 176 0
160 181 0
150 171 0
156 178 0
161 182 0
155 176 0
152 172 0
147 169 0
157 179 0
157 178 0
151 172 0
150 172 0
160 182 0
154 176 0
148 169 0
148 170 0
141 163 0
145 167 0
144 166 0
143 164 0
150 172 0
152 173 0
141 163 0
140 161 0
153 174 0
145 166 0
132 153 0
133 153 0
142 161 0
130 150 0
141 162 0
138 157 0
133 154 0
126 145 0
132 153 0
135 155 0
135 155 0
121 141 0
129 148 0
114 133 0
115 133 0
125 143 0
125 144 0
109 129 0
119 137 0
107 124 0
106 123 0
97 116 0
103 119 0
120 136 0
104 122 0
92 107 0
108 123 0
88 102 0
87 101 0
96 110 0
86 100 0
73 85 0
79 92 0
82 94 0
62 76 31
48 65 44
53 72 36
39 64 51
43 68 65
44 71 62
41 65 54
43 69 57
43 69 54
44 70 51
46 73 51
42 68 44
45 71 51
46 74 78
41 66 51
45 72 70
42 68 47
44 70 60
42 68 65
43 69 67
41 66 51
46 72 72
43 68 57
39 63 57
40 64 44
39 61 57
55 70 31
38 49 18
66 74 0
78 85 0
65 74 0
82 91 0
62 70 0
66 75 0
64 73 0
76 84 0
89 96 0
83 94 0
93 105 0
89 98 0
95 104 0
100 110 0
96 107 0
91 102 0
97 104 0
108 119 0
114 127 0
110 120 0
107 119 0
99 112 0
112 123 0
111 127 0
112 124 0
117 131 0
112 123 0
108 118 0
115 127 0
116 127 0
124 138 0
122 134 0
119 129 0
116 126 0
115 124 0
118 127 0
126 135 0
123 131 0
120 132 0
116 127 0
127 139 0
123 131 0
118 124 0
126 133 0
126 137 0
123 133 0
125 132 0
112 119 0
124 133 0
126 136 0
125 130 0
124 128 0
121 128 0
119 126 0
126 131 0
126 132 0
119 123 0
129 133 0
121 123 0
126 127 0
107 109 0
122 124 0
114 112 0
116 116 0
113 109 0
113 109 0
121 121 0
113 108 0
120 119 0
117 114 0
118 114 0
115 105 0
109 99 13
103 84 17
116 90 12
109 90 18
113 91 17
107 87 7
111 90 13
110 92 10
111 89 9
99 81 9
111 92 7
110 94 6
109 94 13
117 100 9
117 103 1
123 110 6
113 99 11
111 100 10
123 106 3
111 95 6
117 99 13
121 110 7
122 105 8
119 107 1
127 113 6
119 106 5
126 115 7
126 114 8
128 116 6
126 113 6
122 110 5
129 118 5
128 114 7
130 117 5
127 114 16
128 114 6
127 117 5
138 126 18
129 116 2
130 117 2
126 111 12
128 115 13
134 121 13
132 120 13
134 121 6
136 124 14
136 122 17
137 125 13
134 122 8
132 118 20
135 121 16
130 121 11
133 120 24
138 128 22
133 121 17
134 122 26
138 128 24
131 117 26
131 117 11
132 117 23
144 132 34
136 124 23
134 121 24
137 125 27
138 127 17
143 131 37
137 124 35
140 129 30
141 129 24
138 125 26
138 127 30
144 133 35
139 124 31
135 123 31
142 133 27
144 131 42
137 124 30
142 130 31
145 132 37
140 127 31
138 122 29
142 127 40
138 125 31
141 128 30
142 129 36
135 120 22
144 131 42
135 123 25
146 135 45
147 135 37
142 131 29
147 133 40
147 134 40
144 131 42
149 138 42
140 126 42
139 124 40
142 127 31
142 129 40
144 134 37
141 128 35
148 133 42
140 126 37
145 134 39
145 130 46
147 136 43
141 128 36
140 129 33
149 135 41
147 135 35
144 131 46
144 131 38
147 133 36
138 126 46
175 198 57
174 197 36
172 196 25
174 197 36
177 200 76
175 198 44
174 197 51
172 195 0
171 194 0
173 196 0
171 195 0
173 196 0
174 196 0
170 193 0
173 196 0
171 195 0
169 192 0
171 194 0
175 197 0
172 195 0
172 194 0
171 193 0
173 196 0
172 195 0
172 195 0
171 194 25
174 197 0
168 191 0
172 194 0
170 194 0
172 195 0
172 195 0
172 194 0
173 195 0
172 194 0
171 194 0
172 195 0
175 196 0
172 194 0
171 193 0
171 193 0
171 194 0
165 187 0
175 196 0
169 191 0
171 193 0
172 193 0
169 191 0
170 192 0
170 191 0
168 190 0
173 195 0
173 195 0
171 194 0
173 194 0
167 188 0
170 192 0
169 191 0
166 188 0
172 193 0
173 194 0
168 190 0
167 188 0
167 188 0
171 191 0
169 190 0
167 189 0
168 190 0
161 183 0
170 191 0
170 191 0
163 184 0
168 188 0
171 191 0
172 193 0
163 184 0
168 189 0
165 187 0
164 186 0
165 186 0
164 185 0
164 185 0
163 185 0
163 184 0
162 182 0
166 187 0
161 182 0
162 183 0
164 185 0
170 191 0
163 183 0
160 181 0
168 189 0
161 183 0
163 184 0
160 181 0
166 187 0
162 182 0
163 185 25
161 183 0
158 179 0
158 179 0
163 184 0
163 184 0
158 179 0
161 182 36
164 184 44
158 179 44
168 189 36
160 181 25
166 188 51
153 175 44
162 182 25
168 189 0
163 184 0
154 176 0
157 177 0
159 179 0
151 172 0
154 175 0
157 177 0
157 178 0
159 179 0
158 179 0
154 176 0
159 180 0
158 180 0
155 178 0
155 176 0
150 172 0
158 178 0
149 171 0
159 181 0
148 169 0
152 174 0
148 170 0
151 171 0
147 169 0
147 168 0
152 173 0
157 178 0
143 164 0
143 164 0
137 159 0
146 167 0
153 174 0
146 166 0
145 167 0
137 158 0
146 167 0
130 151 0
139 160 0
143 163 0
141 162 0
139 160 0
138 158 0
124 144 0
125 145 0
140 161 0
134 154 0
119 139 0
138 157 0
124 143 0
120 139 0
124 144 0
127 146 0
114 133 0
117 135 0
125 144 0
119 137 0
119 137 0
116 133 0
114 132 0
110 127 0
112 130 0
101 117 0
106 123 0
92 108 0
97 114 0
89 104 0
90 105 0
81 97 0
73 87 0
92 107 0
75 87 0
67 80 0
80 91 0
78 90 0
59 70 0
72 82 0
64 76 25
50 65 25
48 64 36
36 58 47
40 60 47
37 60 44
42 65 44
39 64 36
42 67 57
38 61 40
40 65 51
39 62 44
39 63 44
40 62 51
41 62 51
41 62 51
47 66 54
41 58 40
47 62 47
52 62 0
53 61 0
76 85 0
60 67 0
59 68 0
71 78 0
61 70 0
88 98 0
66 72 0
69 79 0
73 82 0
67 76 0
80 89 0
84 97 0
82 92 0
89 100 0
89 101 0
91 102 0
102 113 0
105 117 0
88 96 0
103 115 0
103 114 0
97 108 0
107 118 0
103 114 0
103 112 0
101 116 0
122 134 0
105 117 0
114 123 0
120 131 0
113 124 0
111 123 0
104 117 0
117 131 0
105 117 0
130 142 0
127 143 0
120 130 0
126 136 0
122 132 0
118 126 0
128 138 0
115 123 0
116 128 0
113 119 0
118 128 0
115 123 0
126 135 0
120 129 0
129 133 0
121 126 0
125 132 0
123 129 0
117 121 0
120 129 0
119 126 0
123 127 0
114 121 0
119 123 0
133 140 0
118 123 0
121 122 0
112 113 0
122 124 0
111 110 0
127 131 0
113 112 0
117 117 0
121 121 0
122 120 0
114 113 0
117 115 0
117 115 0
115 109 0
98 90 0
110 103 0
112 104 5
107 93 12
107 85 16
96 76 10
114 93 19
104 84 11
109 91 8
110 94 7
123 103 14
113 96 8
110 94 9
118 102 13
115 99 10
103 84 7
115 96 8
118 103 5
115 97 7
124 108 10
117 103 6
118 103 9
121 107 7
119 102 9
121 110 5
108 92 3
124 110 4
121 107 4
121 106 9
115 101 7
120 103 7
128 115 7
129 116 5
132 117 4
117 103 2
127 113 0
125 111 9
131 115 12
126 114 6
125 112 4
130 121 7
132 118 5
125 113 3
133 120 17
140 128 18
129 115 16
131 117 8
126 112 4
133 120 23
133 121 23
135 122 12
130 118 4
133 122 12
133 122 19
139 125 21
143 131 18
134 121 25
137 126 18
133 119 17
139 128 18
143 131 30
142 130 23
140 128 26
135 120 26
142 130 36
140 128 29
137 124 25
138 126 22
141 133 20
142 130 31
144 131 34
136 123 26
139 125 29
141 131 29
132 121 25
143 132 29
139 127 31
138 124 25
139 128 26
136 124 26
146 135 30
144 129 32
139 125 24
145 133 32
147 135 34
144 130 34
144 132 46
141 128 31
137 122 28
143 128 34
142 130 34
141 130 33
137 123 17
149 138 43
143 130 38
141 129 41
142 129 40
146 132 37
149 133 40
142 128 35
137 123 33
141 128 33
145 129 35
140 126 42
147 132 44
139 125 34
143 128 43
140 126 36
147 136 34
147 135 48
143 129 38
141 129 42
146 132 46
147 134 51
141 127 36
174 197 51
176 199 44
175 198 57
175 198 51
175 198 25
175 198 57
175 198 44
174 197 36
174 197 51
174 197 25
176 198 0
171 194 0
174 197 0
172 195 0
173 196 0
171 194 0
176 199 0
173 196 0
172 194 0
174 196 0
172 195 0
171 194 0
175 197 0
170 193 25
171 195 0
171 194 0
171 193 0
172 194 0
169 192 0
171 193 0
170 193 0
172 195 0
173 195 0
176 198 0
173 195 0
171 193 0
174 196 0
174 196 0
173 195 0
173 196 0
169 191 0
173 194 0
173 195 0
169 191 0
170 193 0
176 197 0
174 197 0
174 195 0
173 195 0
172 194 0
172 194 0
174 196 0
173 194 0
168 189 0
170 192 0
172 195 25
171 193 0
171 193 0
167 188 0
164 186 0
172 194 25
172 193 0
169 190 0
173 194 0
170 192 0
170 191 0
169 191 0
163 185 0
168 189 25
170 192 0
164 185 0
168 188 0
167 189 0
170 191 0
170 192 0
163 183 0
169 190 0
170 191 0
170 191 0
167 188 0
166 186 0
166 186 0
169 189 0
165 185 0
160 181 0
168 189 0
165 186 0
163 185 0
161 182 0
168 188 0
163 185 0
166 186 0
163 185 0
163 183 0
162 183 0
161 182 0
164 186 0
167 188 0
167 188 25
160 181 25
170 191 25
162 182 0
167 188 25
165 187 36
166 186 36
165 185 36
168 188 51
166 187 51
173 193 88
172 193 84
163 183 25
164 185 0
168 190 0
165 186 0
158 178 0
164 185 0
159 180 0
151 172 0
161 182 0
165 186 0
155 176 0
153 175 0
156 177 0
153 173 0
158 179 0
153 173 0
149 170 0
159 181 0
151 173 0
150 172 0
137 158 0
149 170 0
148 169 0
150 171 0
150 171 0
152 174 0
149 169 0
148 169 0
148 170 0
146 167 0
142 163 0
146 167 0
146 167 0
147 169 0
153 175 0
152 174 0
146 167 0
138 159 0
148 169 0
138 159 0
141 162 0
146 166 0
144 166 0
139 160 0
133 154 0
133 154 0
137 159 0
133 154 0
140 161 0
129 149 0
127 147 0
118 136 0
124 143 0
127 146 0
135 153 0
126 145 0
118 138 0
118 137 0
119 135 0
120 138 0
126 143 0
113 130 0
113 131 0
105 122 0
115 131 0
118 135 0
112 128 0
112 129 0
108 123 0
86 100 0
95 111 0
80 94 0
89 104 0
86 99 0
80 95 0
72 83 0
90 103 0
82 94 0
71 83 0
63 74 0
63 73 0
58 69 0
68 77 0
59 67 0
64 74 0
68 78 0
46 54 0
54 64 0
41 50 0
61 68 0
51 60 25
45 54 0
54 61 0
51 59 0
71 80 0
44 52 0
57 66 0
67 75 0
62 72 0
60 69 0
63 72 0
59 69 0
73 83 0
90 100 0
85 95 0
85 94 0
90 100 0
84 93 0
74 85 0
68 78 0
80 89 0
82 93 0
71 84 0
86 96 0
82 95 0
100 111 0
93 101 0
113 125 0
101 112 0
100 111 0
97 107 0
112 125 0
112 125 0
105 119 0
109 123 0
103 114 0
111 122 0
118 129 0
114 123 0
102 114 0
111 121 0
122 135 0
121 131 0
106 113 0
112 120 0
114 125 0
114 125 0
122 132 0
120 131 0
114 124 0
124 135 0
108 120 0
109 117 0
115 126 0
124 132 0
125 135 0
117 125 0
117 124 0
122 131 0
117 129 0
118 126 0
132 140 0
116 123 0
124 132 0
123 127 0
123 130 0
132 140 0
119 126 0
126 132 0
119 120 0
118 125 0
116 117 0
120 127 0
115 119 0
114 119 0
125 130 0
129 134 0
106 106 0
118 122 0
113 111 0
113 110 0
114 113 0
121 120 0
122 117 0
109 107 0
100 91 0
100 92 0
110 103 0
103 97 0
111 103 5
112 98 13
111 89 21
113 90 16
117 95 20
108 86 12
115 94 12
96 75 9
118 97 12
107 91 8
114 98 12
118 98 11
116 98 8
127 106 8
112 95 8
124 107 10
122 107 4
113 97 9
117 102 8
116 102 3
123 107 8
122 107 6
122 109 6
123 111 8
126 113 8
105 93 1
128 114 9
125 110 6
120 108 9
123 108 6
124 110 5
128 116 6
124 112 12
122 106 17
125 112 11
123 110 6
130 118 11
132 119 11
136 122 13
131 119 19
128 116 16
131 117 13
128 114 12
135 122 2
132 119 3
129 115 12
131 121 20
135 123 18
138 127 13
133 119 11
131 120 17
136 124 24
133 119 12
133 119 21
130 118 16
132 117 17
138 128 18
131 116 22
138 125 20
132 122 21
136 124 18
147 135 29
136 122 18
139 127 20
136 122 18
142 126 27
141 130 26
137 124 28
139 125 26
140 126 28
143 130 38
132 118 17
137 125 18
138 128 23
143 133 27
138 125 28
137 126 28
141 129 31
143 130 37
141 127 28
139 125 28
144 131 29
143 130 37
148 134 42
142 128 36
143 129 38
147 133 52
145 134 39
146 134 32
138 126 24
141 128 32
146 134 35
140 128 36
134 121 29
143 129 34
144 129 43
143 130 33
136 123 39
146 134 43
145 132 42
146 132 36
149 137 47
143 130 38
143 128 36
143 128 37
141 126 33
141 128 36
142 127 35
146 130 38
143 128 42
133 118 32
175 198 51
174 197 44
174 198 44
172 195 44
174 197 44
176 198 44
175 198 51
177 200 51
173 196 36
177 199 67
176 199 36
170 194 25
169 193 0
173 196 25
175 198 0
171 193 0
170 193 0
173 196 25
175 197 0
175 197 0
170 194 25
173 196 0
172 194 0
171 194 0
170 193 0
174 196 0
172 195 0
172 195 0
174 197 0
171 194 0
171 194 25
172 195 0
171 193 0
175 197 0
169 192 0
174 196 0
172 194 0
173 195 0
174 195 0
172 195 0
174 196 0
167 189 0
169 191 0
172 194 0
169 192 0
171 193 0
173 195 0
173 195 0
173 195 0
172 194 0
169 191 0
173 195 0
164 185 0
165 186 0
167 189 0
173 195 0
170 192 0
168 189 0
167 189 0
171 193 0
168 189 0
171 192 0
172 193 0
174 195 0
169 190 0
169 191 0
168 190 0
170 192 0
167 188 0
172 192 0
166 187 0
171 192 0
167 188 0
167 188 0
166 187 0
169 190 0
165 186 0
165 186 0
164 186 0
170 191 0
170 191 0
167 188 0
166 188 0
161 182 0
163 183 0
166 187 0
169 191 0
168 189 0
164 185 0
166 187 0
169 188 0
165 186 0
162 182 0
166 186 0
161 182 0
162 182 0
162 183 0
167 188 0
162 183 0
166 186 25
163 185 36
163 183 0
163 182 36
166 186 0
165 185 36
167 188 44
173 193 88
168 188 51
159 181 25
161 183 0
165 186 0
156 177 0
163 184 0
157 179 0
157 177 0
161 182 0
165 186 0
150 172 0
160 180 0
158 180 0
153 174 0
157 177 0
161 182 0
153 174 0
158 180 0
150 171 0
153 175 0
153 174 0
153 174 0
147 169 0
155 176 0
149 171 0
156 178 0
152 172 0
146 167 0
146 167 0
146 168 0
153 174 0
147 169 0
142 163 0
149 170 0
147 169 0
152 174 0
143 164 0
152 173 0
150 170 0
146 167 0
144 165 0
143 162 0
148 170 0
130 150 0
150 170 0
137 159 0
141 163 0
148 169 0
133 153 0
137 157 0
135 156 0
132 153 0
136 157 0
143 163 0
130 151 0
118 137 0
123 143 0
122 141 0
121 140 0
131 149 0
124 143 0
118 136 0
115 132 0
118 135 0
108 127 0
116 134 0
107 124 0
123 139 0
111 127 0
108 125 0
96 113 0
87 103 0
95 111 0
101 115 0
85 98 0
87 102 0
80 94 0
75 90 0
92 105 0
84 98 0
80 93 0
79 92 0
77 89 0
70 83 0
80 91 0
78 88 0
59 68 0
64 75 0
80 90 0
71 81 0
42 52 0
64 74 0
52 60 0
50 59 0
67 76 0
66 76 0
73 83 0
69 79 0
52 62 0
55 63 0
53 61 0
62 71 0
78 87 0
81 91 0
58 68 0
68 78 0
99 110 0
69 78 0
80 91 0
66 75 0
74 86 0
90 102 0
80 90 0
88 99 0
79 89 0
83 93 0
91 102 0
89 101 0
92 102 0
92 103 0
88 100 0
93 104 0
92 106 0
99 107 0
111 123 0
97 110 0
106 117 0
114 126 0
93 101 0
100 111 0
101 112 0
135 147 0
108 117 0
118 130 0
110 122 0
113 125 0
121 132 0
119 130 0
113 123 0
122 135 0
108 121 0
125 136 0
120 125 0
113 122 0
124 133 0
111 121 0
116 124 0
124 135 0
115 123 0
124 134 0
123 133 0
121 131 0
120 129 0
107 118 0
125 132 0
123 132 0
130 137 0
124 130 0
114 122 0
129 140 0
121 129 0
112 119 0
115 118 0
121 124 0
119 123 0
119 124 0
112 115 0
123 126 0
105 104 0
118 118 0
118 116 0
121 124 0
125 127 0
120 118 0
119 117 0
109 107 0
107 105 0
112 109 0
105 99 0
114 110 0
105 97 0
114 109 0
109 102 0
109 103 0
109 100 0
106 93 8
98 73 11
103 81 11
115 95 8
113 90 10
116 95 12
105 88 8
116 97 8
123 103 10
110 89 5
111 93 8
110 91 6
110 94 8
117 102 11
116 97 10
120 104 10
119 104 5
116 97 12
117 98 10
119 103 10
121 108 8
118 103 7
123 107 12
118 100 9
120 104 7
119 100 7
131 117 13
113 95 7
128 114 5
126 112 2
120 106 7
125 111 7
128 114 13
130 118 6
128 111 13
124 109 8
121 108 14
126 115 5
127 112 6
130 114 9
134 121 17
128 114 12
130 117 23
132 119 17
131 118 13
133 120 19
137 123 24
137 121 27
133 120 12
132 119 17
129 117 12
136 124 23
140 129 18
135 124 14
137 126 25
137 123 27
138 125 21
133 120 11
132 118 19
134 121 27
137 124 24
139 128 30
135 124 25
137 124 24
136 122 29
137 127 12
136 123 14
135 121 17
141 129 32
140 125 29
134 120 21
139 126 25
141 126 37
136 122 29
142 128 31
145 131 38
138 125 28
143 129 41
140 125 22
144 133 29
138 129 28
148 136 42
141 126 36
140 126 34
144 131 37
140 126 30
140 125 33
146 132 39
144 129 37
143 130 39
139 124 32
141 126 31
144 131 42
146 134 40
139 124 36
137 121 32
137 122 30
141 127 34
145 130 44
138 121 31
141 129 25
146 133 41
143 130 31
139 126 34
140 127 37
145 132 41
145 128 44
136 120 32
175 198 51
176 199 51
175 197 57
175 198 51
174 198 36
176 199 51
173 196 36
176 199 51
173 196 0
172 195 44
175 198 51
172 196 51
175 197 44
173 196 36
175 198 25
173 195 25
174 196 0
170 192 0
169 192 0
174 196 0
171 195 0
172 195 0
172 194 0
171 194 25
174 198 0
172 195 25
173 196 0
173 195 25
176 198 25
174 196 25
175 197 0
172 195 0
173 195 0
174 196 0
174 195 0
172 195 25
174 196 0
170 192 0
175 196 0
173 195 0
172 193 0
171 193 0
169 191 0
173 195 0
173 195 0
169 192 0
170 193 0
176 197 0
170 192 0
167 188 0
170 192 0
175 197 0
174 194 0
170 192 0
170 191 0
171 193 0
170 192 0
172 193 0
171 193 0
172 192 0
169 191 0
174 195 0
168 189 0
169 189 0
172 194 0
173 194 0
166 187 0
170 190 0
171 192 0
172 193 25
166 188 0
165 186 0
170 191 0
167 188 0
167 187 0
166 186 0
167 188 0
171 192 0
171 192 0
172 192 0
172 193 0
163 183 0
166 187 0
171 192 0
166 187 0
164 186 0
164 185 0
162 182 0
164 185 0
163 184 0
161 183 0
164 184 0
164 184 25
159 181 0
158 179 0
164 186 0
164 185 0
163 184 25
165 186 25
161 181 36
165 186 51
164 185 44
165 186 44
164 184 62
168 189 84
160 180 62
168 188 0
166 187 0
164 185 0
159 181 0
159 181 0
159 179 0
158 180 0
155 176 0
161 182 0
162 184 0
159 182 0
154 176 0
156 177 0
161 182 0
151 173 0
160 182 0
157 178 0
153 175 0
158 179 0
155 177 0
153 174 0
150 172 0
161 181 0
155 176 0
154 175 0
152 173 0
153 173 0
153 175 0
153 174 0
157 179 0
150 171 0
153 173 0
145 166 0
137 158 0
149 169 0
144 166 0
149 171 0
148 169 0
144 164 0
144 164 0
149 169 0
149 169 0
144 165 0
142 164 0
137 158 0
148 169 0
137 158 0
132 152 0
136 156 0
130 149 0
134 154 0
142 162 0
126 147 0
132 153 0
134 154 0
127 147 0
133 153 0
130 150 0
127 146 0
126 146 0
123 143 0
118 137 0
124 142 0
113 131 0
118 135 0
117 135 0
108 125 0
101 119 0
96 114 0
112 129 0
113 131 0
101 118 0
90 106 0
99 115 0
91 105 0
96 111 0
90 104 0
82 97 0
95 109 0
85 97 0
85 99 0
92 106 0
83 97 0
84 98 0
76 88 0
72 85 0
61 73 0
64 75 0
89 100 0
53 65 0
68 80 0
77 89 0
53 64 0
76 88 0
64 74 0
52 63 0
65 77 0
77 87 0
69 80 0
68 78 0
76 87 0
56 64 0
68 79 0
70 81 0
67 79 0
67 77 0
80 91 0
73 84 0
72 83 0
81 92 0
85 96 0
96 106 0
89 100 0
79 91 0
92 105 0
99 111 0
82 93 0
96 108 0
105 119 0
92 103 0
96 107 0
87 96 0
102 113 0
105 119 0
102 114 0
102 116 0
102 114 0
107 120 0
103 115 0
104 115 0
108 121 0
100 112 0
103 112 0
114 126 0
117 128 0
123 134 0
106 119 0
103 115 0
101 113 0
119 131 0
130 143 0
123 136 0
117 127 0
121 132 0
129 141 0
123 133 0
112 122 0
117 126 0
130 139 0
114 123 0
115 128 0
116 125 0
128 141 0
128 139 0
122 131 0
120 129 0
123 129 0
129 139 0
118 125 0
121 126 0
113 116 0
122 127 0
121 127 0
121 125 0
121 126 0
127 133 0
131 137 0
122 127 0
114 115 0
110 112 0
116 119 0
113 113 0
126 129 0
109 108 0
118 120 0
111 108 0
117 115 0
110 107 0
113 113 0
108 99 0
104 99 0
106 98 0
106 102 0
109 101 0
104 98 0
112 103 0
106 96 0
99 84 2
107 90 6
103 81 9
106 84 8
115 92 17
119 99 13
104 81 5
115 93 17
110 90 10
112 95 5
113 93 17
109 93 2
106 87 11
112 93 9
116 99 8
126 110 8
111 94 8
114 100 3
114 98 4
118 103 4
117 98 8
110 94 8
119 101 6
121 104 10
120 105 6
126 109 6
121 107 6
123 108 8
122 108 10
126 113 9
123 108 3
122 105 13
125 110 12
120 106 6
126 114 7
130 114 13
134 120 15
119 104 8
129 118 13
131 117 11
129 114 13
130 113 7
135 123 13
125 108 13
131 117 16
131 117 26
130 116 17
129 116 12
130 117 5
139 124 24
128 113 4
130 115 21
130 115 17
136 123 19
132 121 13
126 113 6
131 118 6
127 114 22
138 124 23
133 114 19
134 119 18
138 123 22
138 125 23
134 121 22
140 128 22
138 127 20
136 121 26
136 125 28
142 130 33
142 129 32
141 126 31
140 127 25
136 121 27
145 132 32
136 121 27
137 122 25
135 121 22
137 123 22
140 126 26
137 125 23
136 125 28
137 125 21
141 127 35
141 126 30
142 128 34
141 127 41
142 127 35
136 122 30
135 121 24
143 129 40
136 120 31
140 125 38
141 125 34
139 127 34
140 124 32
141 126 35
139 123 37
139 124 24
134 118 29
141 127 41
143 128 39
138 121 30
141 125 36
135 118 33
135 119 37
141 126 42
135 116 34
183 204 108
177 199 57
178 200 57
177 199 57
173 196 51
177 199 51
176 199 57
175 198 57
174 197 44
175 198 62
172 196 36
175 196 57
178 200 44
174 197 36
175 198 36
171 194 57
175 197 51
173 196 25
169 192 0
173 196 25
172 195 25
172 195 0
174 196 0
174 197 25
175 197 25
173 195 0
174 196 0
175 198 0
174 196 0
173 195 0
170 193 0
173 195 0
174 196 0
172 194 25
172 195 0
172 193 0
173 195 0
172 193 0
172 193 0
171 193 0
171 193 0
171 193 0
170 192 0
173 195 0
175 197 0
172 194 25
174 196 0
171 193 0
173 194 0
176 197 0
174 196 0
171 193 0
173 195 0
168 190 0
175 196 0
172 193 0
172 193 0
170 191 0
173 195 0
169 189 0
169 190 0
170 193 0
167 189 0
171 191 0
172 193 0
172 194 0
170 191 0
165 186 0
164 185 0
164 185 0
172 193 0
160 180 0
167 188 0
170 191 0
167 188 0
171 192 0
168 188 0
162 183 0
168 189 0
165 186 0
170 191 0
162 182 0
169 190 25
167 187 0
167 188 0
171 191 0
163 184 25
165 185 0
164 185 0
168 189 0
163 184 0
170 191 25
164 185 0
163 183 0
157 178 0
163 184 0
159 181 25
172 193 44
165 185 51
165 185 51
161 183 36
166 187 57
169 190 72
170 191 36
159 179 0
161 180 0
160 182 0
159 180 0
164 185 0
164 184 0
152 174 0
158 179 0
160 182 0
160 180 0
158 179 0
161 182 0
164 185 0
155 176 0
151 171 0
160 181 0
159 180 0
152 173 0
154 175 0
154 176 0
146 167 0
157 178 0
157 178 0
154 174 0
155 176 0
150 172 0
156 177 0
158 180 0
147 169 0
151 172 0
145 166 0
156 176 0
143 164 0
156 177 0
143 165 0
146 167 0
152 173 0
150 171 0
146 167 0
150 171 0
148 168 0
139 160 0
145 166 0
147 168 0
127 147 0
141 161 0
149 171 0
139 161 0
137 159 0
139 160 0
145 165 0
136 156 0
128 146 0
136 156 0
140 160 0
138 157 0
132 153 0
122 141 0
123 142 0
129 149 0
132 151 0
131 149 0
116 136 0
112 131 0
130 149 0
117 135 0
109 127 0
113 131 0
105 124 0
115 133 0
110 127 0
100 117 0
114 131 0
106 122 0
101 117 0
104 122 0
90 106 0
115 132 0
91 107 0
95 112 0
96 111 0
95 110 0
85 99 0
86 100 0
95 108 0
92 106 0
80 94 0
82 95 0
78 90 0
63 76 0
75 87 0
79 92 0
81 92 0
71 83 0
66 77 0
71 83 0
73 84 0
66 78 0
89 101 0
78 90 0
83 95 0
70 81 0
66 76 0
76 89 0
70 82 0
70 81 0
86 98 0
72 85 0
78 91 0
84 97 0
89 99 0
88 99 0
89 99 0
94 105 0
99 111 0
76 86 0
86 98 0
92 105 0
91 103 0
103 116 0
87 99 0
105 116 0
91 99 0
100 110 0
95 108 0
108 121 0
103 117 0
114 127 0
103 116 0
110 122 0
105 117 0
107 117 0
114 126 0
115 128 0
116 130 0
111 124 0
106 117 0
110 119 0
121 135 0
114 128 0
107 115 0
110 123 0
117 129 0
120 132 0
116 124 0
125 138 0
116 125 0
117 129 0
122 132 0
120 132 0
121 130 0
126 139 0
134 144 0
113 122 0
125 135 0
124 135 0
124 134 0
125 133 0
116 123 0
122 127 0
123 132 0
121 129 0
127 136 0
121 128 0
130 138 0
116 121 0
119 120 0
113 116 0
126 130 0
127 134 0
123 128 0
114 115 0
130 133 0
114 119 0
117 117 0
119 120 0
121 121 0
117 113 0
128 128 0
118 115 0
112 108 0
111 104 0
109 102 0
109 106 0
104 95 0
110 106 0
100 88 0
101 89 0
101 95 0
98 85 0
106 103 0
90 78 0
92 75 5
102 87 9
102 79 10
103 78 10
117 97 8
107 84 8
112 94 11
111 89 7
110 91 9
117 95 8
113 97 9
109 91 4
113 89 8
117 97 10
118 101 9
121 103 12
119 100 9
120 101 7
126 112 12
120 104 8
127 111 9
122 107 11
119 102 8
121 103 9
126 108 7
124 105 7
120 105 2
123 109 17
125 107 8
124 106 9
120 104 2
127 115 4
125 107 5
120 102 4
134 120 14
128 113 8
130 117 13
131 116 8
133 119 6
131 115 14
126 113 3
132 119 22
126 112 8
124 110 8
133 118 17
132 114 17
128 114 13
132 119 14
132 117 8
136 126 21
133 121 19
133 119 21
133 119 18
135 120 21
140 127 26
132 119 26
140 127 27
134 121 17
141 125 29
135 122 30
141 128 27
132 116 16
133 116 31
134 120 22
140 125 32
139 126 33
137 123 31
136 122 18
137 124 22
140 124 36
136 123 26
139 125 34
140 126 23
147 135 37
141 130 28
145 132 36
140 126 30
140 125 30
133 120 32
146 133 38
139 126 31
138 124 32
142 128 37
143 128 35
140 123 32
145 133 38
139 127 35
136 120 30
137 123 34
140 124 32
142 127 30
139 123 34
142 129 41
140 126 36
146 131 38
141 127 35
138 124 37
148 133 47
133 118 34
141 127 34
143 126 45
138 120 35
146 131 44
135 121 32
187 207 133
187 207 135
188 208 128
178 200 72
174 196 0
173 196 44
173 196 36
175 198 51
171 195 36
175 198 25
174 197 25
175 197 76
173 197 44
173 196 57
175 197 62
176 198 36
174 197 57
177 199 62
171 195 0
175 197 57
174 197 44
171 193 0
173 195 0
171 194 0
175 197 0
174 197 0
174 195 0
173 196 0
173 196 0
172 195 0
174 196 0
170 193 0
169 191 0
170 192 0
170 192 0
169 191 0
174 196 0
174 196 0
173 195 0
169 191 25
176 198 0
172 194 0
176 197 25
172 193 0
168 190 0
174 196 0
174 195 0
171 192 0
174 195 0
170 192 0
173 194 0
171 193 0
172 193 0
169 190 0
173 193 0
169 190 0
174 195 0
175 196 0
168 189 0
168 190 0
169 189 0
169 189 0
171 192 0
167 188 0
173 194 25
167 188 0
172 194 0
171 191 0
175 195 0
169 191 25
170 190 0
167 187 0
170 190 0
167 188 0
168 189 0
170 191 36
165 187 0
163 184 0
163 185 0
165 186 0
168 190 0
164 186 0
165 186 25
163 185 0
162 182 0
164 185 25
162 182 0
166 187 0
163 183 0
171 192 0
164 185 0
167 188 25
168 189 36
161 182 36
166 186 51
167 188 51
163 184 36
166 188 36
166 187 72
166 187 62
168 189 72
159 180 25
164 186 0
156 177 0
157 178 0
157 178 0
154 175 0
160 180 0
159 181 0
160 181 0
160 181 0
156 177 0
160 181 0
159 180 0
160 181 0
146 166 0
150 171 0
160 181 0
158 178 0
162 183 0
151 172 0
159 180 0
158 179 0
152 173 0
153 174 0
154 175 0
157 178 0
160 181 0
151 173 0
147 168 0
157 177 0
153 175 0
154 175 0
152 174 0
142 164 0
146 167 0
153 175 0
141 162 0
137 158 0
147 168 0
147 168 0
151 172 0
150 171 0
149 171 0
140 161 0
144 166 0
141 162 0
143 165 0
139 160 0
142 163 0
138 158 0
140 160 0
144 165 0
135 156 0
141 162 0
143 163 0
135 155 0
133 153 0
139 159 0
117 137 0
130 149 0
121 140 0
131 151 0
129 148 0
120 139 0
123 142 0
129 148 0
120 140 0
124 142 0
126 144 0
119 138 0
110 128 0
115 133 0
116 134 0
120 138 0
107 124 0
100 118 0
110 127 0
103 120 0
106 122 0
112 129 0
93 108 0
95 111 0
91 108 0
101 116 0
96 110 0
99 114 0
95 108 0
91 106 0
68 83 0
82 97 0
86 100 0
89 104 0
93 107 0
82 94 0
75 90 0
91 105 0
66 76 0
75 88 0
89 102 0
88 101 0
91 104 0
69 82 0
84 97 0
78 89 0
90 104 0
87 99 0
83 96 0
83 94 0
84 94 0
89 102 0
87 100 0
80 94 0
84 98 0
90 104 0
85 99 0
86 97 0
92 104 0
82 96 0
82 95 0
101 111 0
94 108 0
93 105 0
95 109 0
107 122 0
94 106 0
100 112 0
107 119 0
95 109 0
96 107 0
105 116 0
110 123 0
103 114 0
106 117 0
128 144 0
107 117 0
115 129 0
115 126 0
108 119 0
112 125 0
108 121 0
116 127 0
121 131 0
113 125 0
117 131 0
114 127 0
121 135 0
122 133 0
117 128 0
126 139 0
133 141 0
112 122 0
106 118 0
127 138 0
117 128 0
120 131 0
124 133 0
128 137 0
121 133 0
135 145 0
124 137 0
131 139 0
122 130 0
126 135 0
113 121 0
118 125 0
118 125 0
117 125 0
120 124 0
122 126 0
112 118 0
119 123 0
116 118 0
119 122 0
116 121 0
115 114 0
112 117 0
125 127 0
119 118 0
128 135 0
121 125 0
115 115 0
111 107 0
115 112 0
121 121 0
109 109 0
111 109 0
118 116 0
111 105 0
117 113 0
112 104 0
100 94 0
115 110 0
104 97 0
101 88 0
104 96 0
105 93 0
104 97 0
106 93 5
107 91 9
113 92 13
108 85 9
113 91 13
114 92 15
111 88 12
109 87 7
109 86 10
117 99 12
107 88 10
114 94 6
112 94 8
116 97 9
113 96 7
117 98 10
120 100 10
124 108 4
116 100 9
117 99 3
117 98 9
124 106 13
116 97 8
122 107 6
121 105 13
129 111 11
128 114 18
126 109 8
124 108 8
127 111 18
129 114 15
126 112 8
126 112 13
127 112 13
128 116 6
132 117 10
134 118 13
129 113 13
129 114 8
131 113 16
130 117 6
118 104 6
131 116 21
132 118 16
130 115 8
129 115 16
135 122 16
131 119 22
135 122 24
135 124 15
138 122 17
128 110 13
135 121 27
133 121 14
132 117 24
131 118 13
130 114 18
137 124 28
136 122 21
141 125 34
131 118 26
140 126 32
129 113 28
134 119 21
141 126 29
139 125 27
135 122 23
138 122 17
127 110 25
141 127 35
140 124 34
134 119 28
136 120 22
137 123 34
138 119 29
138 124 27
142 127 30
139 123 34
144 129 31
141 125 29
139 122 29
135 120 22
142 128 33
149 135 41
136 122 31
136 118 31
147 132 41
144 126 36
144 133 39
141 125 34
148 134 41
142 127 35
142 130 42
142 125 28
142 127 31
137 120 33
139 121 34
146 132 45
142 125 37
147 131 46
139 122 40
141 131 35
172 196 0
174 197 25
180 201 95
188 208 142
191 211 144
182 203 120
177 199 67
176 199 44
172 195 0
173 197 25
175 197 36
172 194 25
176 199 57
176 198 25
174 197 51
174 197 36
176 198 44
174 197 51
175 197 44
171 194 36
176 198 44
174 196 25
172 195 25
172 194 51
173 196 0
172 195 0
172 195 0
174 196 0
172 194 0
171 194 0
172 194 25
173 195 0
172 194 25
174 196 0
173 196 0
173 195 0
174 196 0
171 193 0
174 196 0
173 195 0
175 196 0
169 191 0
177 198 0
168 190 0
172 194 25
172 194 25
174 195 0
171 192 0
175 196 36
173 194 25
174 195 25
171 193 0
171 193 0
171 193 0
175 195 0
170 190 0
170 191 0
170 191 0
173 194 25
169 190 0
172 194 0
172 193 0
169 190 0
169 191 0
171 191 0
174 195 0
165 187 0
173 194 0
168 190 0
166 187 0
167 189 0
167 189 0
171 193 0
167 187 0
170 190 0
167 188 0
169 190 0
171 192 0
165 186 0
162 184 0
166 187 0
165 185 0
164 185 0
164 184 25
164 185 0
165 188 25
162 183 0
162 182 36
168 190 36
159 180 44
163 183 44
163 185 57
164 184 62
162 183 44
164 186 36
163 184 25
175 195 84
168 188 62
168 189 25
163 184 0
162 182 0
156 177 0
167 187 0
164 185 0
158 179 0
155 176 0
154 175 0
161 181 0
158 179 0
159 180 0
159 180 0
158 178 0
155 176 0
156 176 0
162 183 0
151 173 0
157 178 0
151 173 0
160 181 0
164 185 0
152 173 0
160 180 0
147 167 0
159 179 0
156 177 0
162 183 0
156 178 0
153 175 0
157 178 0
148 170 0
147 168 0
150 172 0
153 175 0
149 169 0
147 169 0
147 168 0
145 166 0
135 157 0
144 166 0
151 173 0
148 170 0
152 173 0
146 167 0
149 170 0
152 173 0
142 163 0
146 167 0
143 165 0
144 166 0
138 159 0
138 159 0
139 160 0
135 156 0
135 156 0
138 158 0
131 151 0
123 144 0
134 155 0
127 147 0
138 158 0
135 155 0
129 150 0
127 146 0
131 151 0
125 144 0
123 142 0
132 151 0
122 139 0
123 143 0
122 141 0
119 138 0
119 138 0
116 134 0
118 136 0
110 127 0
117 135 0
122 140 0
116 134 0
104 121 0
101 117 0
107 124 0
96 113 0
112 129 0
103 120 0
92 108 0
96 111 0
108 124 0
92 107 0
103 119 0
93 108 0
104 120 0
103 117 0
92 106 0
97 111 0
97 111 0
76 91 0
90 103 0
76 91 0
90 103 0
85 99 0
92 106 0
82 93 0
93 108 0
85 98 0
85 99 0
88 100 0
79 92 0
91 104 0
96 111 0
93 107 0
88 101 0
90 104 0
82 96 0
95 109 0
88 101 0
96 108 0
98 112 0
87 101 0
90 103 0
96 109 0
105 119 0
99 113 0
81 95 0
100 112 0
105 116 0
110 122 0
106 116 0
113 127 0
110 122 0
116 129 0
105 118 0
106 120 0
114 128 0
113 124 0
112 126 0
119 133 0
102 115 0
103 113 0
98 112 0
114 128 0
119 131 0
121 133 0
114 128 0
123 135 0
124 137 0
120 134 0
123 134 0
131 142 0
122 132 0
129 141 0
126 140 0
115 128 0
117 129 0
114 122 0
127 140 0
120 131 0
117 124 0
126 138 0
118 126 0
111 120 0
114 121 0
130 141 0
127 137 0
127 134 0
123 130 0
120 129 0
124 134 0
133 143 0
123 129 0
118 124 0
109 116 0
124 127 0
126 129 0
113 120 0
119 122 0
123 129 0
122 123 0
126 129 0
113 115 0
118 120 0
113 114 0
115 112 0
122 125 0
119 122 0
112 112 0
115 114 0
117 114 0
119 117 0
117 113 0
112 111 0
117 108 0
111 105 0
111 106 0
107 100 0
108 100 0
102 92 0
107 99 0
97 86 0
105 97 0
96 84 0
100 88 0
90 76 5
89 70 6
102 76 14
109 86 12
115 93 11
110 85 12
111 88 11
113 90 11
109 88 14
116 95 11
122 103 13
113 92 7
118 100 8
114 93 9
116 96 5
123 104 10
122 103 14
117 102 4
123 105 6
119 103 11
120 99 11
121 105 12
122 104 9
125 107 6
127 111 7
124 105 12
120 102 8
127 112 18
126 111 8
120 99 8
125 111 12
121 104 7
126 109 12
131 112 19
127 111 19
127 111 12
124 107 16
133 118 17
134 115 16
122 106 11
128 114 14
136 121 6
133 118 23
132 117 20
129 112 22
135 122 23
134 119 28
132 115 22
127 107 14
134 117 18
135 119 31
133 116 28
134 117 10
134 119 21
136 120 23
132 118 23
132 113 23
136 121 28
135 119 25
132 117 13
132 118 24
132 116 19
134 118 20
132 118 22
132 116 28
140 123 25
137 122 35
128 110 21
134 121 26
135 121 20
133 116 34
136 120 22
139 122 31
135 119 36
135 120 24
141 126 42
137 121 37
138 124 38
138 120 32
141 125 38
141 126 29
138 121 42
137 122 28
138 121 29
144 128 44
143 126 32
136 122 37
142 126 39
137 122 33
140 126 33
125 108 27
137 120 34
131 116 29
138 121 33
141 125 41
146 134 39
154 156 28
170 187 23
170 192 0
174 197 0
173 197 0
172 196 0
172 196 0
174 197 57
177 199 84
185 205 125
191 211 147
178 201 80
177 199 44
173 196 57
175 197 51
172 195 36
172 195 25
174 197 44
174 197 44
175 198 51
173 196 51
175 198 36
173 195 25
174 197 44
173 195 44
177 199 25
172 195 51
176 198 51
175 197 36
172 194 25
175 197 36
174 196 25
171 194 0
175 197 0
169 192 0
172 195 0
172 194 0
172 194 25
174 197 0
170 192 25
170 193 0
173 195 0
174 196 0
172 193 0
173 196 0
170 192 0
174 196 0
172 194 0
173 194 0
171 193 0
171 192 0
174 195 0
170 193 25
170 192 0
169 191 0
175 196 0
172 193 0
173 194 0
170 192 0
176 197 0
168 189 0
172 193 0
170 191 0
169 189 25
170 191 0
169 190 25
171 193 0
172 193 0
171 192 0
170 190 0
172 193 0
173 194 25
168 189 0
168 189 0
174 195 0
163 183 25
171 193 0
165 186 0
171 192 0
172 194 0
169 189 25
168 190 0
168 189 0
161 181 0
169 190 0
168 189 25
168 189 36
166 186 44
169 190 25
168 189 51
171 191 67
168 189 51
169 189 36
167 188 36
167 187 67
170 191 51
175 195 80
169 189 72
163 185 25
157 178 0
160 181 0
163 183 0
165 186 0
161 182 0
163 184 0
167 189 0
149 170 0
160 181 0
155 174 0
167 187 0
160 181 0
164 185 0
157 179 0
161 182 0
158 179 0
150 170 0
158 180 0
161 182 0
156 178 0
163 184 0
160 181 0
159 181 0
155 176 0
155 177 0
159 182 0
150 171 0
151 172 0
156 178 0
158 180 0
149 170 0
152 172 0
158 179 0
149 170 0
146 168 0
151 172 0
147 169 0
149 171 0
149 171 0
151 172 0
149 170 0
154 175 0
146 168 0
149 170 0
146 168 0
140 162 0
136 156 0
141 163 0
141 161 0
129 151 0
145 168 0
144 165 0
140 160 0
139 160 0
136 156 0
139 159 0
139 159 0
145 166 0
137 157 0
142 163 0
134 154 0
141 162 0
128 148 0
130 150 0
128 147 0
130 150 0
131 151 0
118 138 0
130 150 0
125 144 0
126 144 0
123 142 0
124 142 0
123 142 0
123 142 0
122 140 0
124 141 0
115 134 0
114 132 0
116 134 0
116 132 0
112 130 0
97 115 0
110 128 0
114 131 0
106 120 0
109 127 0
98 115 0
95 111 0
96 112 0
83 99 0
106 122 0
89 104 0
102 117 0
105 121 0
87 103 0
96 111 0
105 122 0
102 118 0
102 117 0
88 103 0
91 105 0
90 104 0
94 108 0
93 108 0
94 108 0
87 99 0
88 101 0
89 103 0
82 96 0
88 102 0
92 105 0
84 98 0
81 97 0
106 119 0
94 108 0
112 128 0
106 119 0
106 121 0
104 119 0
100 116 0
92 105 0
91 107 0
106 121 0
99 112 0
110 125 0
109 123 0
93 107 0
109 125 0
104 117 0
127 141 0
107 119 0
95 109 0
110 123 0
101 113 0
104 120 0
103 116 0
115 127 0
110 125 0
112 127 0
126 139 0
111 127 0
128 142 0
111 126 0
124 139 0
120 132 0
107 118 0
107 118 0
104 114 0
122 135 0
115 126 0
115 127 0
118 132 0
113 127 0
127 142 0
114 128 0
113 126 0
125 138 0
133 146 0
120 133 0
123 136 0
120 131 0
126 137 0
117 126 0
117 123 0
128 138 0
118 127 0
129 137 0
123 133 0
128 139 0
123 130 0
115 126 0
125 132 0
121 130 0
120 124 0
118 120 0
118 122 0
113 119 0
128 135 0
119 125 0
117 121 0
112 112 0
113 117 0
122 124 0
117 119 0
119 120 0
117 117 0
110 112 0
120 121 0
109 107 0
119 122 0
117 117 0
118 121 0
116 113 0
108 105 0
105 97 0
111 101 0
103 94 0
111 106 0
108 101 0
109 103 0
95 86 0
94 85 0
97 87 0
105 96 0
100 90 0
95 84 0
109 99 0
97 80 6
100 81 8
106 81 17
110 87 15
113 86 10
102 79 11
116 94 9
108 86 8
117 96 10
113 92 15
110 90 11
120 100 12
120 103 9
121 100 17
113 95 9
114 98 6
111 94 8
127 108 9
118 97 10
120 100 13
122 108 9
121 105 12
126 108 7
116 100 5
126 105 13
125 110 7
124 107 14
127 110 11
124 104 14
128 111 16
128 113 14
125 107 13
126 108 13
124 110 4
122 106 13
129 112 2
127 112 11
136 119 25
129 112 22
127 112 16
122 108 11
127 108 17
125 107 14
133 117 16
127 109 16
134 119 22
132 118 17
135 119 27
134 119 18
134 117 31
132 117 20
130 115 28
142 128 28
128 112 12
137 123 27
134 121 24
126 112 15
139 124 34
131 111 25
139 126 30
136 120 36
134 118 27
136 120 25
135 119 19
138 121 29
136 119 24
143 128 32
137 121 29
137 125 29
138 125 27
130 116 27
144 130 32
137 121 25
134 118 25
134 118 24
141 126 29
140 124 35
133 117 26
132 115 27
143 129 39
142 127 39
141 123 34
138 120 36
139 123 33
141 125 36
138 120 43
137 118 34
138 121 42
142 126 41
142 128 41
151 152 23
162 176 2
171 191 0
169 188 0
172 190 0
165 184 0
174 197 0
171 195 0
174 197 0
174 197 0
173 196 0
173 197 0
175 197 0
174 197 51
180 201 88
189 209 137
183 203 117
179 201 88
177 199 62
176 199 57
176 199 44
175 198 36
174 197 36
175 198 51
174 197 51
174 196 36
173 196 36
174 197 51
175 199 57
171 194 44
180 200 51
176 198 51
175 198 44
174 196 51
178 199 57
175 197 57
171 193 25
173 196 25
173 195 36
174 196 0
171 192 0
173 195 0
172 194 0
173 194 0
175 197 0
168 190 0
172 193 0
173 195 0
175 196 25
167 190 0
175 196 25
173 195 0
171 192 25
171 194 25
174 196 0
173 195 0
175 196 0
171 192 0
173 194 25
166 188 0
176 198 0
168 190 0
166 187 0
172 192 25
169 190 25
172 193 0
174 196 25
168 189 0
175 195 0
171 192 0
170 192 0
172 194 25
173 193 0
168 190 0
172 193 0
172 193 0
170 191 0
170 190 0
170 190 0
172 192 0
172 193 0
170 189 0
168 189 0
172 191 25
171 192 0
168 189 36
165 186 57
167 188 36
167 188 57
165 186 25
166 187 57
170 191 44
171 192 44
174 195 51
162 182 36
165 187 44
166 186 62
173 193 67
167 188 51
164 184 0
167 188 0
162 182 0
163 184 0
159 180 0
163 184 0
165 186 0
167 189 0
167 188 0
162 183 0
149 169 0
158 178 0
163 184 0
157 177 0
163 185 0
159 180 0
162 183 0
157 178 0
166 188 0
160 181 0
148 169 0
153 174 0
153 175 0
156 177 0
158 178 0
148 169 0
155 177 0
156 176 0
150 171 0
153 174 0
149 170 0
149 169 0
154 174 0
158 179 0
150 172 0
156 178 0
150 171 0
150 171 0
153 173 0
152 173 0
151 172 0
152 173 0
143 164 0
146 168 0
149 170 0
152 173 0
149 170 0
140 162 0
151 172 0
147 168 0
147 168 0
145 165 0
144 164 0
153 174 0
139 160 0
135 155 0
147 168 0
140 161 0
139 160 0
133 152 0
143 163 0
137 157 0
132 153 0
141 161 0
132 152 0
137 158 0
133 153 0
135 155 0
136 156 0
123 143 0
123 142 0
130 150 0
128 149 0
128 146 0
132 151 0
116 135 0
125 146 0
114 134 0
132 152 0
114 133 0
110 129 0
123 141 0
104 122 0
113 131 0
116 133 0
116 135 0
107 125 0
106 124 0
97 114 0
108 126 0
95 112 0
97 113 0
115 131 0
115 132 0
113 129 0
113 129 0
103 119 0
124 141 0
110 124 0
100 117 0
96 111 0
92 108 0
99 114 0
95 110 0
95 109 0
105 120 0
97 113 0
94 110 0
105 120 0
95 110 0
107 122 0
97 111 0
103 118 0
96 110 0
95 111 0
98 114 0
80 94 0
96 111 0
96 111 0
90 104 0
108 123 0
108 121 0
96 108 0
92 104 0
101 115 0
102 114 0
101 115 0
109 122 0
103 117 0
111 125 0
106 121 0
114 129 0
100 116 0
107 122 0
116 131 0
111 127 0
110 126 0
105 119 0
114 128 0
109 122 0
128 143 0
107 122 0
106 119 0
104 118 0
115 128 0
123 136 0
112 126 0
119 133 0
130 142 0
125 140 0
125 139 0
116 128 0
116 129 0
124 139 0
122 137 0
105 115 0
122 135 0
133 150 0
129 141 0
123 136 0
133 146 0
120 132 0
127 139 0
123 132 0
122 132 0
137 150 0
117 127 0
137 149 0
128 139 0
125 134 0
127 137 0
122 132 0
127 139 0
123 134 0
124 132 0
123 128 0
125 134 0
111 119 0
125 131 0
128 134 0
126 130 0
126 134 0
125 132 0
122 127 0
124 129 0
123 131 0
119 122 0
116 119 0
118 122 0
122 126 0
121 120 0
114 112 0
122 123 0
121 123 0
117 118 0
115 118 0
109 108 0
111 111 0
115 113 0
118 115 0
118 112 0
132 128 0
109 102 0
101 94 0
107 98 0
104 91 0
108 99 0
106 97 0
104 93 0
103 95 0
102 89 0
98 84 0
91 76 0
88 73 0
89 71 5
91 74 9
111 89 7
107 79 14
111 86 10
113 91 10
112 89 10
112 90 8
117 98 11
121 101 10
120 101 13
115 97 5
116 94 10
126 110 4
117 97 12
117 99 11
126 106 9
122 104 14
123 104 9
122 100 11
127 109 10
123 107 12
125 107 17
125 105 17
128 109 10
127 108 11
126 107 9
128 110 10
126 105 9
125 109 19
129 109 17
122 104 9
127 110 7
130 114 20
129 110 20
129 113 9
129 111 15
132 115 22
129 113 16
125 107 8
125 109 12
126 109 19
134 116 15
132 116 17
132 116 22
136 119 32
132 117 19
135 120 21
131 112 30
137 119 27
139 123 31
135 118 28
130 114 25
137 121 32
132 116 32
140 127 23
136 121 34
136 123 24
138 123 22
138 122 31
136 120 28
134 116 22
130 114 30
142 127 41
132 115 31
134 117 30
141 126 36
139 120 34
137 119 30
134 119 25
134 118 25
141 124 32
142 128 29
142 126 40
140 124 37
137 123 36
133 116 35
138 120 35
141 125 32
144 129 52
135 116 30
140 121 37
135 116 36
148 143 36
155 158 31
163 176 16
168 186 0
168 186 0
166 184 0
169 187 0
167 186 0
171 192 0
169 187 0
173 196 0
173 196 0
174 197 0
175 197 0
172 196 0
172 196 0
174 197 0
172 195 0
171 194 0
174 197 0
172 195 25
178 200 72
181 202 108
186 207 120
182 203 105
180 202 84
173 196 36
171 195 36
176 199 62
175 198 44
175 198 51
175 198 25
176 198 57
171 195 44
176 198 51
176 198 67
176 199 57
173 196 25
170 192 0
175 197 36
175 197 36
175 197 36
172 194 25
175 197 36
176 198 57
177 199 51
173 195 44
177 198 57
173 195 36
175 196 25
173 194 0
173 195 36
171 193 25
171 193 25
172 194 0
172 194 0
174 195 0
171 193 0
174 196 0
172 193 0
172 194 0
176 197 0
174 195 0
172 193 0
172 193 0
170 191 0
171 193 0
171 193 25
170 191 0
175 195 0
166 187 0
173 193 25
176 196 0
171 193 0
171 192 0
172 193 36
174 195 0
170 191 0
170 190 0
174 195 36
172 192 36
167 188 0
170 191 25
166 186 36
172 193 36
166 186 44
170 191 51
171 191 51
165 185 36
170 191 51
167 188 25
170 191 44
169 190 36
160 180 44
168 188 0
170 190 51
175 194 88
175 195 67
170 190 62
165 186 36
173 194 0
162 183 0
165 187 0
160 181 0
168 189 0
162 182 0
165 187 0
162 184 0
163 185 0
159 180 0
162 184 0
155 177 0
158 179 0
160 180 0
164 186 0
152 173 0
165 186 0
161 182 0
161 182 0
163 184 0
160 181 0
156 178 0
151 171 0
160 181 0
156 178 0
159 180 0
154 175 0
161 181 0
155 176 0
153 174 0
156 177 0
152 174 0
153 174 0
153 175 0
156 177 0
149 171 0
145 166 0
155 175 0
150 170 0
155 176 0
144 165 0
155 176 0
157 178 0
149 170 0
151 172 0
149 170 0
146 168 0
149 171 0
144 165 0
156 177 0
146 167 0
146 168 0
144 166 0
150 171 0
152 174 0
143 164 0
137 158 0
130 151 0
144 165 0
137 159 0
140 160 0
142 162 0
139 159 0
132 152 0
139 160 0
138 159 0
137 158 0
132 153 0
141 161 0
125 146 0
140 159 0
136 156 0
141 160 0
129 150 0
131 151 0
117 137 0
129 149 0
124 143 0
129 148 0
130 149 0
127 148 0
121 141 0
122 142 0
120 139 0
129 148 0
111 129 0
117 136 0
112 130 0
110 129 0
121 140 0
103 120 0
115 133 0
122 142 0
95 112 0
108 125 0
99 116 0
105 123 0
103 119 0
100 116 0
101 118 0
108 125 0
104 120 0
90 109 0
106 122 0
94 109 0
97 111 0
111 127 0
98 113 0
98 113 0
98 113 0
108 122 0
107 122 0
106 120 0
113 128 0
107 122 0
105 119 0
104 120 0
100 115 0
97 112 0
98 112 0
103 119 0
103 117 0
107 123 0
93 109 0
115 129 0
94 107 0
110 126 0
104 117 0
103 117 0
114 129 0
101 117 0
105 119 0
99 113 0
111 126 0
119 135 0
109 121 0
129 143 0
109 123 0
121 136 0
116 130 0
105 116 0
115 130 0
110 124 0
115 129 0
111 125 0
117 129 0
129 144 0
116 131 0
120 133 0
113 125 0
125 136 0
129 143 0
119 132 0
116 129 0
126 140 0
116 128 0
119 133 0
130 143 0
126 139 0
119 132 0
123 137 0
127 138 0
130 143 0
131 145 0
119 131 0
124 139 0
125 138 0
134 147 0
128 143 0
124 138 0
133 142 0
117 128 0
126 136 0
130 137 0
122 133 0
128 139 0
118 126 0
137 149 0
127 135 0
124 133 0
130 140 0
133 140 0
121 127 0
126 132 0
118 126 0
126 133 0
122 126 0
127 131 0
131 137 0
122 129 0
111 116 0
129 131 0
121 123 0
124 128 0
123 119 0
118 118 0
118 120 0
130 130 0
118 116 0
120 122 0
117 116 0
115 113 0
109 105 0
122 117 0
116 115 0
121 116 0
116 112 0
121 116 0
102 96 0
119 115 0
114 107 0
112 102 0
101 94 0
100 90 0
106 94 0
99 84 0
101 90 0
106 94 0
98 81 0
98 85 0
98 82 2
104 83 7
103 84 9
112 88 13
108 85 13
115 92 15
109 88 11
110 89 10
112 88 16
111 89 10
115 92 10
118 97 10
115 93 10
117 96 8
114 94 8
121 101 8
120 103 8
117 99 7
121 99 8
121 100 8
117 101 2
126 106 12
122 102 13
125 106 7
121 104 10
127 110 8
129 111 13
122 103 6
120 100 10
122 107 13
124 106 21
134 116 22
127 108 24
130 114 15
129 110 19
123 107 7
129 111 16
127 109 17
127 109 11
131 113 22
132 114 27
129 112 17
127 109 16
135 119 22
134 116 17
133 115 22
131 115 24
127 108 22
133 115 26
140 124 22
129 110 25
133 115 26
134 117 23
136 120 21
138 121 33
127 109 27
130 112 25
135 118 28
132 118 14
136 118 26
130 114 30
133 118 24
131 114 14
130 113 25
131 114 16
141 127 25
136 122 26
139 124 39
135 116 29
130 111 20
141 125 30
132 114 18
136 119 28
143 127 32
134 116 26
145 125 44
137 123 30
149 149 27
159 167 24
165 180 5
166 186 0
169 187 0
168 186 0
169 185 0
165 182 0
167 183 0
168 187 0
170 189 0
169 188 0
170 187 0
174 197 0
174 197 0
171 195 0
170 194 0
173 196 0
172 195 0
174 197 0
174 197 0
172 195 0
171 194 0
171 195 0
173 196 0
173 196 0
175 198 0
173 197 62
175 197 67
183 204 105
182 203 114
185 206 114
184 205 108
179 201 76
174 197 44
174 197 25
174 198 44
174 198 44
175 198 44
174 197 51
174 196 36
173 196 0
173 196 36
176 198 36
172 194 44
177 199 44
174 196 44
174 196 44
178 199 51
175 197 51
173 195 36
171 193 36
178 198 57
173 195 51
176 197 25
176 197 51
174 195 44
176 197 44
174 194 25
176 197 51
175 196 25
171 191 36
177 197 44
174 195 36
175 195 36
175 196 36
177 197 57
176 196 36
178 199 51
171 193 25
174 195 36
175 196 36
172 193 51
171 191 25
174 195 51
171 192 51
171 191 36
177 198 25
171 192 51
169 189 51
167 188 36
167 188 57
172 192 25
170 191 25
170 190 25
170 190 36
170 191 25
169 190 62
166 187 36
169 190 57
169 190 51
168 188 44
167 189 36
169 190 25
172 193 80
170 191 67
171 191 67
170 190 67
170 192 57
168 188 0
167 187 0
162 183 0
167 187 0
164 184 0
158 180 0
161 182 0
165 186 0
162 182 0
167 187 0
156 178 0
160 181 0
160 181 0
161 183 0
162 184 0
162 183 0
148 169 0
163 186 0
154 175 0
164 185 0
156 177 0
159 180 0
155 176 0
158 179 0
153 174 0
159 180 0
155 177 0
155 177 0
154 175 0
154 176 0
151 172 0
160 182 0
156 177 0
150 171 0
158 181 0
149 170 0
161 182 0
149 172 0
157 179 0
143 165 0
150 171 0
150 172 0
147 169 0
154 174 0
151 172 0
155 176 0
154 176 0
151 173 0
153 175 0
151 172 0
148 169 0
159 180 0
141 163 0
143 164 0
145 166 0
147 168 0
138 159 0
140 162 0
153 174 0
136 158 0
139 161 0
143 164 0
153 174 0
150 171 0
138 158 0
147 169 0
128 149 0
133 156 0
147 169 0
134 155 0
135 156 0
142 163 0
134 154 0
130 151 0
131 151 0
128 148 0
133 154 0
138 158 0
130 150 0
118 138 0
122 143 0
125 144 0
132 151 0
136 156 0
114 133 0
125 144 0
120 139 0
125 145 0
128 147 0
127 146 0
114 132 0
115 134 0
113 131 0
115 134 0
116 133 0
116 133 0
108 126 0
124 142 0
111 130 0
109 127 0
116 133 0
110 127 0
109 127 0
116 134 0
115 133 0
101 117 0
107 124 0
117 133 0
104 119 0
106 122 0
79 94 0
109 126 0
104 121 0
112 128 0
91 107 0
92 108 0
96 111 0
98 114 0
111 125 0
100 115 0
100 116 0
93 109 0
102 119 0
111 127 0
101 116 0
104 119 0
109 125 0
103 118 0
107 122 0
104 119 0
107 119 0
104 119 0
98 113 0
115 130 0
115 129 0
114 129 0
104 121 0
111 126 0
114 129 0
115 131 0
99 114 0
112 126 0
110 124 0
103 118 0
97 110 0
118 134 0
111 126 0
119 136 0
122 135 0
108 122 0
110 121 0
124 137 0
118 133 0
116 131 0
129 141 0
125 139 0
124 138 0
120 135 0
125 138 0
121 134 0
120 134 0
128 142 0
123 134 0
136 151 0
121 133 0
131 146 0
132 144 0
126 139 0
123 136 0
119 131 0
126 139 0
124 134 0
122 132 0
119 129 0
125 136 0
113 122 0
130 141 0
133 141 0
137 148 0
143 154 0
119 128 0
127 140 0
116 123 0
126 139 0
140 150 0
125 135 0
127 136 0
125 129 0
126 132 0
119 123 0
120 127 0
127 135 0
119 126 0
126 134 0
130 133 0
125 129 0
119 124 0
118 121 0
128 131 0
127 129 0
117 118 0
121 123 0
116 117 0
127 129 0
122 119 0
124 124 0
118 119 0
116 113 0
124 124 0
118 112 0
112 107 0
115 112 0
115 109 0
128 125 0
107 99 0
113 108 0
114 105 0
108 100 0
120 113 0
105 94 0
100 85 0
112 105 0
111 103 0
106 92 0
111 100 0
95 81 0
101 89 0
93 79 0
108 91 1
93 70 5
103 82 12
105 79 9
105 81 10
107 83 12
113 91 13
118 95 13
117 95 11
121 99 13
120 96 13
116 92 8
119 98 14
119 99 11
117 95 11
118 98 14
120 102 9
118 97 11
125 106 12
118 96 9
121 102 9
128 110 9
119 100 14
123 103 9
129 114 15
129 109 12
125 106 16
127 108 23
127 104 18
126 106 13
122 106 15
127 110 11
128 109 22
126 105 21
126 107 19
130 112 22
131 115 29
135 118 27
132 116 23
129 109 16
124 106 16
133 117 21
127 106 14
130 115 24
131 112 10
137 123 26
133 117 35
132 115 23
126 106 23
130 113 25
132 114 30
142 122 39
131 114 22
136 118 27
135 117 25
132 114 23
136 117 19
132 115 31
134 117 23
135 118 32
135 117 28
132 113 23
133 115 31
140 122 21
136 118 37
138 119 35
132 112 24
128 110 23
136 126 23
147 143 24
150 152 18
162 173 13
164 179 0
166 182 0
167 183 0
166 181 0
168 185 0
164 179 0
171 189 0
170 189 0
172 190 0
167 183 0
166 182 0
171 188 0
166 184 0
167 184 0
172 195 0
173 196 0
174 197 0
172 194 0
173 197 0
173 197 0
171 194 0
171 194 0
172 196 0
170 194 0
172 195 0
174 197 0
172 195 0
173 197 0
172 195 0
173 196 0
176 199 0
172 195 0
176 198 25
176 198 67
178 199 102
180 201 99
182 203 105
181 202 92
179 200 99
177 199 57
175 198 25
172 194 36
173 195 36
176 198 67
174 196 36
172 194 51
175 198 51
175 197 67
173 195 44
178 199 62
172 194 25
173 195 44
171 193 25
176 197 44
175 197 25
174 195 44
176 198 57
171 193 44
176 198 57
176 197 57
175 196 44
170 192 44
175 196 25
175 196 36
170 192 36
177 197 0
176 197 36
176 197 44
177 197 25
176 197 25
173 194 0
170 192 57
176 197 57
175 195 57
171 191 36
175 196 51
180 200 72
173 194 25
172 192 25
172 193 25
169 191 44
170 192 25
162 183 0
168 189 25
172 192 36
170 191 36
168 189 44
171 192 25
168 189 51
169 190 25
175 195 92
174 193 72
169 191 51
170 190 57
165 186 44
170 191 25
166 187 0
164 186 0
168 189 0
161 182 0
163 184 0
166 186 0
162 183 0
171 191 0
165 186 0
164 184 0
162 183 0
171 192 0
162 183 0
162 183 0
167 188 0
166 187 0
167 188 0
167 188 0
158 179 0
165 186 0
165 186 0
161 181 0
164 184 0
154 175 0
156 177 0
156 177 0
157 178 0
156 178 0
154 174 0
158 180 0
156 178 0
160 182 0
151 173 0
153 174 0
150 171 0
161 183 0
159 181 0
151 173 0
163 185 0
153 174 0
147 169 0
156 177 0
155 176 0
158 179 0
146 167 0
158 179 0
156 178 0
151 173 0
159 180 0
151 173 0
146 167 0
154 176 0
147 169 0
150 172 0
155 178 0
144 165 0
148 169 0
154 177 0
140 162 0
148 170 0
144 165 0
151 173 0
157 179 0
147 169 0
138 160 0
144 165 0
148 169 0
142 163 0
145 166 0
142 163 0
142 163 0
144 165 0
140 160 0
137 157 0
142 163 0
134 154 0
132 152 0
137 157 0
139 159 0
133 153 0
145 165 0
139 161 0
138 159 0
135 155 0
136 156 0
137 156 0
124 143 0
120 139 0
126 145 0
127 147 0
125 144 0
120 140 0
133 153 0
121 139 0
120 140 0
123 142 0
115 133 0
119 137 0
113 132 0
119 138 0
109 128 0
118 137 0
113 132 0
114 131 0
109 127 0
102 120 0
108 126 0
115 132 0
113 129 0
101 118 0
123 140 0
114 131 0
94 109 0
109 127 0
109 126 0
114 130 0
99 114 0
114 130 0
105 121 0
116 135 0
99 116 0
108 124 0
101 116 0
94 107 0
105 119 0
121 136 0
104 120 0
112 128 0
117 132 0
107 121 0
106 122 0
103 120 0
111 127 0
112 130 0
112 129 0
100 117 0
108 123 0
104 119 0
110 124 0
103 115 0
118 133 0
114 127 0
109 125 0
114 128 0
116 130 0
118 135 0
122 136 0
117 131 0
126 142 0
115 129 0
98 113 0
127 141 0
125 138 0
111 126 0
117 133 0
120 136 0
114 130 0
133 146 0
114 126 0
117 127 0
113 127 0
128 143 0
127 141 0
119 136 0
128 144 0
136 149 0
127 140 0
135 149 0
121 133 0
133 147 0
130 144 0
113 126 0
124 138 0
118 131 0
131 143 0
115 121 0
130 144 0
134 146 0
130 143 0
130 144 0
119 131 0
135 149 0
132 144 0
132 140 0
126 137 0
121 131 0
129 138 0
124 135 0
132 140 0
125 134 0
127 137 0
122 131 0
126 135 0
130 135 0
123 130 0
124 128 0
130 135 0
124 130 0
130 138 0
117 124 0
119 123 0
127 133 0
126 128 0
125 132 0
133 139 0
116 118 0
126 128 0
122 125 0
125 126 0
126 128 0
115 116 0
117 116 0
109 107 0
129 125 0
121 116 0
120 118 0
121 118 0
125 123 0
119 115 0
116 108 0
118 112 0
118 111 0
115 107 0
117 112 0
116 107 0
116 111 0
110 103 0
98 87 0
101 87 0
102 89 0
111 100 0
112 104 0
101 89 0
106 93 0
96 81 0
101 86 0
101 87 2
102 87 5
112 93 11
110 88 10
110 86 11
116 92 12
116 91 16
114 91 13
114 91 11
121 99 18
119 97 14
122 101 9
115 97 13
121 100 14
123 103 14
126 107 10
124 103 20
124 105 18
118 97 9
124 104 14
124 104 21
125 107 15
130 111 20
118 99 8
129 110 12
120 100 11
124 104 21
122 104 9
123 106 15
131 110 24
125 103 18
122 101 17
127 110 27
132 115 22
125 106 18
129 114 21
131 114 18
129 110 28
136 119 34
133 117 23
131 115 19
132 113 25
129 112 23
130 112 24
132 113 32
135 119 25
129 110 25
131 112 33
130 115 22
130 111 21
134 114 34
132 114 38
132 115 31
133 116 24
138 121 35
133 114 22
132 115 27
133 113 28
137 120 31
140 125 35
139 130 27
152 155 22
160 165 24
161 172 17
165 178 0
164 178 0
164 178 0
165 180 0
166 181 0
163 179 0
165 181 0
167 183 0
168 186 0
172 190 0
168 184 0
166 183 0
168 185 0
167 185 0
166 185 0
168 187 0
170 188 0
170 186 0
171 194 0
171 195 0
175 197 0
173 196 0
173 196 0
175 197 0
173 197 0
171 195 0
174 197 0
172 195 0
170 194 0
173 196 0
175 198 0
173 195 0
173 195 0
172 195 0
169 192 0
174 197 0
174 196 0
176 198 0
170 194 0
174 196 0
171 193 0
171 195 0
178 200 62
185 206 102
182 203 95
177 198 84
182 203 105
178 199 92
178 200 67
177 199 92
175 197 51
174 197 44
172 195 36
174 196 44
174 196 36
177 198 44
175 197 25
175 197 44
177 198 44
175 197 36
174 195 44
176 198 57
175 197 44
173 194 44
174 196 36
173 194 44
175 196 44
174 195 36
174 196 25
170 191 36
175 196 51
175 195 36
168 190 44
172 193 62
168 189 44
177 197 51
175 196 44
172 194 0
176 197 57
173 194 36
173 193 51
175 196 36
175 195 51
173 194 36
171 191 25
169 189 0
174 195 0
171 192 36
176 196 67
175 195 67
172 193 84
176 197 67
179 199 95
172 192 62
168 189 36
168 189 0
169 190 0
170 191 0
172 192 0
167 187 0
164 185 0
171 192 0
163 183 0
163 183 0
166 188 0
168 188 0
163 185 0
168 189 0
169 189 0
169 189 0
161 182 0
162 183 0
165 186 0
165 186 0
161 182 0
167 188 0
159 180 0
165 186 0
166 186 0
160 182 0
156 177 0
163 184 0
157 178 0
161 181 0
165 186 0
158 180 0
147 170 0
159 180 0
159 180 0
160 181 0
156 176 0
156 178 0
153 175 0
167 188 0
159 181 0
159 180 0
151 173 0
150 172 0
145 167 0
148 169 0
151 172 0
155 178 0
154 175 0
150 172 0
150 171 0
153 175 0
150 173 0
154 176 0
154 176 0
143 165 0
142 163 0
158 180 0
151 172 0
151 173 0
146 167 0
144 165 0
148 170 0
139 160 0
149 171 0
136 157 0
143 164 0
149 171 0
145 165 0
141 161 0
147 168 0
151 173 0
147 168 0
147 169 0
136 158 0
133 154 0
144 165 0
140 162 0
140 159 0
142 162 0
132 153 0
140 159 0
144 166 0
142 162 0
132 152 0
141 162 0
138 159 0
130 150 0
139 159 0
131 152 0
131 150 0
138 159 0
128 148 0
140 159 0
123 142 0
129 149 0
129 150 0
127 147 0
130 149 0
122 140 0
126 145 0
129 147 0
130 148 0
128 146 0
125 144 0
117 135 0
116 134 0
122 140 0
119 137 0
121 140 0
110 128 0
106 124 0
119 136 0
120 138 0
120 137 0
118 136 0
118 135 0
108 125 0
113 130 0
117 134 0
88 105 0
101 118 0
107 124 0
117 134 0
124 142 0
99 116 0
107 123 0
102 119 0
102 118 0
112 127 0
111 127 0
90 106 0
107 122 0
111 127 0
116 133 0
106 121 0
101 116 0
110 127 0
110 126 0
111 127 0
111 127 0
115 130 0
108 124 0
117 135 0
111 126 0
120 135 0
90 104 0
112 127 0
122 137 0
127 142 0
109 124 0
114 128 0
129 145 0
111 125 0
123 140 0
113 127 0
119 134 0
113 127 0
122 138 0
127 141 0
107 121 0
116 129 0
114 128 0
124 138 0
125 140 0
115 130 0
125 138 0
116 126 0
124 138 0
132 146 0
119 132 0
129 144 0
126 141 0
138 154 0
126 138 0
130 144 0
131 147 0
129 141 0
125 137 0
130 143 0
125 140 0
131 145 0
125 135 0
131 143 0
129 142 0
127 139 0
128 142 0
129 140 0
137 148 0
126 136 0
140 152 0
129 141 0
133 143 0
125 137 0
125 135 0
121 129 0
136 148 0
122 132 0
130 139 0
132 141 0
126 135 0
128 138 0
126 134 0
130 137 0
129 136 0
118 125 0
124 129 0
125 131 0
129 136 0
125 128 0
127 130 0
128 133 0
115 118 0
124 127 0
128 128 0
122 121 0
126 128 0
127 126 0
127 128 0
122 124 0
122 123 0
113 109 0
121 119 0
127 126 0
114 110 0
114 108 0
118 114 0
121 119 0
121 118 0
115 107 0
120 114 0
114 106 0
117 109 0
120 111 0
109 98 0
102 92 0
109 97 0
117 109 0
113 102 0
111 99 0
108 96 0
106 93 0
109 96 0
101 86 0
104 91 0
116 105 0
103 90 0
113 100 2
115 98 4
113 92 15
106 83 5
112 90 9
116 90 14
111 90 9
113 90 8
120 97 20
117 93 15
113 91 12
121 100 16
116 93 18
118 96 10
120 99 16
121 98 13
123 102 9
127 105 12
124 105 10
127 109 13
122 102 11
122 101 8
125 102 22
123 104 19
126 108 13
126 107 22
125 106 22
132 112 10
128 112 27
127 107 20
128 108 10
126 108 20
135 116 25
124 106 20
131 111 23
126 106 20
124 104 11
142 124 24
127 107 31
125 103 16
132 115 26
128 109 19
130 111 24
133 114 30
131 113 28
132 110 33
132 114 30
130 109 35
129 109 30
134 123 16
143 140 14
150 150 20
154 156 12
159 167 16
168 180 0
164 177 0
165 181 0
166 181 0
163 174 0
166 178 0
166 178 0
162 175 0
163 178 0
166 181 0
164 180 0
166 181 0
167 181 0
167 182 0
166 183 0
166 180 0
165 182 0
169 186 0
168 187 0
171 190 0
169 187 0
168 185 0
172 190 0
173 196 0
171 194 0
173 197 0
172 195 0
172 195 0
172 195 0
176 198 0
172 195 0
174 197 0
174 197 0
172 195 0
171 195 0
173 196 0
172 195 0
173 196 0
173 196 0
173 195 0
174 196 0
174 197 0
172 195 0
172 194 0
173 196 0
172 195 0
174 197 0
175 197 0
173 195 0
173 196 0
173 196 0
173 195 0
175 197 25
177 199 25
177 199 72
179 200 67
177 197 80
179 200 88
179 200 76
179 200 76
174 196 57
181 202 92
178 199 88
180 200 102
176 198 67
176 197 62
175 197 72
177 198 57
175 197 36
177 198 57
173 195 25
174 196 36
171 192 51
174 196 36
174 196 25
173 195 25
171 193 36
172 193 36
173 194 36
174 196 51
174 195 67
171 192 51
173 195 62
175 195 72
176 196 84
177 198 67
175 195 67
179 199 76
177 197 57
175 194 62
175 195 67
178 198 76
172 192 51
171 191 0
167 187 0
169 189 0
170 192 0
170 190 0
169 190 0
171 192 0
164 184 0
169 189 0
163 184 0
161 182 0
173 193 0
171 190 0
172 194 0
165 186 0
164 184 0
164 186 0
158 179 0
170 192 0
168 190 0
165 185 0
164 185 0
157 178 0
171 191 0
160 181 0
160 181 0
164 185 0
161 183 0
158 178 0
155 176 0
167 188 0
161 181 0
158 180 0
154 176 0
160 181 0
159 182 0
154 176 0
159 181 0
155 177 0
154 176 0
161 182 0
149 172 0
155 177 0
159 179 0
157 178 0
154 175 0
158 179 0
151 171 0
160 181 0
159 180 0
155 176 0
150 172 0
153 175 0
155 177 0
154 176 0
154 175 0
157 178 0
153 176 0
144 166 0
156 178 0
150 171 0
153 174 0
149 171 0
148 169 0
153 175 0
142 163 0
148 170 0
148 169 0
146 166 0
159 181 0
155 177 0
149 170 0
150 171 0
146 168 0
134 155 0
152 174 0
140 162 0
137 158 0
143 164 0
141 161 0
146 168 0
139 160 0
138 160 0
133 154 0
141 162 0
135 156 0
134 154 0
144 165 0
139 160 0
135 156 0
131 151 0
141 162 0
136 156 0
134 154 0
127 147 0
128 148 0
125 146 0
134 154 0
124 144 0
139 159 0
137 158 0
124 143 0
119 139 0
124 144 0
120 139 0
137 155 0
120 140 0
123 142 0
129 148 0
120 139 0
127 147 0
114 134 0
131 150 0
112 131 0
123 141 0
127 145 0
114 132 0
117 135 0
113 131 0
110 127 0
108 126 0
116 132 0
108 124 0
115 134 0
117 134 0
100 117 0
119 135 0
115 133 0
104 120 0
118 134 0
125 142 0
126 143 0
109 127 0
119 136 0
107 125 0
106 123 0
109 125 0
110 128 0
111 128 0
117 131 0
104 122 0
112 127 0
105 123 0
107 123 0
111 127 0
118 134 0
118 135 0
110 127 0
120 135 0
120 134 0
122 140 0
118 134 0
119 135 0
118 132 0
113 129 0
117 135 0
118 133 0
119 134 0
116 132 0
131 148 0
116 130 0
113 129 0
125 140 0
129 146 0
128 143 0
120 135 0
122 137 0
125 141 0
124 138 0
115 131 0
124 139 0
120 137 0
125 140 0
125 138 0
127 142 0
125 139 0
119 133 0
128 142 0
126 137 0
133 149 0
137 153 0
129 141 0
135 148 0
129 144 0
134 147 0
134 148 0
130 141 0
123 133 0
124 135 0
124 138 0
131 147 0
128 138 0
131 143 0
130 142 0
126 140 0
128 142 0
131 139 0
128 141 0
129 141 0
131 143 0
127 136 0
128 138 0
130 142 0
116 127 0
123 131 0
126 132 0
127 134 0
125 134 0
118 125 0
127 135 0
137 143 0
120 127 0
139 149 0
124 130 0
126 132 0
128 134 0
132 137 0
137 142 0
119 124 0
127 133 0
119 122 0
117 116 0
128 131 0
128 128 0
118 122 0
120 122 0
129 129 0
117 117 0
126 124 0
117 115 0
120 117 0
128 127 0
117 118 0
120 117 0
117 113 0
113 110 0
127 125 0
114 108 0
122 117 0
121 115 0
122 117 0
112 103 0
119 111 0
117 105 0
116 109 0
117 108 0
110 99 0
110 100 0
109 97 0
114 102 0
112 99 0
111 100 0
114 103 0
103 87 0
117 106 0
105 89 0
116 105 0
113 100 0
120 110 0
115 101 7
118 104 1
115 99 14
111 91 9
117 97 9
125 105 16
124 108 13
118 99 19
122 100 19
116 92 19
129 108 22
118 94 13
120 98 11
119 95 16
124 101 10
126 104 13
125 105 18
120 98 13
120 97 19
128 109 19
131 110 24
127 108 22
130 106 25
123 102 21
126 105 24
126 105 8
134 115 24
128 105 20
129 109 18
128 110 23
120 99 25
131 111 33
130 110 22
126 108 24
134 117 11
141 129 25
136 124 14
135 126 13
145 140 22
148 144 19
155 159 5
158 165 0
155 163 0
157 164 0
160 170 0
161 169 0
160 172 0
161 169 0
161 174 0
162 172 0
163 172 0
163 174 0
161 170 0
165 178 0
167 181 0
163 176 0
163 177 0
165 178 0
166 182 0
165 178 0
161 174 0
164 179 0
168 184 0
166 180 0
166 183 0
164 179 0
164 181 0
169 186 0
168 184 0
169 186 0
166 183 0
173 196 0
174 197 0
172 195 0
173 195 0
173 196 0
170 193 0
174 197 0
173 197 0
174 197 0
172 195 0
175 198 0
171 195 0
172 195 0
173 196 0
171 194 0
172 195 0
173 195 0
174 196 0
173 196 0
173 195 0
175 197 0
172 195 0
172 194 0
173 196 0
170 193 0
174 196 0
171 194 0
176 198 0
171 194 0
173 195 0
175 197 0
175 197 0
171 193 0
175 197 0
174 196 0
171 193 0
168 190 0
173 194 0
174 196 0
175 196 25
172 193 36
177 198 62
177 198 62
176 197 84
177 197 84
180 200 95
175 196 67
176 197 80
179 199 72
176 196 67
177 198 67
178 198 84
175 195 80
179 199 88
178 199 76
175 195 84
171 192 67
176 196 67
178 199 62
178 198 57
173 194 36
168 189 25
170 190 0
169 190 0
168 189 0
175 195 0
167 188 0
167 187 0
172 193 0
172 191 0
167 188 0
169 190 0
167 188 0
171 192 0
168 190 0
172 193 0
166 187 0
172 192 0
168 189 0
168 190 0
167 187 0
166 188 0
159 179 0
166 187 0
162 183 0
161 182 0
167 189 0
162 183 0
162 183 0
168 189 0
163 184 0
162 183 0
158 180 0
162 182 0
160 181 0
165 186 0
165 185 0
160 181 0
164 186 0
159 180 0
158 178 0
160 181 0
159 180 0
155 177 0
151 172 0
159 180 0
155 177 0
159 180 0
159 181 0
158 179 0
163 185 0
160 182 0
158 180 0
152 173 0
153 174 0
156 178 0
157 178 0
148 170 0
156 178 0
160 181 0
155 176 0
160 182 0
152 174 0
153 175 0
158 181 0
152 172 0
149 171 0
154 176 0
144 165 0
149 170 0
143 164 0
147 168 0
153 176 0
140 162 0
141 162 0
150 172 0
153 175 0
154 175 0
154 176 0
148 170 0
153 174 0
148 170 0
139 161 0
149 171 0
139 161 0
147 168 0
151 172 0
145 167 0
149 171 0
140 162 0
146 168 0
134 155 0
150 172 0
142 163 0
139 161 0
143 164 0
138 158 0
130 151 0
138 158 0
136 156 0
134 156 0
133 154 0
139 160 0
138 159 0
137 157 0
130 151 0
132 153 0
134 155 0
127 147 0
140 160 0
126 146 0
119 138 0
134 153 0
140 159 0
121 141 0
130 150 0
125 145 0
123 142 0
122 141 0
124 144 0
124 144 0
113 134 0
122 141 0
126 146 0
127 145 0
121 141 0
130 149 0
123 142 0
118 138 0
123 141 0
117 136 0
118 136 0
130 147 0
111 128 0
124 142 0
121 139 0
113 130 0
123 140 0
116 133 0
120 140 0
109 126 0
117 135 0
108 126 0
115 132 0
120 137 0
105 122 0
118 137 0
113 130 0
122 139 0
119 137 0
111 126 0
113 128 0
119 137 0
119 134 0
109 123 0
128 144 0
113 132 0
124 140 0
116 133 0
111 128 0
127 143 0
125 141 0
110 125 0
102 118 0
113 131 0
113 129 0
119 135 0
130 147 0
116 131 0
115 129 0
137 153 0
119 133 0
121 136 0
124 141 0
125 142 0
115 129 0
120 135 0
125 142 0
124 141 0
120 136 0
131 145 0
121 135 0
118 133 0
126 139 0
135 148 0
133 151 0
124 139 0
128 140 0
131 146 0
124 138 0
126 141 0
127 139 0
122 138 0
134 148 0
121 133 0
120 134 0
131 145 0
131 144 0
121 134 0
112 124 0
126 140 0
127 140 0
128 139 0
134 146 0
131 142 0
126 138 0
130 142 0
126 138 0
134 146 0
134 146 0
132 144 0
123 133 0
129 142 0
137 148 0
126 136 0
135 144 0
135 143 0
129 135 0
127 136 0
130 137 0
141 153 0
131 139 0
124 129 0
132 140 0
136 144 0
126 133 0
134 141 0
119 122 0
118 119 0
138 141 0
125 127 0
137 141 0
131 135 0
118 121 0
122 125 0
130 136 0
129 130 0
123 125 0
122 120 0
130 131 0
123 125 0
123 122 0
128 128 0
130 127 0
122 120 0
125 123 0
118 112 0
119 113 0
131 127 0
122 116 0
124 119 0
116 107 0
117 111 0
115 108 0
116 108 0
109 100 0
126 120 0
117 110 0
115 102 0
117 107 0
113 99 0
115 106 0
111 98 0
119 110 0
121 111 0
115 105 0
115 105 0
116 106 0
109 95 0
122 111 0
110 100 0
124 114 0
111 98 0
127 116 0
121 108 0
118 108 0
117 105 0
115 102 0
121 109 0
127 116 6
128 118 5
127 115 6
126 114 5
128 117 2
127 112 6
132 123 12
134 126 14
132 117 15
130 115 6
136 126 14
130 118 19
138 131 13
133 125 10
132 123 5
138 134 8
137 130 18
142 138 11
138 132 12
149 148 16
151 152 11
152 155 13
150 151 0
153 156 0
149 154 0
154 157 0
157 165 0
156 163 0
146 146 0
152 156 0
156 161 0
158 165 0
160 172 0
156 166 0
157 165 0
160 170 0
161 173 0
157 165 0
160 170 0
159 170 0
164 175 0
159 169 0
157 168 0
160 170 0
164 178 0
160 172 0
164 177 0
163 175 0
168 182 0
161 174 0
165 178 0
161 173 0
166 179 0
165 181 0
165 181 0
164 177 0
164 178 0
163 177 0
167 184 0
166 183 0
164 180 0
173 196 0
174 197 0
173 197 0
172 196 0
172 195 0
173 196 0
173 196 0
173 196 0
172 195 0
172 195 0
173 197 0
171 194 0
171 194 0
173 195 0
171 193 0
174 196 0
172 195 0
170 194 0
170 193 0
168 191 0
172 194 0
173 196 0
172 194 0
171 193 0
172 195 0
169 192 0
172 194 0
175 197 0
172 194 0
173 195 0
172 194 0
168 190 0
175 197 0
171 193 0
174 195 0
172 194 0
174 195 0
170 193 0
171 193 0
174 195 0
172 194 0
176 197 0
175 196 0
173 194 0
172 193 0
176 196 0
172 193 0
173 194 0
171 192 0
170 191 0
175 196 0
174 195 0
171 191 0
173 193 0
170 191 0
174 194 0
172 193 0
173 195 0
173 194 0
173 194 0
173 194 0
171 192 0
172 193 0
173 194 0
169 190 0
171 192 0
171 191 0
175 195 0
168 189 0
170 191 0
170 190 0
171 192 0
167 188 0
169 190 0
173 193 0
166 188 0
166 187 0
168 188 0
169 190 0
166 187 0
166 187 0
165 186 0
163 185 0
166 186 0
161 182 0
162 183 0
165 186 0
161 182 0
162 182 0
153 175 0
163 184 0
161 183 0
161 181 0
163 185 0
163 184 0
161 183 0
162 183 0
159 181 0
162 182 0
154 175 0
152 173 0
160 182 0
167 188 0
151 172 0
158 179 0
157 180 0
155 178 0
159 181 0
158 181 0
155 176 0
159 181 0
165 186 0
154 176 0
157 179 0
155 177 0
161 182 0
160 182 0
153 175 0
155 175 0
156 177 0
148 169 0
154 176 0
157 178 0
160 182 0
152 174 0
153 174 0
153 175 0
144 165 0
152 173 0
153 175 0
151 172 0
153 175 0
147 170 0
161 182 0
153 174 0
151 174 0
150 172 0
146 168 0
151 173 0
155 177 0
141 163 0
149 171 0
148 169 0
149 171 0
140 161 0
145 167 0
148 170 0
148 171 0
142 161 0
141 162 0
139 160 0
146 168 0
142 163 0
140 162 0
135 156 0
149 171 0
142 162 0
141 163 0
138 160 0
138 160 0
139 160 0
136 158 0
135 156 0
139 159 0
139 160 0
132 152 0
141 161 0
139 159 0
132 152 0
126 146 0
130 150 0
137 158 0
127 146 0
139 158 0
120 139 0
125 146 0
122 141 0
120 139 0
126 145 0
134 154 0
134 153 0
131 151 0
125 143 0
116 136 0
129 147 0
116 134 0
127 146 0
120 137 0
120 138 0
129 149 0
119 138 0
114 132 0
114 132 0
134 152 0
117 136 0
113 133 0
123 142 0
115 133 0
107 125 0
116 135 0
129 147 0
113 131 0
119 136 0
118 135 0
107 124 0
105 123 0
117 135 0
112 129 0
115 132 0
117 135 0
112 128 0
119 137 0
114 130 0
109 127 0
121 136 0
128 145 0
112 128 0
127 145 0
111 128 0
114 129 0
115 130 0
101 117 0
126 142 0
120 136 0
137 156 0
118 132 0
122 140 0
129 146 0
126 139 0
128 145 0
124 140 0
120 137 0
126 143 0
124 140 0
126 144 0
126 142 0
123 141 0
123 140 0
125 142 0
120 135 0
123 138 0
119 134 0
127 141 0
133 149 0
128 140 0
130 147 0
129 142 0
131 146 0
123 137 0
119 133 0
128 142 0
140 152 0
116 132 0
118 133 0
142 158 0
134 150 0
141 158 0
131 147 0
130 144 0
139 153 0
127 143 0
129 144 0
124 137 0
132 143 0
137 149 0
123 136 0
131 143 0
131 143 0
129 141 0
123 133 0
131 141 0
139 151 0
130 139 0
130 143 0
136 149 0
136 147 0
139 152 0
125 134 0
142 150 0
129 138 0
127 135 0
130 140 0
121 129 0
132 143 0
133 141 0
138 150 0
132 138 0
142 151 0
124 130 0
125 127 0
131 139 0
125 130 0
129 135 0
121 123 0
131 133 0
122 122 0
131 135 0
127 129 0
136 139 0
121 125 0
140 142 0
135 140 0
123 122 0
132 132 0
129 131 0
125 123 0
122 119 0
129 126 0
121 114 0
130 125 0
124 119 0
117 112 0
123 115 0
124 121 0
120 114 0
110 104 0
118 112 0
118 109 0
114 104 0
123 115 0
118 109 0
116 105 0
123 115 0
121 112 0
113 102 0
105 91 0
122 112 0
123 113 0
122 110 0
107 93 0
119 109 0
124 113 0
129 121 0
130 123 0
123 114 0
120 110 0
125 114 0
128 121 0
125 115 0
125 113 0
126 117 0
127 118 0
124 116 0
131 124 0
132 124 0
140 136 0
136 131 0
154 158 0
140 137 0
139 134 0
141 137 0
133 129 0
142 140 0
136 129 0
141 138 0
147 145 0
142 138 0
153 156 0
143 143 0
147 146 0
149 149 0
144 146 0
141 142 0
157 162 0
152 153 0
148 151 0
158 164 0
152 156 0
157 161 0
157 163 0
154 158 0
160 167 0
155 161 0
158 166 0
158 166 0
157 165 0
162 172 0
160 168 0
159 168 0
163 173 0
162 172 0
160 170 0
163 176 0
167 181 0
166 178 0
159 169 0
162 175 0
161 172 0
161 174 0
165 179 0
168 182 0
166 178 0
165 178 0
165 181 0
162 172 0
168 183 0
165 180 0
165 179 0
167 182 0
163 177 0
172 196 0
171 194 0
173 196 0
172 195 0
173 196 0
174 197 0
172 195 0
171 195 0
175 197 0
174 196 0
173 196 0
170 194 0
170 193 0
177 199 0
172 195 0
172 194 0
169 191 0
175 196 0
174 196 0
174 196 0
174 196 0
173 196 0
175 197 0
171 194 0
175 196 0
170 193 0
171 193 0
171 194 0
173 195 0
170 193 0
174 196 0
175 197 0
173 195 0
172 194 0
173 195 0
172 193 0
174 196 0
172 194 0
171 192 0
176 197 0
172 194 0
170 192 0
174 195 0
170 191 0
175 196 0
172 192 0
167 189 0
174 194 0
174 196 0
174 195 0
173 194 0
175 195 0
169 190 0
172 193 0
171 193 0
168 189 0
175 196 0
173 193 0
169 190 0
170 191 0
176 196 0
175 196 0
174 194 0
168 189 0
172 193 0
172 193 0
172 191 0
169 190 0
173 193 0
169 190 0
167 188 0
171 192 0
166 186 0
161 182 0
167 188 0
173 193 0
168 189 0
166 186 0
166 186 0
169 188 0
162 183 0
166 188 0
167 187 0
165 187 0
163 184 0
169 190 0
166 188 0
164 185 0
162 183 0
164 184 0
168 188 0
164 185 0
156 176 0
161 182 0
162 184 0
155 176 0
170 191 0
154 176 0
155 176 0
164 186 0
162 183 0
156 177 0
165 186 0
167 188 0
161 182 0
159 181 0
157 179 0
159 180 0
157 179 0
154 176 0
159 181 0
155 177 0
155 177 0
154 176 0
154 176 0
152 173 0
156 178 0
157 178 0
146 168 0
156 177 0
154 176 0
163 186 0
148 171 0
152 175 0
151 173 0
155 177 0
154 175 0
146 168 0
156 178 0
151 173 0
143 165 0
151 172 0
149 170 0
142 164 0
148 170 0
144 166 0
151 173 0
155 177 0
154 177 0
153 174 0
139 161 0
153 175 0
146 167 0
141 161 0
147 168 0
143 165 0
142 164 0
151 173 0
152 174 0
147 170 0
139 159 0
144 166 0
145 166 0
132 153 0
142 163 0
138 158 0
134 155 0
148 169 0
148 169 0
141 162 0
147 168 0
136 157 0
146 167 0
135 155 0
126 145 0
127 148 0
131 151 0
133 153 0
124 144 0
136 157 0
125 144 0
125 146 0
123 143 0
135 155 0
139 160 0
126 146 0
123 143 0
131 150 0
124 143 0
127 145 0
132 152 0
125 144 0
122 140 0
130 149 0
123 143 0
127 147 0
129 148 0
128 146 0
123 142 0
111 127 0
128 146 0
119 137 0
127 144 0
125 144 0
123 142 0
127 144 0
118 136 0
124 141 0
134 153 0
119 137 0
117 134 0
126 143 0
115 134 0
124 141 0
119 137 0
119 136 0
127 145 0
114 132 0
123 140 0
114 131 0
114 129 0
131 150 0
115 133 0
113 130 0
126 146 0
129 146 0
110 126 0
117 135 0
129 146 0
122 141 0
125 143 0
125 142 0
118 135 0
112 131 0
125 143 0
126 142 0
119 132 0
132 151 0
122 137 0
124 139 0
120 135 0
133 151 0
115 131 0
134 151 0
127 146 0
127 144 0
118 132 0
121 138 0
140 157 0
130 147 0
127 144 0
136 152 0
123 140 0
130 146 0
124 139 0
126 140 0
132 148 0
131 147 0
126 141 0
131 144 0
128 142 0
135 151 0
137 155 0
129 144 0
129 144 0
139 154 0
123 134 0
127 142 0
124 139 0
122 135 0
137 151 0
126 141 0
129 142 0
125 136 0
139 152 0
132 146 0
135 152 0
136 149 0
136 149 0
131 141 0
129 141 0
137 150 0
134 148 0
137 150 0
132 142 0
122 131 0
132 140 0
140 154 0
124 133 0
132 138 0
134 144 0
135 142 0
131 141 0
120 127 0
130 137 0
133 142 0
129 135 0
136 143 0
136 146 0
131 140 0
127 132 0
132 139 0
134 142 0
127 133 0
132 138 0
131 135 0
129 131 0
135 140 0
128 132 0
131 132 0
133 135 0
121 122 0
134 137 0
129 132 0
129 131 0
126 126 0
128 128 0
131 131 0
133 133 0
122 121 0
134 129 0
126 122 0
120 115 0
133 132 0
127 122 0
126 122 0
119 114 0
116 107 0
124 116 0
133 129 0
121 116 0
119 107 0
118 108 0
125 117 0
126 121 0
124 117 0
128 123 0
126 116 0
120 110 0
119 105 0
120 111 0
123 117 0
118 107 0
125 115 0
118 107 0
119 109 0
120 109 0
126 119 0
138 135 0
131 126 0
133 128 0
135 130 0
135 129 0
126 119 0
133 122 0
138 133 0
134 126 0
134 131 0
137 130 0
144 140 0
141 137 0
132 126 0
152 154 0
139 137 0
144 141 0
136 130 0
139 138 0
144 143 0
148 147 0
145 146 0
145 145 0
148 149 0
153 151 0
154 157 0
155 157 0
149 150 0
154 158 0
149 151 0
151 156 0
160 166 0
153 156 0
159 167 0
153 157 0
156 164 0
154 160 0
155 164 0
158 165 0
159 168 0
158 168 0
160 170 0
155 163 0
160 171 0
158 169 0
166 179 0
159 171 0
158 168 0
163 173 0
163 175 0
164 177 0
163 176 0
162 172 0
160 170 0
170 185 0
165 179 0
166 182 0
165 180 0
161 175 0
166 180 0
167 182 0
164 181 0
173 196 0
171 194 0
173 196 0
174 197 0
172 195 0
172 196 0
175 197 0
175 197 0
171 194 0
174 197 0
174 196 0
172 195 0
176 198 0
175 198 0
174 197 0
172 194 0
172 194 0
175 198 0
171 194 0
170 192 0
173 196 0
175 197 0
172 195 0
173 195 0
173 195 0
172 195 0
174 196 0
172 194 0
174 196 0
175 196 0
171 193 0
171 194 0
172 194 0
174 196 0
177 198 0
173 194 0
176 197 0
169 192 0
169 191 0
172 194 0
171 193 0
173 195 0
174 196 0
170 191 0
174 195 0
173 194 0
173 195 0
173 194 0
174 195 0
177 196 0
169 190 0
172 193 0
170 192 0
170 191 0
170 192 0
172 193 0
170 192 0
170 192 0
172 192 0
170 191 0
171 191 0
168 188 0
172 192 0
168 189 0
173 193 0
172 193 0
170 191 0
170 191 0
168 189 0
165 186 0
162 183 0
165 185 0
168 189 0
166 187 0
173 193 0
169 190 0
165 187 0
170 191 0
171 192 0
167 188 0
169 190 0
161 183 0
165 187 0
164 185 0
166 187 0
169 190 0
166 187 0
162 183 0
162 182 0
163 185 0
163 185 0
167 188 0
164 186 0
166 187 0
160 181 0
163 184 0
155 177 0
166 187 0
153 175 0
163 185 0
161 182 0
161 182 0
154 176 0
156 178 0
155 176 0
163 184 0
159 181 0
151 173 0
156 177 0
150 172 0
161 183 0
157 178 0
153 174 0
156 177 0
154 176 0
158 180 0
157 178 0
153 174 0
155 176 0
154 177 0
148 169 0
150 172 0
153 173 0
152 174 0
155 177 0
156 177 0
154 176 0
148 170 0
154 175 0
150 172 0
156 179 0
149 170 0
148 170 0
154 176 0
154 175 0
151 172 0
154 176 0
149 170 0
145 166 0
151 172 0
144 166 0
145 165 0
149 170 0
150 172 0
153 174 0
147 169 0
143 164 0
139 161 0
144 165 0
137 159 0
154 177 0
142 162 0
147 168 0
155 177 0
144 166 0
138 159 0
137 158 0
138 159 0
139 159 0
135 155 0
137 158 0
135 156 0
142 163 0
137 158 0
128 147 0
128 149 0
128 147 0
126 147 0
130 151 0
139 161 0
123 144 0
141 162 0
139 159 0
137 157 0
141 162 0
127 148 0
124 144 0
132 152 0
127 146 0
130 150 0
124 142 0
128 146 0
136 156 0
126 145 0
139 159 0
128 148 0
137 157 0
128 148 0
120 139 0
119 138 0
125 145 0
111 130 0
116 135 0
130 148 0
122 141 0
124 144 0
126 145 0
115 131 0
115 135 0
117 135 0
122 140 0
125 143 0
121 141 0
118 136 0
119 137 0
116 135 0
132 150 0
126 143 0
116 134 0
127 145 0
120 138 0
119 138 0
127 144 0
126 144 0
125 144 0
126 144 0
119 138 0
124 143 0
129 146 0
123 142 0
131 149 0
132 149 0
126 143 0
135 153 0
119 136 0
120 137 0
117 133 0
127 143 0
125 141 0
133 149 0
110 127 0
126 144 0
124 138 0
123 137 0
130 147 0
115 129 0
115 131 0
119 134 0
121 135 0
129 146 0
134 151 0
121 137 0
132 143 0
134 150 0
122 137 0
134 148 0
117 135 0
138 152 0
133 149 0
133 149 0
130 146 0
132 147 0
136 152 0
121 134 0
137 153 0
130 145 0
128 145 0
129 143 0
130 144 0
127 141 0
136 152 0
140 152 0
132 146 0
134 147 0
132 146 0
131 147 0
128 142 0
142 157 0
135 145 0
135 147 0
131 142 0
133 146 0
131 141 0
143 158 0
137 148 0
144 156 0
142 156 0
134 146 0
135 146 0
133 143 0
126 136 0
137 147 0
132 140 0
136 146 0
136 147 0
135 142 0
139 147 0
135 144 0
137 143 0
124 131 0
128 136 0
130 134 0
136 144 0
127 132 0
133 139 0
129 133 0
132 140 0
128 130 0
138 144 0
127 131 0
134 138 0
134 139 0
134 136 0
129 129 0
133 138 0
125 124 0
131 134 0
124 123 0
130 130 0
130 131 0
137 135 0
127 126 0
128 122 0
134 134 0
117 112 0
128 126 0
122 114 0
125 119 0
131 129 0
127 123 0
131 127 0
129 127 0
113 106 0
123 116 0
132 127 0
130 123 0
129 122 0
127 120 0
127 121 0
121 111 0
121 111 0
132 123 0
128 120 0
127 119 0
128 121 0
122 115 0
116 106 0
129 123 0
130 122 0
131 123 0
138 133 0
131 122 0
129 125 0
132 125 0
128 122 0
140 137 0
131 125 0
127 117 0
140 138 0
138 134 0
142 139 0
141 139 0
139 136 0
139 136 0
143 140 0
146 146 0
138 131 0
145 145 0
144 144 0
141 139 0
147 149 0
149 151 0
145 146 0
146 147 0
146 147 0
154 158 0
154 155 0
154 158 0
146 149 0
157 162 0
150 155 0
156 162 0
158 162 0
160 165 0
160 167 0
161 169 0
160 166 0
159 167 0
153 158 0
161 170 0
162 174 0
164 174 0
163 175 0
158 167 0
160 170 0
161 170 0
161 173 0
162 172 0
160 173 0
159 170 0
165 177 0
165 180 0
164 177 0
160 173 0
165 180 0
165 177 0
167 181 0
163 175 0
163 175 0
166 181 0
170 194 0
172 196 0
172 195 0
171 195 0
173 196 0
173 195 0
175 197 0
174 196 0
169 192 0
175 197 0
174 197 0
172 195 0
175 197 0
174 197 0
174 197 0
170 193 0
172 195 0
172 195 0
174 196 0
174 196 0
170 191 0
169 192 0
172 193 0
172 194 0
174 195 0
174 196 0
170 192 0
173 196 0
173 195 0
171 193 0
175 197 0
174 195 0
172 194 0
174 195 0
172 194 0
178 200 0
173 195 0
171 192 0
173 194 0
176 197 0
170 191 0
171 194 0
171 193 0
175 196 0
171 192 0
172 194 0
170 192 0
172 194 0
174 195 0
175 196 0
174 195 0
175 195 0
172 193 0
173 195 0
173 194 0
171 193 0
175 196 0
168 190 0
168 189 0
173 194 0
171 193 0
172 193 0
174 194 0
171 191 0
174 195 0
175 196 0
172 193 0
169 189 0
169 189 0
166 186 0
167 187 0
170 191 0
167 187 0
166 188 0
169 190 0
171 192 0
166 187 0
169 190 0
163 184 0
163 185 0
169 190 0
165 186 0
161 183 0
161 182 0
162 183 0
159 180 0
159 181 0
162 182 0
161 182 0
159 180 0
167 189 0
163 184 0
160 182 0
159 180 0
158 180 0
157 179 0
159 181 0
162 184 0
158 179 0
161 182 0
154 176 0
149 171 0
159 181 0
160 182 0
157 178 0
159 180 0
158 180 0
155 177 0
157 180 0
158 179 0
159 180 0
157 178 0
158 180 0
158 180 0
153 175 0
153 175 0
153 173 0
150 172 0
149 171 0
151 174 0
149 172 0
161 183 0
156 178 0
147 169 0
150 172 0
148 171 0
156 179 0
149 170 0
152 173 0
149 171 0
156 177 0
153 176 0
149 170 0
150 172 0
153 175 0
157 179 0
147 169 0
144 167 0
145 167 0
160 181 0
152 173 0
145 167 0
147 170 0
135 157 0
152 173 0
143 164 0
153 174 0
147 169 0
146 168 0
148 169 0
148 170 0
144 164 0
145 167 0
145 167 0
136 157 0
135 156 0
140 162 0
135 157 0
128 148 0
139 160 0
137 157 0
139 161 0
134 156 0
136 155 0
139 159 0
136 156 0
136 159 0
137 157 0
127 148 0
132 153 0
132 152 0
143 162 0
138 159 0
129 149 0
137 158 0
141 161 0
124 144 0
135 155 0
129 149 0
133 152 0
127 146 0
120 139 0
134 152 0
128 148 0
122 141 0
125 146 0
131 150 0
129 147 0
133 153 0
123 142 0
129 146 0
128 147 0
115 134 0
126 146 0
131 149 0
122 139 0
126 146 0
132 150 0
123 142 0
128 147 0
135 154 0
130 148 0
133 151 0
130 148 0
122 139 0
121 139 0
127 144 0
113 129 0
123 141 0
125 142 0
122 141 0
121 137 0
131 150 0
123 142 0
135 153 0
135 152 0
129 146 0
130 147 0
124 142 0
128 146 0
117 134 0
119 136 0
129 147 0
127 145 0
124 140 0
124 139 0
128 147 0
126 141 0
126 142 0
132 148 0
125 141 0
127 145 0
127 143 0
128 145 0
125 141 0
131 148 0
130 145 0
125 142 0
127 143 0
132 146 0
116 131 0
128 145 0
128 146 0
126 144 0
126 142 0
138 152 0
132 149 0
133 147 0
125 140 0
134 149 0
131 145 0
124 138 0
141 159 0
135 150 0
133 147 0
131 146 0
135 150 0
133 147 0
137 150 0
137 153 0
133 148 0
128 143 0
130 144 0
138 154 0
134 149 0
140 155 0
134 149 0
143 158 0
132 145 0
141 156 0
141 152 0
127 141 0
134 147 0
139 150 0
138 151 0
143 152 0
143 157 0
131 142 0
131 142 0
131 142 0
131 141 0
132 142 0
134 144 0
141 150 0
131 141 0
138 147 0
143 154 0
132 136 0
132 142 0
137 148 0
144 153 0
135 142 0
136 142 0
131 136 0
133 136 0
126 133 0
139 147 0
135 141 0
131 136 0
127 132 0
123 126 0
133 138 0
124 125 0
128 132 0
130 135 0
128 130 0
130 134 0
138 141 0
135 137 0
135 137 0
129 129 0
130 126 0
130 129 0
130 125 0
128 124 0
129 125 0
129 126 0
123 121 0
129 127 0
120 116 0
123 116 0
136 135 0
127 122 0
135 131 0
125 121 0
131 125 0
137 134 0
129 124 0
126 121 0
132 126 0
125 118 0
130 123 0
129 125 0
127 119 0
133 128 0
132 125 0
133 126 0
129 121 0
131 124 0
134 128 0
130 124 0
128 121 0
135 126 0
140 136 0
133 130 0
134 129 0
136 129 0
133 127 0
138 134 0
138 133 0
134 125 0
140 137 0
148 147 0
137 132 0
140 137 0
143 141 0
149 147 0
142 142 0
141 140 0
144 141 0
145 144 0
145 146 0
145 144 0
146 146 0
149 151 0
152 153 0
143 142 0
146 148 0
153 154 0
151 155 0
156 159 0
157 165 0
152 154 0
153 157 0
159 168 0
153 155 0
155 160 0
155 163 0
160 166 0
158 168 0
154 161 0
162 172 0
156 166 0
161 172 0
161 171 0
164 176 0
165 176 0
159 167 0
158 168 0
164 177 0
164 177 0
164 173 0
161 172 0
164 178 0
167 182 0
164 178 0
162 175 0
164 176 0
164 177 0
168 180 0
175 197 0
172 196 0
175 197 0
174 197 0
173 196 0
172 194 0
174 196 0
173 196 0
172 194 0
171 193 0
173 195 0
173 195 0
175 197 0
173 195 0
170 193 0
170 193 0
173 196 0
174 196 0
175 198 0
176 198 0
172 194 0
171 194 0
175 196 0
173 195 0
176 197 0
173 195 0
171 193 0
176 198 0
174 196 0
175 196 0
171 192 0
174 196 0
174 196 0
174 195 0
173 194 0
175 197 0
172 194 0
170 192 0
172 194 0
176 197 0
171 193 0
172 193 0
173 194 0
175 196 0
172 193 0
171 193 0
169 190 0
173 194 0
168 189 0
171 193 0
171 191 0
167 188 0
169 190 0
171 192 0
173 194 0
167 188 0
166 187 0
173 194 0
166 188 0
171 192 0
168 189 0
170 191 0
170 191 0
173 194 0
167 188 0
171 192 0
168 189 0
169 191 0
170 191 0
161 182 0
172 194 0
169 190 0
171 192 0
167 188 0
164 184 0
171 191 0
166 187 0
165 185 0
165 187 0
164 186 0
169 190 0
167 188 0
162 184 0
160 180 0
164 186 0
159 180 0
160 181 0
162 183 0
159 181 0
165 188 0
167 188 0
159 180 0
159 180 0
159 180 0
162 183 0
159 181 0
159 180 0
161 182 0
153 174 0
159 181 0
157 180 0
167 188 0
149 171 0
162 184 0
163 184 0
163 184 0
162 184 0
154 176 0
157 178 0
156 178 0
161 183 0
159 181 0
162 185 0
157 180 0
152 174 0
159 180 0
162 185 0
150 172 0
150 173 0
147 169 0
154 177 0
153 176 0
155 177 0
154 176 0
159 182 0
149 170 0
150 172 0
156 178 0
152 175 0
150 172 0
142 163 0
154 176 0
151 173 0
152 172 0
150 172 0
150 171 0
153 174 0
146 168 0
143 164 0
147 167 0
141 163 0
150 171 0
138 159 0
147 169 0
152 173 0
151 173 0
152 173 0
145 167 0
155 177 0
148 170 0
142 162 0
148 170 0
142 162 0
138 158 0
142 164 0
141 162 0
139 161 0
140 162 0
137 158 0
135 156 0
130 151 0
144 165 0
136 157 0
137 159 0
137 157 0
142 162 0
139 160 0
128 147 0
146 167 0
141 162 0
136 157 0
143 164 0
135 156 0
137 157 0
133 154 0
132 152 0
128 148 0
134 155 0
123 143 0
134 154 0
137 158 0
138 158 0
126 146 0
138 156 0
124 144 0
128 147 0
125 145 0
125 145 0
133 153 0
130 151 0
132 151 0
126 145 0
129 147 0
135 154 0
124 142 0
135 154 0
140 160 0
133 151 0
113 132 0
130 148 0
123 143 0
121 139 0
125 143 0
116 133 0
132 151 0
135 155 0
133 152 0
128 145 0
123 140 0
130 148 0
126 143 0
128 146 0
131 150 0
125 141 0
123 141 0
125 143 0
130 148 0
125 142 0
127 146 0
120 138 0
127 144 0
131 148 0
127 146 0
121 138 0
136 153 0
122 139 0
136 154 0
127 145 0
132 149 0
128 145 0
129 146 0
138 155 0
133 150 0
128 146 0
129 147 0
124 140 0
131 148 0
126 142 0
118 136 0
128 145 0
135 151 0
135 151 0
132 149 0
131 149 0
132 150 0
134 150 0
135 153 0
130 146 0
147 164 0
127 139 0
129 146 0
138 154 0
139 151 0
136 152 0
134 149 0
129 144 0
121 134 0
138 153 0
124 138 0
131 144 0
138 151 0
140 155 0
139 155 0
142 158 0
141 155 0
139 155 0
136 151 0
137 151 0
137 150 0
134 147 0
138 152 0
138 154 0
138 150 0
132 143 0
141 153 0
135 146 0
134 147 0
132 145 0
138 151 0
132 143 0
131 140 0
144 156 0
136 146 0
130 138 0
134 142 0
140 151 0
133 142 0
128 139 0
122 127 0
133 144 0
136 144 0
139 146 0
134 139 0
135 143 0
129 137 0
136 140 0
134 141 0
139 145 0
129 133 0
139 146 0
140 143 0
131 135 0
138 143 0
134 140 0
137 141 0
132 137 0
135 137 0
136 141 0
141 145 0
136 137 0
142 145 0
122 122 0
130 129 0
141 145 0
126 127 0
128 124 0
130 131 0
125 123 0
128 121 0
129 126 0
127 123 0
144 144 0
120 118 0
129 129 0
129 125 0
131 128 0
132 126 0
131 127 0
130 125 0
123 117 0
135 134 0
125 121 0
135 133 0
127 123 0
131 128 0
142 142 0
131 125 0
134 128 0
133 128 0
138 135 0
138 132 0
140 136 0
129 122 0
134 126 0
135 132 0
139 135 0
137 133 0
134 129 0
144 140 0
139 135 0
131 126 0
139 134 0
137 132 0
144 143 0
137 132 0
134 130 0
142 140 0
154 155 0
144 146 0
148 148 0
148 149 0
145 145 0
145 146 0
151 153 0
147 150 0
148 152 0
150 153 0
154 158 0
149 153 0
152 157 0
156 164 0
155 156 0
155 164 0
153 155 0
146 149 0
155 158 0
159 167 0
158 166 0
150 156 0
163 170 0
154 159 0
157 162 0
157 165 0
154 160 0
158 169 0
159 165 0
163 173 0
163 174 0
160 169 0
159 167 0
160 171 0
164 174 0
162 175 0
163 175 0
160 170 0
159 170 0
167 180 0
165 179 0
163 178 0
164 178 0
171 194 0
175 197 0
172 195 0
173 196 0
173 195 0
171 193 0
175 197 0
178 199 0
175 197 0
174 197 0
173 196 0
172 194 0
171 193 0
173 195 0
175 197 0
174 196 0
176 199 0
172 194 0
174 196 0
174 195 0
174 196 0
172 194 0
174 196 0
175 196 0
175 196 0
174 196 0
172 194 0
173 196 0
171 193 0
170 191 0
173 195 0
174 196 0
171 192 0
173 194 0
170 192 0
172 193 0
176 196 0
172 194 0
176 197 0
173 193 0
172 193 0
171 192 0
170 192 0
170 192 0
173 194 0
174 195 0
176 197 0
168 189 0
174 195 0
171 192 0
171 193 0
174 196 0
173 194 0
168 189 0
172 193 0
167 188 0
172 192 0
170 191 0
172 193 0
168 189 0
171 192 0
171 191 0
173 193 0
167 188 0
174 195 0
172 192 0
174 195 0
165 186 0
168 188 0
171 193 0
165 186 0
169 190 0
168 189 0
167 187 0
167 187 0
170 192 0
167 188 0
164 184 0
170 191 0
170 191 0
164 185 0
163 184 0
169 191 0
166 188 0
169 190 0
158 180 0
163 185 0
163 185 0
160 182 0
166 187 0
162 184 0
160 183 0
163 184 0
157 178 0
163 186 0
162 184 0
159 180 0
163 185 0
162 184 0
161 183 0
160 182 0
156 178 0
155 175 0
157 178 0
163 185 0
162 184 0
159 180 0
155 177 0
163 186 0
160 182 0
158 180 0
156 178 0
158 180 0
155 176 0
158 180 0
155 178 0
157 179 0
153 175 0
160 181 0
158 180 0
159 181 0
153 175 0
153 175 0
150 172 0
155 178 0
154 176 0
152 173 0
157 178 0
156 177 0
153 175 0
150 172 0
154 176 0
158 179 0
149 171 0
153 175 0
150 173 0
146 166 0
149 171 0
151 174 0
150 172 0
142 164 0
143 165 0
155 177 0
138 160 0
152 173 0
144 165 0
143 166 0
136 159 0
148 169 0
148 170 0
150 170 0
145 167 0
149 170 0
144 166 0
142 165 0
135 156 0
147 168 0
144 166 0
142 162 0
142 164 0
130 151 0
145 166 0
140 161 0
141 161 0
143 163 0
141 162 0
138 160 0
140 160 0
124 144 0
139 160 0
133 154 0
133 153 0
133 153 0
137 158 0
135 156 0
140 160 0
134 155 0
134 154 0
134 154 0
138 159 0
133 153 0
134 154 0
124 142 0
131 151 0
135 154 0
132 151 0
130 150 0
134 153 0
133 153 0
138 156 0
143 164 0
129 148 0
124 144 0
129 148 0
128 146 0
132 151 0
132 150 0
132 151 0
127 145 0
135 154 0
126 145 0
133 152 0
130 149 0
129 149 0
131 148 0
134 153 0
135 154 0
130 149 0
131 149 0
131 150 0
127 146 0
131 151 0
125 144 0
125 144 0
128 146 0
127 145 0
135 154 0
134 152 0
124 141 0
114 132 0
131 149 0
128 144 0
132 151 0
133 152 0
124 142 0
126 144 0
121 138 0
127 144 0
121 138 0
123 140 0
128 144 0
124 141 0
131 150 0
142 159 0
132 149 0
132 149 0
127 144 0
139 159 0
132 150 0
134 150 0
134 153 0
144 161 0
134 152 0
129 145 0
135 151 0
130 145 0
129 144 0
133 150 0
135 151 0
129 143 0
141 157 0
137 153 0
142 159 0
129 145 0
138 155 0
142 159 0
129 143 0
134 148 0
138 152 0
132 147 0
142 155 0
142 158 0
135 149 0
144 158 0
149 166 0
140 154 0
128 142 0
140 156 0
133 146 0
142 159 0
139 153 0
138 150 0
141 154 0
131 144 0
136 151 0
135 148 0
138 150 0
130 142 0
139 155 0
142 156 0
133 144 0
136 145 0
139 150 0
132 140 0
133 144 0
128 136 0
134 145 0
140 152 0
130 136 0
138 148 0
139 148 0
135 143 0
139 145 0
136 144 0
146 154 0
144 151 0
139 148 0
139 146 0
133 141 0
135 142 0
137 142 0
137 144 0
138 143 0
139 146 0
133 139 0
125 128 0
134 139 0
136 141 0
135 139 0
130 132 0
133 138 0
139 142 0
130 135 0
138 142 0
134 138 0
126 123 0
129 130 0
127 127 0
140 143 0
130 129 0
139 139 0
137 136 0
127 123 0
131 129 0
142 141 0
132 130 0
130 128 0
143 143 0
131 125 0
134 130 0
133 131 0
133 126 0
132 127 0
132 127 0
139 135 0
133 129 0
141 138 0
137 132 0
139 137 0
134 131 0
145 145 0
137 134 0
131 126 0
139 138 0
144 142 0
141 140 0
138 133 0
132 129 0
139 134 0
140 139 0
135 131 0
138 136 0
135 130 0
136 135 0
148 147 0
142 138 0
145 145 0
141 137 0
137 134 0
143 138 0
137 134 0
148 150 0
149 149 0
144 144 0
147 147 0
144 144 0
152 154 0
153 157 0
156 160 0
147 148 0
155 159 0
153 158 0
155 159 0
156 162 0
153 160 0
155 160 0
148 150 0
156 164 0
153 158 0
157 164 0
159 165 0
157 165 0
158 168 0
158 165 0
153 158 0
155 163 0
157 165 0
162 173 0
158 166 0
162 174 0
157 162 0
161 172 0
164 175 0
161 171 0
163 173 0
163 174 0
166 180 0
162 173 0
159 171 0
162 174 0
174 196 0
172 195 0
173 197 0
174 197 0
173 196 0
167 191 0
174 197 0
172 194 0
174 197 0
174 197 0
171 193 0
172 195 0
174 197 0
172 196 0
172 194 0
174 196 0
171 194 0
174 195 0
173 195 0
174 196 0
171 192 0
175 197 0
171 193 0
176 198 0
175 197 0
173 195 0
173 195 0
174 196 0
175 196 0
174 196 0
173 194 0
173 195 0
173 195 0
178 199 0
171 192 0
171 192 0
173 194 0
173 194 0
169 190 0
176 196 0
172 193 0
170 192 0
174 195 0
175 196 0
172 193 0
172 194 0
173 194 0
173 195 0
173 194 0
174 195 0
171 192 0
171 192 0
169 191 0
171 192 0
167 188 0
173 194 0
171 192 0
173 194 0
167 188 0
168 190 0
171 193 0
170 191 0
167 188 0
169 190 0
166 187 0
167 188 0
164 184 0
169 191 0
166 187 0
165 187 0
165 186 0
171 192 0
167 189 0
170 192 0
162 183 0
165 185 0
164 184 0
163 184 0
163 183 0
162 183 0
173 194 0
165 187 0
163 184 0
166 187 0
168 190 0
165 186 0
165 186 0
164 186 0
162 185 0
161 182 0
163 184 0
160 182 0
161 182 0
160 181 0
162 185 0
163 184 0
164 186 0
159 180 0
165 187 0
158 179 0
150 172 0
158 180 0
164 186 0
165 188 0
158 180 0
160 182 0
159 181 0
160 182 0
162 184 0
156 179 0
160 182 0
156 178 0
148 169 0
160 181 0
156 178 0
154 176 0
153 175 0
158 181 0
147 169 0
156 178 0
148 170 0
154 176 0
144 167 0
161 183 0
157 179 0
157 179 0
158 180 0
161 183 0
148 170 0
148 169 0
151 173 0
145 167 0
146 168 0
150 171 0
151 172 0
155 177 0
141 164 0
151 173 0
146 169 0
151 172 0
145 167 0
148 169 0
156 177 0
150 172 0
144 166 0
151 173 0
147 168 0
142 164 0
149 170 0
141 162 0
142 163 0
149 170 0
140 162 0
141 163 0
139 160 0
153 174 0
141 162 0
140 163 0
134 156 0
136 157 0
148 168 0
150 171 0
144 165 0
137 158 0
137 158 0
136 157 0
134 155 0
138 159 0
139 160 0
130 151 0
133 154 0
138 159 0
137 156 0
143 163 0
134 154 0
131 151 0
133 154 0
131 152 0
127 149 0
131 151 0
143 164 0
136 155 0
125 144 0
123 143 0
141 161 0
134 155 0
128 148 0
140 159 0
131 150 0
132 152 0
128 149 0
139 160 0
137 157 0
129 147 0
123 141 0
135 155 0
130 151 0
127 148 0
128 148 0
134 151 0
131 151 0
126 145 0
129 148 0
136 155 0
144 163 0
123 142 0
131 152 0
127 147 0
129 149 0
135 155 0
129 146 0
127 146 0
127 145 0
129 145 0
137 156 0
125 143 0
124 140 0
134 152 0
126 144 0
133 151 0
132 149 0
133 150 0
123 138 0
126 145 0
131 148 0
128 144 0
124 141 0
136 156 0
136 153 0
124 142 0
137 156 0
132 148 0
132 150 0
130 148 0
139 157 0
137 154 0
137 155 0
133 148 0
133 149 0
132 149 0
122 140 0
125 139 0
136 153 0
127 145 0
131 148 0
123 139 0
136 153 0
131 147 0
133 150 0
130 146 0
137 155 0
137 155 0
129 144 0
135 151 0
136 153 0
126 141 0
130 144 0
134 152 0
137 152 0
131 146 0
132 145 0
140 156 0
141 155 0
133 146 0
132 145 0
139 152 0
145 161 0
135 149 0
132 146 0
143 159 0
141 154 0
134 147 0
135 147 0
140 154 0
136 150 0
138 148 0
145 158 0
144 158 0
137 150 0
145 160 0
134 147 0
135 148 0
140 153 0
135 148 0
144 157 0
139 147 0
135 145 0
139 148 0
146 157 0
130 141 0
135 143 0
142 151 0
126 134 0
139 152 0
141 148 0
138 147 0
142 151 0
140 147 0
141 153 0
140 145 0
126 135 0
134 139 0
133 139 0
134 139 0
144 149 0
136 140 0
137 143 0
133 137 0
139 143 0
137 142 0
134 138 0
140 143 0
133 133 0
145 153 0
135 140 0
138 141 0
133 134 0
132 131 0
132 133 0
138 139 0
135 135 0
130 126 0
126 122 0
135 134 0
137 141 0
131 128 0
136 132 0
127 124 0
132 127 0
138 138 0
138 135 0
129 126 0
132 129 0
136 133 0
137 136 0
139 136 0
131 129 0
134 131 0
133 129 0
134 129 0
139 135 0
137 132 0
135 131 0
130 127 0
133 130 0
127 122 0
140 135 0
137 132 0
140 138 0
140 137 0
150 150 0
135 132 0
136 131 0
147 143 0
142 142 0
148 146 0
145 144 0
142 138 0
137 133 0
146 148 0
142 142 0
148 148 0
144 141 0
146 145 0
149 151 0
143 140 0
143 146 0
149 151 0
152 157 0
153 154 0
150 156 0
153 156 0
153 155 0
153 158 0
156 159 0
158 162 0
152 157 0
155 161 0
157 163 0
152 156 0
154 158 0
156 163 0
152 156 0
157 163 0
153 160 0
161 170 0
159 168 0
158 169 0
156 162 0
160 169 0
163 173 0
162 172 0
160 170 0
163 174 0
162 173 0
164 177 0
158 169 0
160 172 0
165 179 0
166 178 0
173 196 0
170 193 0
172 195 0
171 194 0
171 193 0
175 197 0
172 195 0
171 194 0
177 199 0
172 195 0
174 196 0
171 193 0
175 196 0
174 196 0
171 193 0
172 195 0
173 194 0
173 196 0
174 195 0
175 197 0
172 194 0
172 194 0
176 197 0
172 194 0
172 193 0
172 194 0
169 191 0
172 194 0
173 195 0
171 193 0
174 195 0
173 194 0
171 193 0
172 193 0
175 196 0
171 193 0
175 197 0
171 193 0
173 195 0
172 194 0
172 193 0
171 192 0
170 192 0
173 196 0
168 190 0
169 190 0
168 189 0
171 192 0
169 190 0
170 191 0
173 193 0
173 194 0
170 191 0
168 189 0
165 187 0
174 195 0
166 187 0
172 195 0
172 193 0
170 190 0
170 191 0
169 190 0
170 192 0
171 193 0
165 187 0
167 189 0
165 186 0
168 189 0
168 190 0
159 181 0
171 192 0
165 187 0
164 185 0
160 183 0
167 189 0
165 186 0
164 186 0
161 183 0
167 188 0
171 192 0
166 187 0
162 183 0
162 185 0
165 186 0
161 184 0
168 190 0
160 181 0
161 184 0
164 186 0
163 185 0
156 178 0
163 185 0
165 186 0
158 180 0
158 179 0
156 178 0
162 185 0
157 178 0
157 179 0
167 189 0
157 179 0
153 175 0
159 181 0
160 182 0
158 180 0
157 178 0
155 177 0
145 167 0
155 175 0
157 178 0
158 180 0
157 180 0
157 179 0
152 174 0
156 178 0
153 174 0
150 172 0
156 177 0
157 179 0
153 176 0
159 182 0
152 174 0
157 179 0
157 179 0
158 181 0
155 178 0
157 180 0
152 174 0
155 176 0
146 170 0
161 182 0
152 173 0
148 171 0
144 166 0
143 163 0
157 180 0
150 172 0
150 171 0
152 174 0
153 174 0
146 167 0
147 169 0
150 172 0
140 161 0
146 169 0
150 173 0
147 169 0
150 172 0
146 168 0
148 171 0
144 166 0
151 172 0
148 169 0
143 165 0
151 174 0
142 163 0
146 167 0
146 167 0
144 165 0
137 156 0
139 160 0
144 165 0
143 165 0
139 161 0
140 160 0
140 162 0
145 167 0
141 162 0
147 169 0
141 161 0
141 160 0
131 151 0
133 154 0
137 157 0
133 154 0
127 146 0
135 156 0
135 155 0
135 156 0
137 158 0
126 145 0
137 157 0
139 160 0
140 161 0
141 161 0
130 147 0
137 157 0
140 160 0
121 141 0
136 156 0
121 141 0
127 145 0
130 148 0
130 150 0
137 156 0
134 154 0
131 152 0
120 137 0
138 157 0
121 140 0
129 149 0
130 149 0
129 148 0
128 146 0
125 145 0
129 147 0
131 152 0
131 149 0
135 153 0
125 143 0
139 158 0
127 147 0
130 150 0
135 155 0
126 145 0
128 146 0
126 145 0
136 154 0
134 154 0
132 149 0
131 149 0
126 145 0
126 143 0
137 156 0
130 148 0
142 160 0
135 153 0
124 142 0
127 144 0
147 167 0
131 149 0
134 153 0
129 147 0
136 154 0
127 146 0
137 152 0
136 154 0
122 137 0
138 155 0
138 156 0
131 149 0
134 152 0
128 144 0
134 152 0
137 154 0
129 146 0
147 166 0
135 151 0
143 160 0
135 152 0
145 163 0
142 157 0
130 147 0
140 156 0
140 157 0
132 146 0
138 155 0
139 155 0
145 162 0
140 155 0
144 160 0
140 155 0
141 159 0
133 147 0
141 156 0
138 155 0
139 153 0
141 152 0
142 158 0
136 150 0
140 157 0
123 138 0
145 158 0
136 151 0
141 155 0
135 147 0
141 153 0
139 153 0
140 152 0
141 154 0
146 159 0
135 148 0
143 155 0
138 151 0
141 153 0
140 151 0
138 150 0
141 152 0
141 152 0
144 154 0
146 157 0
137 150 0
130 139 0
142 155 0
141 147 0
144 154 0
137 146 0
143 152 0
134 143 0
135 143 0
143 150 0
138 146 0
143 151 0
132 138 0
148 160 0
150 160 0
137 142 0
134 141 0
134 137 0
141 148 0
139 144 0
135 140 0
136 140 0
149 154 0
130 135 0
137 138 0
137 140 0
146 145 0
130 132 0
138 142 0
136 134 0
139 139 0
130 128 0
126 124 0
135 134 0
132 128 0
138 137 0
132 131 0
135 129 0
134 131 0
135 137 0
141 140 0
133 129 0
140 139 0
127 124 0
136 136 0
135 134 0
147 147 0
128 125 0
133 129 0
140 138 0
142 142 0
138 136 0
140 135 0
139 136 0
142 144 0
135 130 0
145 145 0
141 138 0
139 137 0
140 140 0
141 139 0
134 132 0
135 132 0
139 136 0
147 147 0
140 136 0
144 145 0
141 139 0
142 138 0
151 152 0
145 141 0
146 145 0
150 151 0
147 148 0
147 150 0
150 153 0
150 152 0
150 153 0
148 147 0
148 147 0
148 147 0
154 158 0
154 158 0
153 157 0
159 166 0
152 156 0
159 166 0
155 159 0
159 164 0
152 157 0
151 157 0
156 165 0
157 165 0
154 161 0
156 161 0
156 161 0
159 170 0
156 166 0
158 165 0
160 168 0
153 160 0
161 169 0
162 173 0
161 173 0
161 172 0
161 173 0
166 179 0
163 176 0
168 182 0
170 193 0
173 196 0
171 194 0
173 195 0
172 195 0
172 195 0
175 197 0
175 197 0
173 195 0
173 195 0
172 194 0
171 193 0
175 197 0
171 193 0
171 194 0
169 191 0
176 197 0
173 195 0
173 195 0
174 196 0
175 197 0
171 193 0
173 195 0
173 195 0
171 193 0
175 197 0
175 196 0
170 192 0
169 190 0
173 195 0
171 193 0
173 194 0
173 194 0
169 191 0
177 198 0
170 191 0
167 189 0
172 193 0
171 193 0
170 192 0
173 195 0
172 193 0
174 194 0
168 190 0
171 193 0
175 197 0
173 194 0
172 192 0
172 194 0
169 191 0
169 190 0
175 197 0
171 193 0
169 190 0
167 188 0
170 191 0
170 192 0
173 194 0
174 196 0
168 190 0
173 193 0
166 187 0
167 188 0
168 190 0
166 188 0
167 188 0
171 193 0
164 184 0
171 192 0
167 188 0
165 186 0
163 186 0
162 183 0
160 181 0
168 189 0
167 189 0
167 189 0
169 190 0
162 184 0
164 186 0
162 182 0
162 184 0
160 182 0
162 184 0
163 185 0
160 183 0
163 185 0
161 182 0
154 177 0
165 187 0
160 182 0
162 183 0
165 187 0
160 182 0
159 181 0
163 184 0
158 179 0
157 179 0
155 176 0
161 184 0
164 186 0
163 184 0
164 186 0
161 183 0
152 174 0
154 176 0
163 185 0
150 171 0
152 175 0
147 170 0
154 176 0
153 176 0
158 180 0
153 175 0
163 185 0
157 180 0
156 177 0
158 180 0
153 176 0
157 180 0
155 177 0
155 177 0
152 174 0
153 175 0
146 168 0
159 181 0
150 173 0
155 178 0
146 169 0
155 176 0
151 173 0
147 169 0
153 175 0
148 170 0
151 172 0
152 174 0
149 170 0
150 171 0
147 169 0
153 175 0
150 172 0
154 175 0
150 172 0
151 174 0
146 167 0
156 179 0
144 164 0
156 179 0
149 172 0
144 166 0
144 166 0
150 172 0
152 174 0
148 169 0
145 167 0
142 163 0
147 169 0
145 166 0
144 165 0
138 160 0
146 168 0
142 165 0
149 172 0
135 156 0
145 166 0
148 169 0
138 160 0
143 163 0
138 158 0
135 155 0
140 159 0
137 157 0
142 164 0
142 163 0
134 155 0
130 150 0
147 169 0
139 161 0
130 151 0
142 162 0
140 161 0
138 158 0
135 156 0
140 159 0
135 156 0
137 158 0
136 156 0
139 158 0
138 158 0
142 164 0
134 156 0
147 168 0
130 150 0
134 154 0
130 150 0
133 154 0
128 147 0
131 151 0
125 146 0
141 160 0
139 159 0
136 154 0
126 146 0
136 155 0
135 155 0
124 144 0
130 149 0
137 156 0
129 147 0
132 150 0
131 151 0
140 158 0
131 147 0
132 152 0
128 147 0
126 144 0
125 144 0
132 149 0
131 151 0
137 154 0
131 148 0
132 148 0
134 151 0
127 146 0
139 157 0
133 151 0
131 150 0
133 149 0
136 154 0
133 149 0
127 144 0
130 149 0
130 148 0
136 153 0
130 148 0
135 154 0
131 148 0
133 151 0
130 145 0
136 152 0
135 152 0
144 161 0
136 152 0
128 142 0
135 153 0
136 155 0
124 142 0
131 150 0
130 144 0
138 155 0
135 151 0
138 153 0
135 150 0
146 164 0
143 160 0
134 150 0
137 152 0
138 154 0
135 149 0
136 153 0
136 151 0
139 155 0
126 142 0
145 162 0
139 153 0
138 154 0
135 150 0
139 156 0
133 147 0
142 157 0
139 152 0
138 152 0
144 156 0
143 158 0
148 165 0
139 152 0
142 157 0
140 152 0
142 157 0
142 156 0
141 155 0
136 147 0
138 150 0
137 150 0
137 150 0
140 152 0
144 156 0
147 161 0
137 147 0
142 154 0
135 147 0
140 152 0
140 149 0
143 155 0
140 153 0
133 143 0
142 152 0
132 140 0
133 140 0
135 145 0
136 145 0
138 144 0
144 152 0
139 147 0
131 135 0
139 151 0
141 148 0
133 136 0
139 149 0
135 140 0
132 136 0
138 141 0
136 141 0
146 152 0
128 131 0
140 145 0
146 153 0
144 143 0
134 140 0
141 143 0
140 144 0
139 143 0
141 143 0
135 139 0
137 137 0
142 144 0
142 141 0
140 143 0
139 139 0
139 139 0
136 137 0
143 142 0
136 137 0
143 144 0
137 136 0
141 143 0
141 139 0
139 139 0
143 143 0
135 132 0
139 138 0
138 137 0
139 137 0
145 141 0
134 130 0
144 144 0
137 136 0
148 149 0
139 134 0
137 135 0
135 132 0
141 139 0
141 140 0
135 135 0
142 139 0
146 146 0
143 140 0
146 149 0
145 144 0
144 144 0
146 145 0
147 148 0
142 141 0
141 140 0
151 155 0
145 143 0
149 149 0
145 145 0
146 147 0
148 150 0
145 146 0
154 156 0
147 150 0
155 159 0
150 154 0
151 155 0
153 157 0
151 156 0
153 158 0
155 161 0
154 160 0
158 164 0
154 157 0
159 167 0
160 167 0
158 165 0
159 166 0
161 171 0
161 170 0
157 164 0
161 172 0
161 170 0
156 163 0
161 172 0
162 171 0
162 172 0
161 172 0
164 175 0
159 169 0
161 169 0
172 195 0
173 195 0
174 196 0
171 194 0
175 197 0
172 194 0
171 195 0
170 193 0
174 196 0
173 195 0
172 195 0
174 196 0
175 197 0
172 194 0
174 196 0
171 193 0
175 196 0
172 194 0
174 196 0
171 193 0
172 194 0
170 192 0
171 193 0
171 193 0
173 195 0
169 190 0
175 197 0
171 191 0
177 199 0
173 195 0
175 196 0
173 196 0
173 195 0
175 197 0
170 191 0
170 192 0
174 196 0
171 193 0
170 192 0
172 194 0
172 193 0
173 195 0
175 196 0
170 191 0
172 194 0
173 194 0
170 191 0
174 195 0
174 195 0
173 194 0
173 193 0
174 195 0
166 187 0
173 194 0
166 188 0
171 191 0
170 191 0
173 195 0
167 189 0
169 191 0
167 188 0
168 190 0
167 189 0
164 185 0
164 186 0
169 189 0
167 189 0
161 183 0
166 189 0
165 187 0
165 186 0
163 184 0
161 183 0
163 184 0
163 185 0
162 184 0
165 187 0
165 186 0
166 189 0
164 186 0
161 182 0
168 189 0
164 187 0
157 179 0
159 181 0
163 184 0
169 190 0
166 189 0
166 189 0
163 185 0
163 185 0
159 181 0
157 179 0
161 183 0
162 183 0
161 183 0
154 177 0
161 183 0
165 187 0
158 180 0
158 181 0
157 179 0
158 180 0
158 180 0
160 182 0
161 183 0
155 177 0
153 175 0
161 183 0
153 175 0
156 179 0
157 179 0
160 182 0
146 168 0
157 179 0
155 177 0
163 186 0
158 180 0
157 180 0
154 175 0
160 183 0
155 178 0
154 176 0
147 169 0
152 174 0
151 173 0
152 174 0
149 172 0
160 180 0
154 177 0
154 176 0
150 174 0
154 175 0
146 167 0
153 175 0
157 179 0
155 177 0
152 173 0
144 166 0
148 170 0
150 172 0
149 172 0
148 171 0
148 169 0
143 164 0
154 176 0
147 168 0
147 169 0
161 182 0
146 167 0
147 169 0
141 161 0
142 164 0
153 175 0
132 154 0
142 164 0
145 166 0
151 173 0
148 168 0
144 167 0
147 168 0
141 161 0
145 166 0
141 161 0
142 165 0
137 158 0
143 165 0
142 164 0
141 163 0
140 161 0
130 151 0
141 162 0
140 160 0
136 158 0
146 166 0
129 150 0
140 161 0
141 161 0
137 159 0
137 158 0
129 150 0
133 153 0
122 142 0
132 152 0
142 161 0
142 163 0
135 156 0
142 163 0
144 165 0
142 163 0
137 158 0
133 155 0
136 156 0
138 158 0
140 158 0
130 150 0
135 155 0
127 147 0
127 147 0
127 147 0
135 155 0
135 155 0
126 146 0
125 144 0
132 153 0
132 151 0
128 148 0
128 147 0
133 152 0
140 158 0
137 157 0
140 159 0
131 150 0
132 151 0
129 148 0
133 152 0
135 154 0
123 141 0
128 146 0
125 142 0
132 149 0
137 157 0
122 141 0
139 156 0
143 161 0
130 149 0
136 155 0
134 152 0
138 156 0
142 159 0
130 148 0
139 157 0
141 159 0
137 154 0
140 158 0
130 148 0
132 148 0
134 151 0
138 156 0
138 157 0
142 161 0
129 148 0
140 156 0
136 154 0
133 148 0
136 155 0
142 159 0
132 146 0
144 162 0
146 164 0
134 151 0
134 152 0
138 157 0
144 163 0
146 161 0
140 159 0
133 151 0
136 152 0
132 148 0
140 155 0
140 158 0
134 151 0
134 150 0
139 156 0
137 155 0
121 136 0
139 156 0
140 155 0
143 160 0
142 157 0
140 156 0
138 153 0
134 148 0
138 154 0
142 157 0
139 152 0
140 154 0
143 156 0
132 146 0
139 153 0
141 151 0
131 142 0
144 159 0
137 147 0
139 152 0
139 152 0
140 151 0
135 148 0
141 151 0
141 151 0
138 150 0
136 146 0
139 151 0
136 148 0
141 153 0
134 143 0
139 148 0
139 151 0
138 147 0
148 160 0
137 146 0
136 145 0
138 146 0
142 153 0
144 150 0
133 139 0
145 152 0
144 152 0
133 139 0
148 158 0
145 151 0
139 142 0
139 143 0
141 147 0
138 144 0
143 145 0
141 146 0
145 151 0
145 150 0
138 140 0
133 131 0
132 132 0
147 150 0
139 143 0
143 148 0
135 137 0
139 142 0
145 148 0
140 143 0
141 145 0
134 136 0
139 141 0
136 137 0
137 136 0
137 139 0
139 140 0
138 138 0
140 141 0
139 141 0
133 132 0
135 136 0
144 145 0
146 147 0
138 135 0
138 136 0
136 136 0
137 133 0
135 132 0
143 142 0
140 139 0
146 146 0
140 138 0
141 140 0
146 145 0
137 135 0
142 138 0
148 150 0
143 142 0
147 148 0
148 148 0
144 143 0
145 148 0
148 150 0
149 150 0
149 151 0
150 153 0
153 156 0
149 150 0
146 146 0
149 152 0
150 153 0
155 158 0
151 155 0
151 153 0
145 144 0
155 162 0
148 150 0
153 158 0
154 160 0
159 167 0
155 159 0
153 158 0
153 158 0
153 158 0
156 160 0
155 162 0
157 166 0
159 167 0
160 168 0
161 170 0
155 161 0
159 167 0
158 170 0
162 174 0
161 172 0
158 167 0
160 167 0
162 171 0
158 168 0
162 173 0
176 198 0
171 193 0
172 195 0
171 194 0
169 192 0
171 193 0
174 196 0
174 196 0
172 194 0
174 196 0
173 195 0
170 193 0
172 193 0
171 192 0
173 195 0
172 194 0
174 197 0
176 197 0
173 195 0
172 194 0
172 194 0
174 196 0
173 195 0
171 193 0
170 192 0
173 194 0
172 193 0
172 194 0
174 195 0
175 196 0
169 190 0
171 193 0
173 195 0
170 192 0
171 192 0
175 196 0
172 193 0
167 188 0
173 194 0
171 192 0
173 195 0
167 189 0
169 190 0
170 192 0
169 191 0
172 194 0
169 191 0
171 192 0
169 191 0
169 191 0
171 191 0
172 193 0
170 192 0
172 193 0
169 191 0
169 190 0
171 192 0
167 188 0
168 190 0
165 188 0
169 191 0
164 187 0
167 188 0
168 189 0
163 185 0
169 191 0
167 188 0
166 188 0
168 188 0
169 191 0
166 186 0
166 187 0
158 179 0
165 186 0
165 187 0
162 184 0
164 185 0
165 186 0
165 187 0
166 187 0
162 184 0
161 183 0
165 187 0
162 183 0
164 185 0
169 191 0
164 186 0
170 191 0
160 181 0
161 184 0
162 184 0
162 184 0
155 178 0
162 183 0
154 176 0
161 183 0
157 179 0
157 179 0
160 181 0
153 177 0
158 181 0
153 175 0
153 175 0
159 181 0
156 178 0
158 180 0
154 177 0
157 179 0
153 175 0
159 181 0
159 180 0
149 170 0
158 180 0
149 171 0
154 176 0
158 180 0
152 173 0
151 172 0
155 176 0
160 181 0
153 175 0
153 175 0
157 179 0
157 179 0
161 182 0
161 184 0
148 170 0
160 182 0
156 178 0
152 175 0
153 175 0
156 178 0
160 182 0
151 175 0
150 173 0
156 178 0
150 170 0
148 170 0
155 176 0
155 177 0
151 172 0
151 173 0
147 169 0
145 167 0
148 170 0
156 177 0
145 166 0
149 170 0
149 171 0
155 177 0
151 173 0
150 172 0
156 178 0
149 171 0
151 173 0
148 170 0
145 167 0
139 160 0
147 167 0
149 170 0
140 161 0
147 169 0
147 169 0
145 167 0
141 163 0
138 159 0
145 166 0
144 166 0
138 158 0
140 161 0
139 161 0
139 161 0
144 165 0
132 153 0
137 158 0
144 162 0
130 149 0
137 158 0
142 163 0
139 160 0
139 160 0
129 150 0
138 159 0
144 163 0
135 156 0
141 160 0
139 158 0
140 160 0
140 161 0
141 162 0
138 158 0
143 164 0
141 163 0
137 158 0
140 159 0
134 154 0
135 156 0
144 164 0
128 149 0
137 156 0
134 154 0
135 154 0
133 153 0
143 163 0
128 148 0
134 153 0
131 151 0
130 149 0
132 152 0
134 152 0
136 155 0
136 155 0
129 148 0
141 161 0
142 163 0
135 155 0
137 155 0
131 149 0
138 157 0
143 162 0
134 151 0
129 146 0
144 162 0
148 169 0
137 156 0
140 160 0
134 153 0
136 154 0
136 155 0
134 153 0
144 162 0
133 153 0
126 143 0
137 156 0
138 156 0
140 158 0
139 158 0
129 148 0
135 152 0
130 147 0
141 160 0
130 148 0
133 148 0
135 151 0
139 156 0
145 164 0
139 156 0
132 150 0
141 158 0
137 155 0
145 161 0
140 159 0
140 157 0
145 163 0
142 156 0
143 162 0
133 149 0
140 156 0
139 157 0
145 163 0
131 147 0
134 148 0
143 160 0
142 157 0
138 154 0
141 155 0
140 155 0
139 155 0
135 151 0
142 160 0
138 152 0
145 158 0
142 159 0
134 150 0
135 149 0
134 147 0
132 145 0
136 147 0
141 157 0
134 147 0
143 155 0
144 159 0
141 155 0
146 159 0
144 156 0
145 157 0
140 151 0
149 161 0
140 153 0
141 154 0
136 148 0
141 152 0
147 160 0
132 145 0
146 157 0
144 153 0
147 159 0
141 152 0
139 148 0
141 151 0
152 164 0
139 149 0
146 157 0
141 152 0
145 156 0
135 144 0
143 153 0
150 158 0
140 150 0
143 150 0
137 143 0
143 152 0
138 142 0
147 155 0
143 150 0
139 145 0
132 138 0
134 138 0
142 147 0
132 135 0
147 155 0
134 136 0
139 145 0
141 144 0
141 144 0
139 143 0
142 148 0
145 148 0
142 143 0
142 143 0
145 149 0
138 139 0
143 143 0
133 134 0
134 135 0
136 136 0
145 145 0
149 152 0
140 142 0
138 137 0
142 141 0
149 149 0
135 137 0
137 137 0
142 144 0
143 145 0
144 148 0
135 132 0
140 141 0
138 137 0
144 146 0
148 148 0
147 151 0
148 150 0
151 153 0
144 142 0
146 149 0
139 137 0
143 144 0
146 145 0
142 142 0
145 145 0
153 155 0
150 151 0
143 143 0
147 149 0
138 138 0
150 153 0
152 154 0
149 149 0
151 154 0
148 151 0
146 147 0
144 146 0
153 157 0
148 149 0
152 154 0
157 161 0
152 157 0
154 158 0
151 155 0
154 159 0
155 161 0
156 163 0
158 164 0
156 162 0
152 158 0
160 169 0
158 165 0
157 167 0
157 164 0
155 160 0
161 170 0
160 168 0
161 172 0
160 168 0
157 168 0
161 171 0
161 169 0
161 171 0
174 197 0
171 193 0
174 196 0
173 196 0
171 194 0
173 195 0
173 195 0
174 197 0
171 193 0
173 195 0
173 195 0
174 197 0
169 191 0
170 192 0
173 196 0
175 197 0
172 194 0
175 196 0
175 197 0
173 195 0
173 195 0
176 198 0
173 196 0
172 195 0
173 195 0
168 191 0
173 194 0
174 195 0
172 195 0
173 194 0
175 197 0
169 191 0
174 195 0
172 194 0
174 196 0
171 192 0
169 190 0
174 195 0
168 191 0
175 196 0
173 194 0
171 192 0
171 192 0
169 190 0
172 193 0
174 195 0
174 195 0
169 190 0
168 190 0
168 190 0
169 191 0
167 189 0
168 190 0
168 189 0
169 190 0
170 191 0
169 191 0
171 193 0
165 186 0
173 194 0
168 190 0
167 189 0
160 182 0
169 191 0
168 189 0
162 184 0
169 190 0
161 182 0
167 188 0
167 189 0
156 177 0
167 189 0
165 188 0
168 191 0
166 188 0
165 186 0
159 181 0
166 188 0
160 181 0
161 184 0
166 188 0
164 187 0
166 187 0
165 187 0
163 184 0
156 179 0
163 185 0
160 183 0
164 185 0
164 186 0
164 187 0
163 184 0
155 176 0
161 183 0
159 182 0
163 186 0
157 179 0
160 183 0
163 186 0
161 184 0
153 174 0
159 180 0
156 180 0
160 183 0
161 183 0
162 183 0
161 183 0
157 179 0
158 179 0
156 178 0
157 180 0
160 182 0
162 184 0
159 182 0
160 183 0
157 179 0
159 181 0
156 178 0
146 169 0
151 174 0
152 174 0
155 177 0
155 178 0
157 178 0
159 181 0
146 167 0
159 181 0
146 168 0
150 172 0
154 177 0
155 177 0
160 182 0
154 175 0
155 179 0
150 172 0
151 172 0
147 169 0
154 176 0
148 170 0
152 175 0
160 182 0
145 166 0
152 174 0
146 167 0
149 171 0
151 174 0
157 178 0
151 174 0
145 167 0
155 176 0
145 166 0
146 167 0
148 170 0
141 163 0
151 171 0
149 171 0
145 166 0
147 168 0
149 169 0
148 169 0
150 171 0
148 171 0
143 164 0
152 174 0
150 172 0
143 164 0
144 166 0
144 166 0
142 164 0
134 154 0
143 164 0
138 160 0
143 164 0
147 168 0
141 163 0
144 164 0
145 166 0
141 163 0
139 160 0
137 157 0
139 160 0
132 153 0
146 167 0
141 162 0
136 157 0
139 160 0
138 159 0
136 155 0
137 157 0
139 158 0
132 151 0
125 145 0
136 157 0
136 156 0
134 155 0
126 145 0
137 158 0
138 159 0
136 156 0
137 156 0
130 149 0
133 154 0
139 160 0
136 156 0
132 150 0
142 161 0
137 156 0
144 163 0
139 159 0
137 155 0
146 166 0
136 157 0
138 158 0
133 152 0
138 158 0
139 158 0
138 158 0
130 150 0
132 151 0
127 146 0
129 149 0
141 161 0
134 153 0
141 160 0
136 153 0
133 151 0
136 156 0
124 141 0
145 165 0
129 148 0
133 150 0
135 155 0
137 156 0
135 152 0
141 160 0
140 156 0
135 153 0
144 164 0
134 152 0
140 157 0
140 159 0
132 149 0
148 165 0
126 146 0
140 158 0
137 155 0
136 153 0
130 147 0
141 157 0
138 153 0
134 151 0
139 155 0
132 151 0
144 163 0
141 158 0
141 158 0
141 161 0
148 166 0
131 148 0
140 154 0
148 165 0
131 148 0
138 154 0
139 155 0
142 155 0
141 158 0
146 162 0
141 156 0
138 152 0
147 161 0
143 159 0
134 150 0
150 165 0
150 167 0
137 153 0
135 152 0
143 157 0
143 160 0
136 148 0
142 156 0
124 139 0
134 146 0
145 157 0
143 156 0
135 148 0
145 159 0
132 145 0
140 152 0
141 154 0
150 164 0
135 147 0
140 153 0
137 149 0
143 156 0
142 154 0
137 149 0
138 149 0
122 131 0
137 150 0
143 154 0
130 140 0
132 139 0
142 154 0
145 153 0
135 145 0
145 153 0
148 158 0
141 151 0
141 151 0
135 143 0
147 158 0
147 157 0
142 150 0
139 144 0
139 147 0
143 150 0
143 151 0
137 145 0
142 149 0
142 147 0
139 144 0
134 139 0
142 146 0
147 152 0
146 153 0
147 151 0
143 148 0
143 148 0
137 140 0
144 148 0
139 142 0
145 148 0
136 137 0
141 143 0
144 147 0
130 130 0
141 142 0
145 148 0
136 137 0
139 140 0
143 147 0
140 139 0
144 149 0
137 136 0
143 146 0
141 142 0
142 144 0
141 144 0
140 139 0
141 141 0
147 148 0
141 143 0
145 146 0
143 144 0
145 145 0
142 140 0
142 143 0
144 145 0
145 145 0
138 136 0
147 151 0
145 147 0
149 150 0
147 147 0
147 148 0
147 145 0
145 144 0
149 148 0
150 152 0
149 150 0
143 146 0
149 151 0
148 151 0
149 154 0
154 159 0
155 160 0
149 152 0
150 153 0
154 158 0
154 156 0
153 156 0
152 157 0
153 161 0
153 159 0
149 153 0
156 165 0
155 161 0
156 164 0
157 165 0
156 164 0
160 172 0
162 172 0
163 173 0
156 164 0
161 171 0
161 171 0
157 165 0
158 166 0
158 169 0
161 173 0
170 192 0
173 195 0
172 194 0
175 197 0
173 195 0
170 193 0
172 194 0
175 197 0
171 193 0
169 193 0
173 195 0
172 194 0
170 192 0
170 192 0
172 195 0
175 197 0
176 198 0
173 195 0
173 195 0
172 194 0
172 194 0
173 195 0
173 195 0
169 191 0
172 194 0
171 193 0
171 193 0
170 192 0
173 194 0
173 195 0
171 192 0
172 193 0
176 197 0
173 195 0
175 196 0
174 195 0
173 194 0
166 188 0
173 195 0
172 193 0
169 191 0
172 193 0
163 186 0
169 191 0
174 195 0
169 191 0
168 189 0
170 192 0
170 192 0
169 191 0
170 191 0
170 192 0
168 190 0
166 187 0
168 189 0
167 188 0
172 194 0
168 190 0
165 185 0
165 187 0
172 194 0
168 190 0
165 186 0
164 186 0
163 185 0
167 188 0
170 192 0
171 193 0
171 192 0
162 184 0
166 188 0
163 184 0
165 187 0
167 189 0
158 180 0
163 185 0
164 186 0
163 186 0
159 180 0
160 182 0
162 184 0
166 188 0
162 185 0
164 186 0
160 182 0
158 181 0
157 180 0
163 185 0
161 183 0
163 185 0
156 178 0
160 181 0
162 183 0
161 184 0
156 178 0
162 184 0
161 184 0
158 181 0
153 174 0
158 180 0
159 181 0
156 179 0
149 171 0
160 183 0
148 170 0
161 182 0
158 181 0
156 178 0
152 173 0
153 176 0
158 180 0
154 176 0
156 178 0
155 177 0
163 186 0
156 178 0
158 179 0
154 177 0
156 177 0
152 173 0
158 180 0
159 182 0
154 176 0
155 177 0
148 171 0
156 178 0
164 187 0
152 174 0
161 184 0
157 180 0
152 175 0
151 174 0
158 180 0
145 167 0
141 163 0
147 169 0
148 171 0
154 176 0
141 163 0
152 175 0
157 180 0
151 173 0
151 173 0
158 180 0
145 167 0
148 170 0
150 172 0
152 174 0
147 169 0
147 168 0
146 168 0
134 156 0
151 172 0
141 164 0
157 179 0
153 176 0
144 166 0
144 165 0
143 165 0
148 171 0
149 171 0
144 165 0
142 164 0
137 158 0
146 167 0
139 160 0
147 169 0
143 164 0
149 170 0
145 166 0
137 159 0
134 154 0
139 160 0
152 174 0
143 163 0
140 161 0
136 157 0
141 161 0
146 167 0
141 162 0
144 164 0
137 157 0
139 160 0
140 161 0
140 161 0
130 150 0
140 159 0
133 154 0
141 161 0
136 157 0
142 163 0
141 161 0
137 157 0
146 167 0
147 167 0
134 154 0
141 162 0
134 155 0
130 151 0
136 155 0
144 164 0
132 153 0
146 166 0
136 157 0
142 162 0
137 155 0
140 159 0
136 156 0
130 148 0
147 167 0
141 162 0
143 164 0
143 163 0
134 155 0
144 162 0
140 158 0
128 147 0
128 148 0
135 156 0
129 149 0
133 152 0
147 168 0
140 159 0
133 153 0
144 163 0
134 155 0
143 160 0
132 151 0
127 147 0
139 159 0
129 147 0
141 161 0
125 144 0
144 165 0
143 162 0
136 156 0
142 161 0
129 146 0
142 159 0
137 155 0
139 158 0
140 160 0
131 150 0
138 154 0
131 146 0
141 159 0
136 154 0
146 165 0
142 159 0
137 154 0
142 159 0
132 147 0
142 159 0
136 153 0
135 152 0
134 151 0
142 159 0
142 159 0
138 156 0
140 157 0
143 161 0
152 169 0
135 151 0
150 167 0
127 141 0
136 150 0
130 144 0
141 157 0
140 156 0
140 156 0
143 160 0
142 160 0
139 154 0
138 151 0
148 162 0
143 158 0
139 154 0
146 163 0
142 159 0
136 149 0
145 158 0
147 162 0
140 156 0
136 147 0
149 166 0
136 149 0
142 154 0
139 154 0
142 157 0
145 157 0
142 157 0
148 162 0
136 146 0
137 151 0
139 152 0
145 158 0
137 149 0
140 153 0
140 152 0
143 154 0
149 163 0
145 157 0
144 155 0
138 148 0
144 155 0
146 158 0
147 157 0
140 145 0
136 145 0
141 149 0
145 152 0
145 157 0
145 156 0
149 160 0
145 155 0
145 152 0
147 155 0
145 155 0
149 157 0
139 147 0
135 140 0
147 154 0
141 148 0
134 138 0
148 154 0
137 140 0
149 155 0
140 145 0
141 144 0
149 156 0
143 151 0
150 156 0
147 154 0
152 161 0
140 139 0
138 139 0
135 137 0
153 155 0
137 140 0
138 140 0
148 153 0
142 144 0
152 158 0
142 143 0
138 142 0
150 156 0
146 146 0
145 146 0
142 142 0
147 151 0
148 148 0
142 142 0
146 148 0
150 154 0
140 140 0
146 147 0
148 149 0
144 143 0
153 157 0
146 149 0
149 154 0
148 152 0
144 149 0
147 150 0
153 157 0
146 145 0
151 152 0
148 151 0
153 156 0
150 153 0
144 147 0
146 148 0
151 154 0
154 159 0
153 157 0
154 157 0
153 157 0
155 155 0
149 152 0
151 153 0
150 155 0
148 151 0
158 166 0
157 162 0
156 163 0
158 167 0
151 155 0
156 163 0
153 158 0
156 163 0
156 164 0
159 167 0
159 168 0
159 164 0
158 166 0
154 160 0
161 171 0
156 164 0
157 162 0
161 170 0
175 197 0
173 195 0
176 198 0
172 194 0
173 195 0
174 196 0
173 195 0
174 196 0
172 194 0
170 192 0
170 192 0
171 194 0
173 195 0
172 194 0
175 197 0
172 194 0
168 190 0
172 195 0
171 193 0
174 196 0
175 196 0
171 192 0
173 194 0
174 195 0
173 194 0
172 193 0
170 193 0
168 190 0
176 197 0
171 192 0
170 192 0
171 193 0
170 192 0
170 192 0
167 189 0
171 192 0
170 192 0
175 197 0
170 192 0
173 195 0
169 190 0
168 190 0
167 189 0
173 194 0
173 195 0
171 193 0
167 190 0
164 185 0
168 190 0
167 189 0
168 189 0
169 190 0
172 193 0
166 187 0
164 187 0
167 188 0
169 190 0
165 186 0
169 191 0
167 189 0
162 184 0
168 189 0
164 186 0
164 186 0
166 188 0
171 192 0
169 191 0
160 182 0
167 189 0
169 190 0
169 190 0
155 178 0
166 187 0
165 188 0
161 182 0
162 184 0
164 185 0
167 189 0
154 177 0
158 180 0
169 192 0
163 185 0
164 186 0
169 191 0
163 184 0
162 185 0
160 183 0
160 182 0
161 183 0
161 183 0
166 189 0
161 182 0
162 184 0
159 181 0
162 184 0
164 186 0
157 179 0
165 187 0
159 182 0
161 183 0
153 175 0
158 180 0
164 186 0
157 180 0
162 184 0
154 176 0
157 180 0
156 178 0
160 183 0
152 175 0
160 184 0
162 185 0
157 179 0
152 175 0
151 174 0
158 180 0
158 181 0
162 184 0
158 180 0
158 180 0
154 176 0
149 171 0
157 179 0
150 173 0
156 176 0
160 183 0
154 177 0
155 177 0
158 179 0
163 185 0
152 174 0
152 173 0
155 177 0
152 175 0
152 175 0
152 174 0
155 177 0
155 176 0
146 168 0
153 175 0
156 178 0
154 177 0
150 171 0
155 177 0
144 165 0
139 161 0
151 173 0
150 173 0
153 174 0
140 160 0
146 168 0
146 168 0
147 168 0
149 172 0
136 157 0
146 167 0
140 162 0
147 168 0
145 167 0
143 165 0
148 170 0
141 162 0
148 169 0
148 169 0
143 165 0
145 167 0
139 160 0
141 161 0
146 167 0
137 159 0
142 164 0
147 169 0
136 156 0
145 167 0
147 168 0
139 160 0
138 159 0
139 160 0
149 170 0
145 166 0
141 162 0
141 160 0
138 158 0
140 161 0
137 156 0
144 164 0
129 149 0
143 164 0
141 162 0
136 156 0
127 147 0
135 155 0
143 163 0
147 168 0
145 166 0
136 156 0
133 154 0
136 155 0
142 161 0
142 164 0
134 153 0
131 150 0
139 160 0
147 166 0
133 153 0
140 161 0
136 156 0
140 159 0
145 165 0
132 152 0
139 159 0
138 158 0
142 160 0
131 152 0
137 155 0
143 163 0
135 152 0
136 156 0
132 151 0
127 146 0
138 157 0
126 144 0
135 154 0
134 153 0
135 155 0
138 157 0
131 150 0
128 146 0
138 156 0
136 156 0
139 158 0
140 160 0
146 165 0
136 155 0
133 149 0
140 158 0
137 155 0
137 154 0
132 149 0
144 161 0
141 158 0
144 163 0
147 167 0
134 153 0
131 148 0
142 160 0
134 152 0
144 162 0
130 146 0
137 155 0
139 158 0
132 150 0
143 160 0
137 152 0
142 160 0
143 160 0
141 158 0
135 152 0
146 164 0
142 157 0
146 161 0
146 164 0
150 167 0
138 154 0
141 157 0
142 161 0
138 155 0
143 157 0
138 154 0
137 151 0
138 153 0
148 165 0
138 155 0
138 155 0
136 151 0
150 165 0
139 154 0
144 161 0
140 157 0
143 156 0
144 160 0
136 154 0
144 157 0
149 166 0
143 160 0
143 155 0
148 159 0
150 164 0
149 162 0
146 161 0
139 151 0
138 150 0
144 157 0
144 159 0
140 152 0
147 162 0
138 149 0
148 162 0
147 158 0
148 161 0
145 159 0
146 157 0
139 151 0
143 153 0
144 153 0
140 151 0
140 148 0
144 153 0
145 155 0
146 156 0
138 144 0
147 158 0
139 147 0
150 160 0
137 143 0
143 151 0
139 144 0
146 158 0
139 146 0
136 141 0
141 149 0
142 150 0
144 153 0
145 154 0
153 159 0
143 149 0
145 151 0
143 148 0
143 148 0
144 146 0
146 150 0
149 154 0
139 144 0
148 152 0
149 153 0
147 152 0
148 153 0
147 150 0
135 133 0
136 138 0
135 136 0
145 148 0
143 145 0
138 140 0
147 150 0
142 143 0
143 144 0
140 143 0
143 144 0
150 155 0
148 150 0
141 142 0
145 147 0
153 158 0
142 138 0
141 143 0
145 145 0
147 150 0
136 136 0
144 142 0
148 150 0
141 140 0
144 145 0
151 151 0
150 154 0
148 148 0
147 148 0
151 154 0
152 158 0
153 159 0
151 153 0
154 160 0
151 155 0
151 155 0
151 155 0
153 158 0
145 148 0
152 155 0
155 159 0
149 152 0
151 154 0
155 160 0
152 157 0
148 156 0
159 168 0
158 165 0
158 161 0
154 161 0
157 161 0
155 162 0
160 170 0
163 173 0
161 169 0
159 170 0
159 167 0
160 169 0
162 172 0
160 169 0
164 175 0
155 164 0
171 193 0
174 195 0
174 197 0
176 198 0
169 191 0
173 195 0
175 196 0
172 193 0
176 198 0
172 193 0
168 190 0
169 193 0
172 194 0
174 196 0
172 194 0
169 191 0
176 197 0
171 192 0
173 195 0
170 193 0
175 196 0
171 193 0
170 192 0
170 192 0
168 190 0
171 193 0
170 192 0
171 192 0
169 190 0
168 190 0
172 193 0
172 194 0
167 188 0
174 196 0
170 190 0
175 196 0
169 191 0
171 192 0
169 190 0
170 193 0
172 194 0
169 191 0
167 189 0
168 190 0
169 190 0
171 193 0
172 194 0
172 193 0
166 187 0
174 197 0
170 191 0
170 192 0
164 185 0
168 189 0
169 190 0
168 191 0
162 184 0
169 190 0
160 182 0
167 190 0
166 189 0
162 184 0
167 188 0
164 186 0
170 191 0
163 186 0
169 191 0
168 189 0
165 187 0
164 185 0
167 189 0
164 186 0
167 189 0
163 184 0
160 181 0
163 185 0
166 189 0
163 183 0
162 184 0
162 184 0
160 182 0
165 188 0
162 184 0
161 182 0
160 183 0
166 187 0
160 183 0
162 184 0
161 184 0
161 184 0
164 187 0
159 180 0
165 187 0
165 188 0
160 181 0
159 181 0
159 180 0
159 181 0
165 187 0
156 179 0
163 186 0
159 181 0
160 183 0
158 181 0
159 181 0
163 185 0
161 183 0
159 181 0
161 184 0
165 186 0
152 174 0
154 176 0
156 180 0
159 182 0
155 177 0
155 178 0
154 176 0
154 177 0
156 179 0
154 177 0
157 179 0
153 175 0
154 177 0
153 174 0
156 178 0
155 177 0
154 176 0
155 178 0
164 186 0
152 175 0
154 177 0
155 177 0
146 168 0
153 175 0
155 177 0
159 182 0
155 177 0
149 171 0
151 173 0
150 173 0
150 172 0
157 179 0
155 177 0
154 176 0
151 175 0
149 171 0
141 164 0
153 175 0
149 171 0
148 171 0
145 166 0
148 170 0
148 171 0
143 164 0
151 174 0
140 163 0
145 166 0
149 169 0
153 174 0
143 165 0
142 163 0
144 167 0
152 174 0
148 169 0
144 166 0
143 163 0
139 160 0
149 169 0
149 171 0
139 161 0
144 165 0
139 160 0
147 167 0
142 163 0
141 162 0
145 166 0
142 163 0
140 162 0
142 163 0
137 158 0
138 159 0
134 155 0
147 169 0
146 167 0
143 163 0
144 165 0
139 160 0
136 156 0
143 164 0
146 168 0
140 160 0
146 167 0
147 168 0
140 161 0
143 165 0
152 172 0
134 156 0
127 148 0
133 151 0
141 161 0
137 158 0
132 153 0
140 160 0
136 157 0
137 156 0
142 162 0
144 164 0
137 157 0
140 159 0
142 161 0
137 157 0
140 158 0
139 159 0
137 157 0
141 161 0
133 153 0
138 157 0
136 155 0
133 154 0
138 156 0
144 163 0
137 158 0
141 162 0
142 162 0
142 161 0
127 146 0
138 155 0
138 157 0
142 161 0
141 161 0
137 155 0
147 167 0
145 164 0
138 158 0
137 154 0
141 160 0
137 156 0
125 143 0
130 147 0
134 152 0
140 159 0
140 159 0
130 147 0
145 164 0
138 157 0
141 160 0
141 158 0
138 155 0
135 155 0
136 154 0
141 158 0
139 157 0
140 157 0
144 162 0
148 166 0
142 160 0
141 157 0
138 157 0
143 158 0
136 153 0
142 159 0
140 157 0
142 160 0
143 162 0
148 166 0
140 155 0
137 153 0
136 150 0
141 158 0
153 169 0
149 164 0
143 162 0
144 160 0
154 171 0
138 153 0
147 162 0
142 157 0
143 158 0
144 160 0
140 154 0
143 155 0
146 160 0
138 152 0
132 142 0
151 167 0
145 161 0
148 163 0
145 160 0
141 155 0
151 167 0
142 153 0
142 156 0
137 146 0
145 157 0
145 159 0
137 150 0
141 155 0
147 160 0
143 155 0
138 151 0
144 157 0
144 157 0
145 155 0
145 155 0
150 160 0
138 148 0
142 151 0
148 159 0
145 155 0
153 162 0
142 153 0
146 155 0
145 155 0
141 150 0
148 158 0
149 155 0
133 139 0
146 156 0
139 148 0
146 153 0
145 153 0
138 144 0
142 153 0
144 150 0
143 150 0
141 149 0
140 145 0
146 154 0
142 148 0
141 147 0
143 148 0
147 152 0
153 162 0
142 147 0
142 147 0
149 153 0
143 149 0
142 147 0
146 150 0
149 153 0
148 153 0
145 147 0
144 147 0
144 145 0
142 143 0
145 149 0
144 144 0
146 148 0
138 140 0
140 143 0
139 142 0
143 144 0
149 154 0
147 151 0
142 142 0
144 145 0
146 148 0
144 146 0
149 152 0
149 154 0
143 143 0
146 146 0
148 150 0
144 146 0
151 156 0
143 148 0
148 149 0
148 152 0
147 150 0
148 151 0
154 158 0
155 158 0
153 156 0
152 157 0
153 158 0
156 163 0
148 151 0
151 155 0
154 160 0
152 154 0
154 159 0
155 158 0
158 162 0
153 158 0
154 159 0
155 164 0
153 157 0
151 157 0
159 167 0
157 163 0
156 163 0
156 165 0
157 162 0
157 164 0
153 158 0
154 161 0
155 163 0
162 169 0
160 169 0
160 172 0
172 195 0
174 197 0
169 192 0
174 196 0
172 194 0
174 197 0
173 195 0
170 192 0
173 195 0
172 194 0
172 194 0
174 195 0
173 195 0
176 197 0
169 192 0
173 196 0
172 194 0
176 197 0
173 195 0
172 194 0
171 193 0
173 195 0
169 191 0
169 191 0
172 195 0
167 190 0
171 193 0
171 192 0
173 195 0
170 192 0
172 194 0
167 189 0
173 194 0
169 191 0
172 193 0
173 195 0
167 188 0
170 192 0
174 195 0
173 194 0
167 190 0
172 194 0
171 194 0
170 192 0
166 189 0
170 192 0
169 190 0
171 193 0
168 190 0
168 190 0
171 192 0
168 190 0
174 195 0
170 193 0
170 192 0
169 191 0
164 186 0
173 194 0
165 187 0
163 185 0
166 187 0
165 187 0
164 186 0
160 182 0
162 185 0
161 182 0
160 182 0
170 192 0
167 189 0
167 190 0
166 188 0
168 190 0
162 185 0
163 185 0
161 182 0
161 183 0
164 185 0
164 186 0
160 182 0
163 185 0
169 190 0
165 186 0
160 182 0
160 182 0
159 181 0
168 189 0
159 181 0
159 182 0
156 178 0
161 183 0
162 185 0
158 181 0
159 181 0
165 187 0
160 182 0
152 174 0
157 180 0
161 184 0
158 180 0
159 181 0
158 180 0
159 181 0
157 179 0
159 182 0
160 181 0
156 178 0
160 183 0
150 172 0
151 174 0
156 179 0
156 178 0
155 177 0
157 179 0
155 178 0
156 179 0
157 180 0
161 184 0
154 176 0
149 171 0
153 174 0
158 180 0
150 172 0
153 175 0
151 173 0
155 178 0
153 176 0
150 173 0
158 181 0
158 180 0
156 178 0
153 175 0
153 176 0
155 177 0
155 177 0
154 176 0
153 176 0
150 173 0
147 170 0
150 173 0
151 174 0
152 174 0
147 169 0
154 176 0
152 174 0
150 172 0
147 169 0
156 178 0
150 172 0
146 168 0
156 177 0
152 173 0
149 171 0
146 168 0
157 179 0
142 165 0
153 174 0
148 168 0
157 178 0
141 164 0
143 164 0
147 169 0
149 170 0
153 174 0
146 167 0
147 168 0
141 161 0
153 174 0
136 158 0
143 165 0
143 165 0
149 170 0
149 170 0
146 168 0
143 166 0
136 156 0
151 172 0
136 158 0
140 161 0
151 172 0
147 167 0
145 167 0
136 157 0
144 165 0
146 167 0
143 164 0
142 163 0
142 163 0
146 167 0
135 156 0
140 162 0
141 162 0
142 163 0
139 159 0
141 162 0
138 159 0
142 164 0
141 162 0
142 163 0
149 170 0
143 162 0
149 169 0
141 162 0
145 163 0
136 156 0
141 160 0
147 166 0
136 155 0
132 152 0
140 159 0
132 149 0
134 153 0
138 157 0
137 156 0
141 161 0
128 146 0
139 157 0
135 155 0
140 160 0
139 159 0
142 162 0
143 162 0
145 166 0
148 167 0
141 162 0
134 153 0
147 167 0
136 155 0
139 158 0
146 165 0
141 160 0
143 162 0
141 161 0
142 161 0
133 153 0
130 146 0
137 155 0
139 156 0
145 165 0
141 159 0
132 150 0
135 152 0
148 169 0
132 151 0
139 158 0
148 166 0
135 153 0
133 149 0
138 156 0
141 159 0
152 173 0
142 160 0
141 161 0
147 166 0
141 160 0
141 159 0
139 156 0
137 155 0
139 156 0
142 162 0
144 161 0
142 161 0
156 176 0
144 161 0
146 162 0
149 166 0
144 163 0
147 165 0
137 153 0
137 153 0
143 160 0
148 165 0
134 149 0
148 166 0
151 166 0
144 162 0
146 163 0
140 155 0
148 164 0
145 162 0
137 149 0
142 157 0
144 158 0
146 160 0
137 152 0
141 153 0
143 158 0
138 154 0
149 164 0
147 161 0
139 152 0
145 161 0
143 158 0
139 149 0
146 162 0
142 154 0
145 158 0
144 158 0
151 164 0
144 158 0
141 155 0
142 154 0
146 159 0
139 151 0
137 148 0
149 160 0
145 156 0
144 154 0
134 143 0
138 147 0
148 160 0
148 160 0
150 162 0
150 160 0
140 146 0
140 149 0
137 144 0
149 162 0
142 149 0
137 144 0
145 153 0
143 149 0
146 155 0
148 155 0
135 142 0
145 153 0
147 157 0
140 146 0
144 150 0
145 148 0
139 141 0
140 148 0
140 145 0
142 148 0
142 146 0
142 146 0
138 141 0
148 156 0
149 154 0
155 163 0
144 150 0
148 155 0
139 143 0
150 157 0
142 146 0
150 154 0
145 147 0
141 142 0
144 147 0
141 143 0
147 152 0
145 149 0
152 154 0
144 148 0
147 148 0
150 155 0
147 151 0
145 151 0
146 150 0
144 147 0
154 157 0
153 155 0
148 152 0
147 150 0
148 152 0
147 149 0
152 156 0
149 151 0
153 157 0
154 160 0
144 147 0
150 154 0
151 155 0
144 147 0
153 159 0
156 162 0
153 156 0
149 153 0
152 158 0
153 160 0
151 158 0
146 149 0
152 156 0
148 151 0
154 159 0
153 157 0
149 152 0
157 166 0
152 155 0
152 157 0
152 159 0
156 161 0
158 165 0
155 161 0
161 169 0
161 169 0
154 159 0
157 165 0
163 171 0
164 178 0
158 167 0
171 193 0
174 196 0
173 195 0
170 192 0
173 195 0
170 192 0
173 195 0
169 191 0
172 194 0
173 195 0
171 194 0
173 195 0
175 197 0
171 193 0
171 193 0
172 193 0
170 191 0
172 193 0
174 197 0
169 191 0
171 192 0
171 193 0
172 194 0
173 194 0
173 195 0
169 191 0
173 194 0
172 195 0
171 193 0
163 186 0
172 194 0
166 188 0
170 192 0
168 190 0
173 195 0
171 193 0
170 192 0
167 189 0
170 191 0
173 196 0
170 191 0
170 192 0
169 191 0
168 190 0
168 190 0
169 191 0
169 190 0
171 193 0
170 192 0
168 190 0
167 189 0
168 190 0
163 185 0
167 189 0
166 188 0
167 189 0
166 187 0
168 189 0
166 188 0
169 191 0
165 186 0
164 185 0
168 189 0
166 187 0
172 194 0
168 190 0
161 183 0
165 187 0
164 186 0
164 185 0
162 184 0
165 187 0
160 182 0
161 183 0
166 187 0
165 188 0
167 190 0
162 185 0
166 188 0
163 186 0
158 180 0
158 180 0
162 183 0
162 185 0
156 178 0
156 178 0
158 180 0
159 182 0
169 192 0
162 184 0
159 182 0
166 189 0
156 179 0
158 179 0
160 182 0
154 176 0
159 181 0
161 184 0
161 184 0
153 176 0
163 186 0
162 184 0
159 181 0
157 178 0
156 178 0
158 181 0
160 183 0
158 180 0
157 178 0
155 178 0
154 177 0
154 176 0
155 178 0
161 183 0
157 177 0
160 183 0
148 170 0
153 175 0
151 174 0
161 183 0
162 184 0
159 180 0
154 176 0
153 174 0
147 169 0
158 180 0
152 174 0
161 183 0
157 179 0
145 166 0
158 181 0
154 176 0
156 179 0
150 172 0
153 174 0
147 169 0
157 179 0
148 171 0
149 170 0
163 185 0
154 176 0
152 174 0
147 170 0
153 176 0
142 163 0
148 170 0
145 166 0
147 169 0
150 172 0
143 165 0
145 166 0
148 170 0
152 175 0
142 164 0
147 169 0
145 167 0
149 171 0
146 168 0
151 172 0
146 169 0
150 172 0
146 168 0
155 177 0
149 171 0
151 172 0
157 177 0
140 161 0
147 170 0
145 166 0
154 175 0
143 163 0
144 165 0
146 167 0
140 161 0
139 159 0
145 166 0
143 162 0
137 158 0
136 156 0
149 171 0
141 162 0
143 165 0
154 176 0
138 158 0
141 162 0
142 163 0
148 170 0
138 157 0
141 162 0
135 155 0
143 164 0
130 150 0
139 161 0
144 164 0
143 163 0
140 161 0
145 164 0
138 158 0
138 158 0
146 166 0
137 157 0
141 160 0
139 160 0
134 153 0
127 146 0
136 154 0
142 161 0
135 153 0
139 159 0
139 158 0
144 164 0
140 161 0
140 161 0
135 154 0
136 155 0
131 150 0
133 153 0
132 151 0
147 166 0
141 160 0
135 153 0
136 155 0
136 155 0
140 161 0
135 154 0
130 148 0
139 157 0
143 162 0
142 161 0
137 157 0
138 158 0
136 153 0
139 158 0
138 156 0
146 166 0
141 162 0
139 158 0
137 157 0
138 157 0
135 152 0
140 158 0
152 171 0
147 166 0
143 163 0
132 148 0
141 161 0
137 156 0
142 160 0
135 152 0
134 152 0
145 164 0
150 169 0
142 160 0
141 161 0
149 168 0
145 163 0
148 166 0
141 157 0
138 155 0
141 159 0
140 157 0
136 154 0
135 155 0
145 161 0
143 162 0
136 151 0
146 164 0
143 161 0
138 155 0
142 159 0
145 162 0
141 157 0
143 159 0
143 161 0
148 163 0
141 157 0
136 155 0
153 171 0
151 166 0
138 154 0
143 159 0
135 152 0
143 159 0
137 154 0
136 150 0
148 167 0
154 170 0
149 163 0
150 163 0
143 161 0
140 155 0
146 160 0
143 155 0
149 164 0
143 155 0
145 157 0
147 163 0
147 161 0
144 157 0
144 156 0
151 166 0
150 162 0
147 160 0
145 159 0
136 149 0
144 152 0
143 156 0
146 159 0
149 162 0
146 157 0
143 155 0
137 146 0
143 155 0
138 148 0
149 162 0
143 152 0
147 158 0
149 160 0
143 155 0
148 156 0
145 154 0
146 155 0
144 152 0
150 159 0
138 146 0
143 150 0
143 148 0
145 152 0
144 152 0
144 150 0
144 150 0
147 152 0
148 157 0
140 145 0
148 153 0
151 159 0
142 148 0
142 147 0
144 148 0
139 145 0
147 152 0
151 156 0
143 146 0
146 149 0
149 155 0
142 144 0
148 153 0
155 163 0
150 158 0
148 151 0
145 149 0
140 141 0
149 154 0
148 153 0
150 155 0
150 154 0
150 154 0
142 144 0
156 163 0
146 147 0
157 165 0
147 149 0
142 144 0
149 152 0
150 150 0
156 163 0
145 147 0
146 148 0
146 148 0
144 148 0
152 157 0
153 157 0
150 153 0
153 158 0
146 147 0
150 156 0
152 156 0
155 163 0
149 152 0
154 159 0
152 155 0
146 151 0
156 165 0
152 159 0
151 153 0
158 166 0
150 155 0
154 159 0
154 158 0
158 166 0
158 167 0
153 157 0
156 165 0
157 164 0
155 161 0
160 168 0
158 165 0
156 165 0
160 167 0
156 164 0
173 195 0
172 194 0
175 197 0
171 193 0
174 197 0
174 197 0
170 193 0
173 196 0
170 192 0
170 191 0
173 195 0
172 195 0
170 192 0
174 196 0
170 193 0
169 192 0
174 196 0
175 198 0
165 187 0
171 193 0
172 194 0
172 195 0
169 191 0
174 196 0
174 196 0
174 196 0
169 192 0
174 195 0
167 190 0
173 195 0
172 194 0
165 187 0
170 193 0
167 189 0
171 192 0
167 189 0
166 187 0
169 190 0
173 195 0
173 195 0
173 194 0
166 187 0
169 190 0
172 194 0
169 191 0
169 190 0
170 192 0
168 190 0
165 187 0
170 192 0
169 191 0
169 191 0
163 185 0
170 192 0
168 190 0
165 187 0
165 187 0
165 187 0
168 190 0
168 191 0
169 192 0
165 187 0
166 188 0
164 187 0
166 189 0
160 183 0
163 186 0
165 187 0
169 192 0
167 188 0
165 187 0
166 188 0
165 186 0
160 182 0
167 189 0
160 182 0
166 189 0
163 186 0
164 186 0
165 187 0
159 181 0
169 191 0
164 187 0
159 180 0
158 180 0
163 185 0
158 180 0
164 187 0
161 182 0
158 180 0
163 185 0
159 181 0
153 175 0
159 181 0
155 177 0
160 182 0
164 186 0
158 181 0
162 185 0
155 178 0
161 183 0
161 184 0
167 189 0
153 176 0
157 180 0
151 174 0
164 186 0
160 183 0
158 180 0
159 181 0
160 184 0
157 180 0
164 186 0
156 179 0
161 183 0
155 177 0
159 181 0
155 178 0
155 178 0
155 177 0
158 181 0
153 175 0
150 172 0
158 181 0
157 179 0
147 170 0
153 175 0
158 179 0
154 177 0
151 173 0
155 177 0
157 179 0
158 180 0
151 174 0
153 176 0
156 179 0
150 172 0
151 174 0
156 178 0
150 173 0
153 176 0
153 174 0
149 171 0
151 173 0
149 170 0
154 176 0
147 169 0
154 177 0
146 168 0
149 172 0
147 170 0
137 160 0
148 169 0
144 165 0
150 172 0
150 172 0
159 181 0
149 171 0
150 173 0
146 167 0
147 169 0
147 169 0
145 167 0
146 167 0
152 174 0
147 168 0
144 165 0
144 164 0
147 169 0
149 171 0
146 169 0
147 168 0
149 169 0
152 173 0
141 161 0
145 168 0
143 164 0
147 169 0
148 170 0
142 163 0
145 166 0
151 173 0
137 157 0
135 155 0
141 162 0
142 163 0
137 157 0
142 162 0
142 162 0
144 165 0
139 161 0
143 164 0
139 158 0
130 148 0
141 161 0
150 171 0
146 167 0
138 158 0
133 154 0
139 160 0
145 165 0
138 159 0
144 165 0
140 161 0
139 158 0
142 163 0
141 161 0
135 154 0
139 160 0
135 155 0
144 163 0
129 147 0
146 167 0
140 159 0
137 157 0
132 152 0
142 162 0
142 164 0
133 154 0
138 158 0
145 165 0
145 164 0
140 160 0
138 156 0
143 162 0
141 159 0
147 166 0
140 159 0
143 164 0
140 159 0
137 158 0
138 156 0
141 159 0
138 156 0
138 156 0
143 162 0
145 164 0
138 158 0
140 159 0
143 161 0
145 162 0
145 164 0
142 159 0
134 154 0
128 145 0
145 165 0
142 160 0
146 165 0
133 151 0
135 150 0
145 163 0
151 172 0
141 159 0
148 167 0
146 163 0
147 164 0
150 170 0
138 153 0
145 163 0
148 165 0
137 153 0
146 163 0
152 168 0
148 166 0
150 168 0
144 164 0
143 161 0
142 159 0
146 163 0
146 161 0
143 161 0
143 159 0
145 162 0
143 163 0
146 165 0
146 164 0
144 160 0
142 159 0
145 161 0
149 164 0
146 163 0
148 161 0
146 162 0
147 159 0
148 164 0
136 150 0
141 155 0
151 165 0
147 164 0
141 154 0
145 159 0
138 150 0
149 164 0
149 165 0
154 168 0
142 155 0
148 163 0
139 150 0
149 164 0
147 163 0
151 164 0
141 154 0
143 153 0
142 155 0
140 155 0
146 156 0
139 150 0
145 159 0
146 157 0
145 158 0
149 163 0
138 147 0
145 158 0
146 157 0
146 159 0
139 150 0
143 154 0
154 168 0
149 162 0
147 158 0
142 151 0
146 157 0
141 150 0
146 158 0
140 149 0
134 140 0
151 162 0
143 149 0
142 152 0
153 163 0
142 149 0
143 151 0
150 158 0
141 146 0
147 154 0
145 154 0
149 157 0
152 161 0
144 150 0
150 155 0
140 147 0
146 151 0
143 147 0
146 154 0
154 163 0
139 145 0
148 153 0
157 165 0
156 165 0
153 162 0
151 156 0
146 148 0
143 147 0
146 150 0
144 147 0
152 160 0
147 149 0
147 156 0
144 148 0
147 149 0
151 155 0
144 146 0
141 145 0
152 158 0
145 151 0
149 152 0
150 154 0
152 156 0
153 158 0
149 153 0
151 156 0
153 157 0
148 151 0
152 159 0
150 154 0
153 160 0
152 155 0
150 154 0
152 157 0
153 160 0
146 148 0
159 167 0
153 156 0
151 156 0
152 156 0
155 162 0
154 163 0
155 164 0
152 157 0
152 157 0
159 166 0
158 166 0
151 156 0
155 162 0
160 171 0
156 164 0
154 159 0
160 170 0
155 160 0
158 168 0
174 195 0
174 196 0
171 194 0
172 194 0
174 196 0
172 195 0
172 195 0
175 197 0
171 192 0
172 195 0
172 195 0
173 195 0
175 196 0
173 194 0
173 196 0
172 194 0
173 194 0
172 194 0
171 194 0
172 193 0
171 193 0
173 194 0
172 194 0
173 195 0
174 196 0
176 198 0
167 190 0
174 195 0
174 196 0
171 192 0
169 191 0
170 192 0
171 193 0
170 193 0
169 191 0
172 195 0
171 193 0
171 193 0
170 191 0
168 189 0
166 188 0
167 189 0
165 186 0
170 192 0
166 188 0
170 191 0
165 187 0
166 187 0
170 191 0
167 189 0
167 188 0
165 187 0
169 191 0
165 186 0
164 185 0
164 186 0
168 190 0
168 190 0
162 183 0
165 187 0
163 185 0
168 189 0
165 185 0
161 183 0
165 187 0
163 185 0
168 190 0
164 187 0
165 186 0
161 182 0
158 181 0
163 185 0
160 183 0
162 184 0
153 176 0
166 188 0
161 183 0
166 188 0
160 182 0
160 183 0
161 184 0
156 178 0
164 185 0
163 185 0
162 184 0
163 186 0
160 182 0
158 180 0
156 178 0
165 187 0
166 188 0
162 184 0
161 184 0
159 180 0
160 182 0
162 185 0
158 181 0
166 188 0
162 184 0
164 186 0
164 186 0
161 183 0
156 179 0
152 175 0
158 180 0
151 173 0
161 184 0
164 186 0
155 177 0
159 183 0
164 185 0
158 181 0
159 182 0
159 182 0
154 176 0
148 171 0
159 181 0
155 178 0
156 178 0
159 182 0
157 180 0
146 168 0
156 178 0
156 177 0
151 173 0
160 182 0
153 176 0
162 184 0
152 175 0
156 179 0
154 178 0
150 173 0
151 174 0
153 175 0
158 181 0
151 174 0
158 180 0
152 174 0
151 172 0
147 170 0
153 176 0
156 179 0
157 178 0
154 176 0
144 166 0
154 177 0
141 163 0
153 174 0
148 171 0
157 179 0
155 178 0
150 171 0
148 170 0
141 161 0
148 170 0
145 169 0
143 166 0
144 168 0
145 167 0
138 160 0
144 166 0
147 168 0
149 171 0
145 167 0
149 170 0
149 170 0
147 168 0
144 165 0
141 163 0
145 166 0
144 166 0
148 170 0
146 168 0
146 167 0
148 168 0
142 164 0
151 172 0
150 171 0
140 162 0
146 167 0
147 169 0
141 163 0
137 158 0
140 162 0
150 171 0
150 169 0
144 166 0
143 164 0
142 163 0
142 161 0
144 165 0
144 164 0
139 159 0
145 166 0
147 167 0
132 152 0
149 169 0
144 165 0
149 169 0
147 167 0
145 166 0
142 162 0
141 163 0
144 164 0
143 164 0
140 158 0
140 161 0
142 163 0
144 163 0
146 167 0
139 161 0
142 163 0
138 154 0
143 164 0
139 160 0
140 160 0
137 159 0
139 160 0
145 165 0
133 151 0
139 159 0
143 163 0
139 159 0
141 161 0
141 159 0
141 161 0
143 163 0
141 159 0
143 163 0
142 161 0
144 163 0
136 155 0
141 162 0
141 159 0
147 166 0
137 156 0
145 164 0
138 156 0
140 159 0
144 163 0
139 158 0
141 160 0
141 159 0
135 155 0
145 165 0
133 153 0
144 163 0
136 153 0
141 161 0
137 155 0
144 163 0
145 164 0
148 168 0
140 158 0
141 159 0
147 165 0
139 155 0
143 159 0
141 158 0
149 166 0
148 165 0
149 166 0
149 167 0
151 170 0
147 166 0
133 148 0
143 162 0
148 164 0
147 166 0
141 157 0
144 164 0
142 161 0
149 168 0
150 168 0
145 162 0
143 160 0
152 168 0
145 160 0
142 156 0
142 158 0
147 161 0
147 165 0
138 154 0
147 163 0
141 156 0
149 165 0
146 164 0
150 167 0
142 156 0
142 157 0
148 165 0
140 156 0
142 159 0
142 154 0
139 153 0
146 160 0
140 152 0
127 140 0
147 159 0
145 161 0
150 166 0
149 162 0
151 164 0
148 161 0
148 162 0
144 157 0
140 154 0
147 161 0
147 160 0
146 157 0
145 156 0
151 165 0
147 160 0
139 147 0
146 155 0
150 164 0
147 160 0
148 159 0
146 157 0
156 165 0
146 156 0
142 152 0
145 152 0
146 155 0
146 155 0
146 153 0
142 150 0
144 153 0
148 157 0
143 151 0
146 152 0
142 153 0
146 154 0
148 157 0
140 149 0
154 162 0
147 155 0
152 161 0
139 146 0
147 155 0
142 149 0
145 153 0
146 152 0
145 152 0
148 156 0
143 150 0
151 160 0
148 156 0
150 154 0
149 156 0
145 148 0
145 151 0
156 160 0
144 149 0
151 158 0
146 154 0
152 156 0
142 146 0
149 153 0
145 150 0
146 149 0
151 156 0
156 164 0
147 148 0
147 150 0
147 150 0
151 155 0
149 151 0
147 150 0
153 157 0
151 153 0
153 157 0
156 164 0
151 156 0
153 158 0
151 157 0
151 156 0
149 154 0
160 167 0
153 159 0
155 160 0
154 162 0
156 162 0
155 159 0
150 155 0
163 173 0
153 158 0
158 164 0
157 165 0
148 152 0
151 157 0
157 166 0
157 165 0
159 166 0
152 158 0
157 164 0
156 164 0
163 172 0
158 165 0
153 162 0
173 195 0
174 196 0
172 194 0
173 195 0
172 195 0
175 197 0
174 195 0
172 193 0
173 195 0
176 198 0
172 194 0
172 194 0
171 193 0
175 196 0
172 194 0
173 195 0
171 193 0
170 192 0
172 194 0
170 192 0
167 189 0
171 193 0
169 192 0
169 191 0
171 192 0
166 188 0
172 194 0
173 194 0
169 191 0
165 186 0
169 191 0
171 193 0
175 197 0
172 194 0
164 186 0
170 191 0
167 189 0
170 192 0
170 191 0
164 187 0
166 188 0
167 189 0
172 193 0
171 193 0
164 186 0
172 193 0
171 193 0
166 187 0
166 188 0
167 188 0
166 189 0
167 189 0
163 185 0
166 188 0
163 185 0
169 191 0
170 192 0
165 188 0
164 186 0
163 185 0
161 183 0
164 187 0
167 190 0
163 186 0
169 190 0
162 185 0
167 190 0
162 183 0
163 185 0
164 186 0
163 185 0
162 185 0
164 187 0
164 188 0
169 192 0
164 186 0
162 184 0
163 185 0
166 188 0
157 180 0
164 186 0
160 183 0
165 188 0
166 188 0
159 180 0
168 190 0
164 185 0
163 185 0
164 186 0
157 179 0
159 181 0
158 180 0
165 188 0
159 180 0
152 175 0
160 182 0
152 175 0
155 177 0
154 177 0
160 182 0
155 177 0
160 183 0
162 186 0
160 183 0
162 185 0
161 184 0
164 186 0
154 176 0
157 179 0
152 175 0
156 179 0
155 177 0
157 180 0
156 178 0
159 181 0
154 176 0
160 182 0
162 184 0
152 175 0
155 178 0
149 171 0
155 176 0
162 185 0
159 181 0
155 178 0
154 176 0
157 178 0
155 177 0
154 177 0
150 172 0
156 178 0
156 179 0
156 177 0
146 168 0
154 176 0
150 171 0
151 173 0
153 175 0
155 179 0
157 180 0
151 173 0
151 173 0
156 178 0
147 169 0
144 166 0
149 172 0
161 184 0
151 173 0
152 173 0
150 173 0
148 171 0
156 178 0
147 170 0
151 173 0
155 178 0
143 165 0
157 179 0
146 166 0
145 166 0
156 178 0
142 164 0
156 178 0
153 174 0
147 168 0
149 171 0
148 170 0
147 168 0
147 169 0
145 167 0
146 166 0
151 172 0
145 167 0
147 168 0
152 174 0
155 176 0
146 165 0
140 162 0
151 171 0
142 163 0
143 164 0
145 166 0
139 161 0
137 159 0
146 170 0
141 164 0
146 166 0
143 164 0
144 166 0
142 164 0
143 165 0
144 166 0
144 165 0
150 172 0
143 162 0
149 170 0
139 162 0
142 163 0
151 172 0
148 169 0
147 168 0
141 161 0
141 162 0
146 168 0
151 173 0
147 166 0
134 156 0
141 162 0
141 161 0
142 163 0
135 157 0
148 169 0
137 156 0
138 160 0
141 161 0
150 170 0
128 147 0
141 162 0
149 169 0
140 160 0
137 158 0
131 150 0
138 158 0
140 159 0
140 159 0
147 166 0
134 153 0
151 172 0
141 161 0
139 158 0
149 167 0
144 162 0
153 174 0
144 165 0
141 160 0
138 158 0
134 151 0
132 152 0
144 164 0
150 167 0
140 158 0
140 158 0
153 174 0
144 163 0
140 159 0
145 165 0
152 171 0
133 151 0
140 159 0
148 168 0
146 166 0
146 166 0
145 164 0
141 157 0
143 161 0
143 162 0
141 160 0
139 159 0
148 167 0
137 154 0
145 164 0
137 157 0
144 162 0
145 164 0
140 154 0
143 161 0
134 149 0
143 159 0
146 164 0
138 154 0
145 162 0
145 164 0
147 162 0
145 163 0
139 154 0
140 157 0
153 170 0
148 168 0
143 158 0
146 164 0
147 165 0
145 160 0
145 161 0
146 163 0
146 160 0
148 164 0
149 165 0
138 155 0
147 164 0
144 160 0
152 168 0
149 167 0
147 162 0
145 159 0
141 155 0
152 166 0
149 165 0
144 158 0
139 151 0
141 153 0
150 164 0
145 160 0
144 157 0
140 153 0
145 159 0
143 157 0
149 164 0
152 165 0
145 156 0
150 164 0
149 160 0
146 160 0
145 159 0
144 156 0
145 158 0
146 155 0
144 154 0
149 161 0
156 169 0
139 151 0
150 163 0
151 163 0
154 167 0
139 147 0
139 151 0
149 161 0
147 159 0
149 158 0
149 160 0
152 162 0
151 161 0
148 158 0
153 164 0
148 160 0
151 161 0
146 154 0
153 164 0
145 156 0
147 154 0
149 158 0
144 153 0
150 158 0
141 146 0
153 163 0
147 155 0
145 151 0
151 157 0
151 155 0
151 159 0
149 156 0
151 158 0
151 159 0
145 152 0
149 157 0
147 154 0
153 160 0
147 154 0
140 145 0
156 163 0
146 149 0
150 156 0
151 155 0
153 161 0
150 154 0
150 156 0
150 157 0
152 158 0
142 144 0
155 163 0
147 152 0
147 152 0
154 162 0
153 158 0
154 158 0
155 159 0
148 153 0
152 156 0
156 164 0
146 151 0
153 157 0
152 160 0
151 159 0
150 156 0
144 149 0
156 163 0
159 163 0
155 164 0
153 160 0
150 155 0
153 160 0
161 170 0
158 163 0
152 158 0
155 163 0
157 163 0
155 163 0
158 167 0
161 168 0
162 173 0
158 167 0
158 166 0
171 194 0
174 196 0
175 197 0
170 192 0
173 196 0
169 191 0
173 196 0
176 198 0
171 192 0
171 194 0
173 196 0
172 194 0
172 194 0
174 196 0
168 191 0
171 193 0
171 193 0
174 195 0
171 193 0
171 193 0
171 191 0
170 192 0
172 194 0
173 196 0
167 190 0
171 193 0
165 186 0
171 193 0
170 192 0
167 190 0
170 192 0
173 195 0
171 193 0
169 192 0
164 186 0
167 188 0
170 192 0
167 188 0
169 191 0
168 189 0
169 191 0
171 192 0
169 191 0
162 184 0
167 188 0
167 190 0
170 192 0
165 187 0
165 187 0
168 190 0
164 186 0
165 188 0
168 190 0
165 187 0
168 191 0
165 187 0
165 186 0
164 186 0
165 187 0
162 184 0
168 189 0
167 189 0
164 186 0
166 190 0
164 185 0
163 186 0
162 184 0
160 183 0
160 181 0
164 186 0
158 181 0
165 187 0
161 183 0
167 190 0
161 184 0
156 178 0
162 185 0
161 183 0
157 180 0
162 184 0
159 182 0
162 184 0
160 182 0
162 186 0
163 186 0
163 187 0
162 183 0
161 185 0
159 181 0
159 182 0
156 179 0
161 183 0
161 184 0
158 180 0
159 182 0
159 183 0
158 179 0
161 182 0
158 180 0
160 183 0
158 180 0
155 177 0
156 178 0
160 183 0
150 173 0
155 178 0
158 180 0
159 182 0
153 176 0
155 177 0
158 182 0
156 178 0
156 178 0
156 178 0
161 183 0
156 179 0
154 176 0
157 179 0
163 186 0
156 178 0
157 178 0
155 177 0
158 181 0
157 180 0
151 174 0
151 173 0
157 179 0
153 176 0
155 177 0
160 181 0
156 179 0
149 172 0
152 174 0
145 168 0
152 174 0
153 174 0
155 175 0
156 178 0
145 167 0
149 170 0
154 175 0
149 171 0
155 177 0
147 169 0
151 172 0
155 176 0
150 172 0
145 167 0
145 167 0
154 176 0
147 169 0
160 183 0
154 176 0
145 167 0
148 170 0
151 172 0
153 175 0
149 171 0
142 163 0
147 169 0
155 177 0
152 174 0
149 171 0
142 165 0
140 162 0
141 162 0
153 173 0
145 166 0
151 172 0
143 164 0
145 167 0
154 177 0
150 171 0
150 171 0
152 174 0
151 172 0
141 163 0
145 166 0
145 167 0
140 161 0
145 167 0
149 170 0
142 164 0
140 162 0
138 159 0
134 156 0
145 165 0
149 171 0
141 164 0
146 167 0
149 170 0
140 161 0
141 162 0
148 169 0
147 168 0
147 168 0
142 162 0
140 161 0
145 165 0
143 163 0
144 164 0
139 161 0
137 157 0
148 169 0
146 167 0
148 166 0
141 161 0
144 164 0
143 164 0
145 166 0
141 163 0
132 152 0
144 165 0
140 160 0
144 163 0
139 157 0
139 160 0
147 167 0
142 163 0
133 152 0
138 159 0
147 168 0
143 164 0
141 161 0
139 160 0
133 150 0
147 165 0
145 165 0
132 151 0
143 162 0
151 171 0
139 160 0
146 165 0
147 165 0
138 154 0
141 159 0
150 169 0
155 175 0
137 156 0
146 166 0
140 161 0
146 166 0
144 164 0
134 154 0
141 159 0
149 167 0
148 167 0
146 164 0
142 158 0
150 168 0
151 172 0
146 166 0
150 170 0
139 158 0
142 157 0
148 168 0
149 168 0
144 160 0
146 166 0
144 162 0
139 155 0
153 172 0
144 163 0
146 163 0
145 162 0
145 164 0
140 159 0
145 164 0
139 156 0
144 160 0
149 165 0
147 165 0
145 161 0
147 163 0
154 171 0
145 162 0
145 162 0
151 169 0
140 156 0
154 170 0
143 160 0
140 155 0
142 158 0
152 167 0
151 168 0
154 171 0
145 162 0
145 162 0
147 160 0
145 163 0
141 156 0
146 161 0
149 165 0
136 149 0
143 158 0
146 161 0
150 164 0
144 158 0
145 157 0
157 172 0
151 165 0
153 168 0
152 167 0
145 159 0
149 164 0
143 157 0
148 159 0
145 158 0
140 150 0
147 157 0
146 161 0
146 160 0
139 152 0
147 160 0
148 159 0
142 151 0
152 165 0
152 164 0
140 151 0
149 158 0
149 160 0
151 163 0
144 153 0
151 163 0
145 155 0
153 164 0
150 161 0
142 150 0
153 165 0
146 157 0
145 158 0
147 159 0
150 160 0
149 158 0
143 152 0
149 157 0
145 155 0
144 153 0
144 154 0
149 161 0
149 158 0
150 158 0
142 147 0
155 166 0
146 153 0
150 157 0
145 154 0
145 153 0
147 154 0
149 157 0
154 164 0
146 150 0
153 162 0
153 162 0
144 152 0
147 153 0
150 159 0
148 155 0
154 164 0
152 158 0
148 153 0
149 155 0
157 166 0
150 156 0
153 158 0
152 159 0
147 155 0
152 158 0
155 162 0
149 155 0
145 148 0
154 160 0
152 158 0
150 156 0
148 155 0
150 156 0
153 159 0
150 157 0
151 158 0
150 157 0
157 166 0
158 167 0
155 160 0
159 167 0
159 167 0
156 161 0
155 161 0
160 169 0
160 168 0
155 163 0
156 165 0
162 172 0
151 154 0
155 164 0
161 171 0
156 165 0
158 166 0
162 173 0
156 166 0
157 169 0
172 194 0
172 194 0
174 196 0
174 197 0
169 191 0
173 195 0
172 195 0
173 195 0
172 194 0
172 194 0
173 194 0
170 192 0
172 194 0
171 193 0
172 194 0
170 192 0
173 195 0
173 195 0
172 194 0
170 193 0
170 193 0
167 190 0
174 195 0
172 194 0
169 191 0
171 194 0
168 188 0
169 191 0
170 192 0
168 190 0
167 189 0
170 192 0
167 190 0
171 193 0
167 188 0
165 187 0
169 191 0
170 192 0
168 191 0
167 188 0
167 190 0
167 190 0
172 194 0
166 189 0
169 191 0
168 190 0
164 186 0
162 184 0
168 190 0
166 189 0
168 190 0
165 187 0
165 187 0
168 190 0
168 190 0
166 188 0
159 181 0
166 188 0
169 191 0
162 184 0
163 186 0
165 187 0
166 189 0
169 191 0
158 181 0
159 180 0
160 182 0
163 186 0
165 188 0
165 188 0
170 192 0
167 190 0
157 179 0
163 186 0
160 183 0
162 185 0
158 180 0
161 183 0
156 178 0
164 186 0
162 185 0
160 183 0
164 187 0
161 184 0
153 177 0
161 184 0
158 181 0
161 185 0
159 181 0
160 183 0
157 180 0
158 182 0
158 180 0
161 184 0
159 181 0
159 180 0
155 178 0
160 182 0
158 181 0
151 174 0
159 182 0
161 183 0
157 181 0
159 182 0
156 178 0
162 185 0
158 180 0
159 181 0
158 179 0
158 181 0
161 183 0
155 177 0
162 184 0
157 180 0
158 181 0
156 179 0
160 184 0
166 188 0
156 178 0
156 178 0
155 178 0
150 172 0
158 181 0
159 182 0
148 170 0
155 178 0
149 172 0
151 174 0
156 178 0
160 183 0
161 184 0
146 168 0
150 173 0
157 179 0
157 179 0
153 175 0
154 176 0
153 176 0
154 176 0
152 175 0
150 173 0
153 175 0
154 175 0
148 169 0
150 173 0
147 170 0
152 174 0
154 176 0
156 178 0
162 184 0
153 175 0
154 176 0
149 171 0
147 169 0
151 174 0
150 172 0
152 175 0
149 170 0
151 174 0
152 174 0
154 176 0
151 173 0
150 173 0
153 174 0
148 171 0
147 169 0
143 165 0
145 167 0
142 163 0
150 171 0
151 173 0
146 168 0
143 164 0
143 163 0
152 174 0
148 169 0
157 179 0
159 181 0
151 173 0
153 175 0
147 167 0
136 157 0
145 167 0
147 168 0
146 167 0
156 177 0
141 161 0
150 172 0
152 173 0
154 174 0
139 159 0
146 167 0
144 166 0
146 167 0
141 160 0
142 163 0
147 167 0
148 169 0
147 167 0
150 170 0
139 160 0
144 163 0
134 156 0
148 169 0
138 159 0
142 162 0
145 164 0
140 161 0
148 167 0
145 164 0
150 171 0
151 172 0
147 169 0
148 168 0
147 168 0
141 160 0
132 153 0
149 169 0
142 162 0
140 160 0
138 159 0
143 163 0
145 165 0
148 169 0
139 159 0
146 166 0
138 158 0
145 166 0
146 166 0
134 153 0
140 161 0
142 162 0
137 156 0
141 159 0
148 168 0
152 172 0
145 164 0
146 165 0
143 163 0
144 165 0
140 159 0
145 164 0
143 160 0
139 159 0
149 169 0
146 166 0
148 168 0
149 167 0
143 162 0
147 165 0
147 163 0
141 161 0
148 167 0
145 165 0
139 158 0
145 164 0
143 162 0
153 172 0
145 164 0
149 165 0
135 153 0
143 162 0
144 162 0
144 163 0
149 165 0
145 163 0
147 164 0
144 160 0
147 166 0
142 159 0
145 164 0
152 172 0
133 154 0
145 163 0
148 166 0
151 168 0
146 164 0
153 172 0
146 161 0
145 163 0
144 161 0
148 165 0
153 171 0
140 157 0
137 154 0
156 172 0
145 161 0
147 165 0
144 160 0
147 162 0
147 164 0
146 161 0
148 163 0
142 158 0
148 164 0
146 162 0
137 152 0
153 170 0
150 166 0
145 160 0
147 161 0
150 164 0
146 159 0
146 160 0
150 162 0
148 161 0
147 160 0
147 161 0
152 165 0
148 159 0
152 167 0
146 159 0
147 159 0
146 159 0
147 161 0
143 155 0
152 167 0
149 159 0
148 162 0
147 159 0
147 157 0
153 165 0
153 168 0
146 157 0
151 162 0
145 158 0
152 163 0
148 160 0
142 151 0
147 157 0
151 161 0
151 164 0
146 155 0
150 161 0
154 166 0
151 162 0
144 154 0
140 147 0
148 156 0
147 155 0
155 166 0
146 153 0
148 156 0
152 163 0
144 151 0
149 158 0
149 158 0
152 159 0
154 165 0
141 149 0
151 158 0
150 158 0
150 157 0
152 159 0
151 158 0
147 153 0
153 161 0
150 156 0
144 147 0
153 161 0
151 158 0
148 151 0
144 150 0
157 167 0
154 161 0
149 157 0
155 163 0
148 154 0
148 154 0
153 160 0
150 154 0
157 167 0
147 156 0
150 156 0
152 158 0
151 154 0
157 167 0
152 158 0
152 160 0
152 157 0
155 164 0
153 160 0
152 157 0
148 155 0
153 157 0
156 164 0
156 165 0
151 158 0
154 158 0
150 155 0
149 154 0
158 166 0
158 165 0
154 161 0
160 171 0
155 162 0
156 165 0
158 166 0
159 167 0
162 173 0
171 194 0
175 197 0
171 194 0
172 195 0
171 193 0
173 194 0
168 190 0
175 197 0
171 194 0
174 196 0
172 195 0
170 192 0
171 193 0
171 193 0
171 193 0
173 194 0
171 192 0
173 196 0
164 186 0
171 192 0
166 189 0
169 191 0
165 188 0
168 189 0
166 189 0
170 192 0
167 190 0
165 186 0
171 193 0
169 191 0
169 190 0
165 188 0
171 193 0
168 191 0
169 190 0
172 194 0
169 191 0
169 191 0
166 188 0
160 183 0
167 189 0
171 193 0
169 191 0
169 191 0
172 195 0
166 189 0
168 189 0
164 186 0
171 193 0
165 187 0
165 189 0
170 192 0
168 191 0
167 189 0
167 189 0
158 181 0
168 190 0
168 190 0
162 185 0
167 190 0
169 191 0
161 182 0
165 189 0
164 186 0
168 190 0
162 184 0
163 185 0
163 186 0
160 184 0
164 187 0
161 183 0
165 188 0
162 185 0
161 184 0
166 189 0
162 185 0
158 180 0
158 181 0
167 190 0
160 183 0
163 185 0
161 183 0
163 186 0
160 182 0
162 183 0
156 178 0
162 184 0
161 184 0
165 187 0
154 176 0
163 185 0
161 184 0
161 185 0
156 178 0
161 182 0
157 179 0
155 177 0
159 182 0
161 184 0
161 184 0
159 180 0
162 185 0
159 182 0
159 182 0
159 182 0
157 180 0
155 177 0
151 174 0
153 176 0
160 182 0
158 180 0
157 181 0
159 181 0
150 173 0
157 179 0
159 182 0
159 181 0
154 175 0
160 182 0
162 185 0
161 184 0
160 183 0
158 181 0
160 183 0
149 171 0
156 180 0
161 183 0
157 180 0
153 176 0
150 172 0
155 177 0
155 177 0
153 175 0
160 183 0
157 179 0
160 182 0
155 177 0
154 176 0
145 166 0
153 175 0
147 170 0
154 176 0
156 179 0
149 172 0
143 165 0
145 167 0
151 174 0
148 171 0
150 173 0
150 172 0
156 179 0
150 173 0
144 165 0
159 181 0
150 173 0
144 167 0
155 177 0
140 161 0
147 169 0
153 174 0
144 167 0
151 172 0
149 172 0
151 173 0
146 168 0
145 166 0
148 170 0
149 171 0
152 173 0
139 161 0
149 168 0
143 165 0
147 168 0
145 166 0
149 171 0
148 169 0
141 164 0
148 169 0
149 170 0
148 169 0
142 164 0
140 160 0
147 168 0
142 164 0
147 168 0
145 168 0
146 166 0
140 160 0
144 165 0
139 158 0
148 169 0
152 173 0
152 172 0
143 165 0
145 166 0
144 166 0
147 167 0
149 170 0
138 160 0
144 163 0
147 168 0
151 173 0
152 172 0
145 167 0
146 167 0
147 167 0
149 169 0
143 164 0
146 166 0
144 165 0
142 162 0
134 152 0
142 161 0
142 164 0
143 162 0
135 156 0
148 165 0
150 171 0
144 163 0
146 166 0
140 159 0
147 168 0
147 168 0
146 165 0
146 166 0
138 158 0
141 159 0
133 152 0
140 159 0
138 157 0
145 165 0
148 167 0
143 162 0
145 164 0
145 164 0
139 157 0
133 152 0
145 164 0
137 156 0
144 164 0
140 161 0
147 167 0
141 161 0
144 163 0
145 165 0
143 162 0
142 161 0
152 172 0
151 170 0
148 169 0
135 155 0
142 159 0
151 170 0
139 158 0
148 168 0
144 163 0
152 172 0
139 157 0
147 167 0
144 163 0
149 168 0
142 163 0
151 171 0
148 168 0
144 161 0
148 167 0
143 163 0
137 153 0
144 161 0
140 157 0
142 162 0
142 160 0
148 167 0
140 156 0
148 167 0
148 165 0
146 163 0
147 162 0
142 158 0
148 167 0
144 159 0
142 157 0
144 162 0
148 165 0
152 170 0
156 175 0
147 164 0
139 155 0
152 168 0
148 165 0
151 168 0
138 153 0
146 162 0
144 161 0
150 166 0
145 160 0
146 160 0
153 170 0
148 164 0
150 166 0
148 164 0
154 169 0
149 163 0
135 146 0
143 156 0
145 160 0
156 173 0
138 150 0
151 166 0
145 157 0
142 156 0
148 160 0
153 166 0
150 163 0
145 158 0
150 166 0
147 159 0
150 164 0
148 160 0
146 160 0
148 161 0
147 161 0
151 166 0
152 167 0
148 158 0
144 156 0
151 164 0
154 165 0
147 156 0
153 160 0
149 160 0
151 162 0
149 159 0
152 166 0
148 156 0
137 146 0
148 159 0
144 152 0
154 167 0
145 153 0
157 167 0
153 165 0
151 161 0
142 148 0
153 162 0
146 153 0
158 169 0
150 158 0
147 154 0
155 166 0
151 160 0
154 163 0
148 157 0
153 161 0
151 157 0
149 156 0
151 162 0
151 160 0
147 154 0
147 155 0
156 162 0
140 147 0
150 157 0
153 159 0
152 158 0
149 156 0
153 161 0
149 153 0
152 159 0
147 155 0
150 159 0
154 161 0
148 152 0
154 162 0
152 157 0
154 162 0
151 159 0
155 163 0
152 155 0
157 162 0
156 162 0
157 162 0
150 157 0
153 162 0
151 157 0
154 162 0
160 168 0
156 163 0
152 158 0
158 166 0
158 165 0
152 157 0
154 162 0
154 163 0
156 165 0
154 161 0
160 172 0
154 161 0
159 169 0
159 167 0
172 194 0
172 194 0
169 192 0
170 192 0
172 194 0
172 194 0
173 195 0
172 193 0
170 192 0
170 193 0
169 190 0
176 198 0
171 194 0
172 195 0
172 193 0
169 191 0
171 192 0
168 191 0
173 195 0
171 193 0
166 188 0
166 189 0
174 196 0
170 192 0
168 191 0
168 191 0
170 191 0
172 194 0
166 187 0
168 190 0
167 190 0
167 190 0
171 193 0
167 189 0
169 192 0
166 188 0
170 191 0
167 189 0
160 183 0
169 191 0
167 189 0
167 189 0
170 192 0
163 186 0
166 188 0
163 186 0
167 190 0
161 184 0
163 185 0
164 186 0
164 186 0
164 186 0
169 191 0
164 186 0
166 188 0
161 184 0
168 190 0
168 191 0
165 187 0
162 184 0
164 187 0
161 183 0
165 188 0
163 185 0
164 187 0
161 184 0
165 187 0
162 184 0
168 191 0
168 191 0
164 186 0
162 185 0
164 187 0
160 182 0
160 182 0
159 182 0
162 185 0
160 181 0
172 195 0
164 186 0
164 186 0
161 183 0
157 180 0
160 182 0
158 181 0
158 181 0
163 185 0
164 187 0
158 180 0
161 183 0
160 182 0
159 181 0
163 186 0
161 184 0
155 176 0
160 184 0
163 186 0
158 180 0
159 182 0
151 173 0
157 180 0
161 184 0
156 178 0
161 183 0
154 178 0
152 174 0
164 186 0
158 180 0
160 183 0
156 179 0
156 178 0
164 186 0
158 180 0
155 179 0
159 182 0
158 181 0
155 177 0
162 184 0
157 179 0
154 175 0
164 187 0
160 182 0
156 179 0
154 177 0
157 180 0
161 182 0
152 174 0
154 176 0
155 178 0
152 176 0
152 172 0
156 178 0
153 175 0
155 177 0
151 174 0
159 182 0
150 173 0
154 177 0
154 176 0
155 177 0
147 169 0
148 170 0
152 175 0
158 180 0
150 172 0
151 172 0
147 168 0
150 172 0
149 171 0
152 174 0
149 171 0
150 172 0
147 169 0
151 172 0
150 172 0
155 178 0
140 163 0
152 175 0
149 172 0
150 172 0
151 174 0
149 170 0
143 164 0
159 180 0
145 167 0
147 167 0
148 169 0
152 173 0
147 169 0
149 170 0
155 176 0
149 170 0
153 175 0
156 177 0
148 170 0
151 173 0
143 163 0
150 170 0
145 167 0
144 167 0
148 171 0
143 163 0
141 163 0
150 172 0
147 168 0
146 168 0
152 174 0
141 162 0
145 166 0
143 165 0
144 165 0
149 172 0
144 166 0
143 163 0
146 168 0
142 163 0
141 162 0
147 166 0
141 162 0
131 152 0
135 155 0
140 161 0
148 169 0
144 166 0
146 167 0
143 163 0
134 151 0
145 165 0
142 162 0
146 167 0
150 170 0
142 161 0
137 157 0
145 165 0
143 163 0
148 169 0
148 166 0
147 168 0
138 158 0
145 166 0
149 170 0
133 152 0
147 168 0
146 167 0
144 164 0
137 157 0
148 168 0
148 169 0
144 163 0
146 166 0
147 167 0
143 163 0
137 157 0
138 156 0
153 173 0
143 163 0
147 168 0
143 161 0
147 169 0
145 164 0
141 160 0
141 161 0
146 167 0
148 168 0
133 151 0
140 160 0
134 153 0
142 160 0
152 173 0
143 160 0
147 165 0
138 156 0
140 160 0
152 172 0
148 168 0
142 160 0
150 169 0
144 161 0
147 167 0
144 163 0
152 168 0
142 158 0
153 170 0
140 158 0
145 163 0
141 158 0
137 154 0
146 165 0
151 169 0
158 176 0
150 169 0
145 163 0
145 163 0
146 166 0
152 169 0
145 161 0
149 168 0
152 172 0
146 165 0
140 158 0
152 165 0
142 158 0
153 171 0
144 160 0
149 165 0
145 157 0
152 169 0
151 167 0
141 160 0
148 162 0
146 163 0
146 165 0
145 158 0
146 157 0
146 162 0
151 166 0
152 168 0
149 163 0
153 166 0
150 164 0
150 165 0
147 161 0
147 162 0
151 165 0
144 158 0
150 167 0
145 160 0
151 167 0
146 160 0
153 168 0
145 159 0
144 158 0
147 159 0
151 165 0
142 155 0
155 173 0
147 159 0
154 168 0
152 166 0
143 156 0
147 161 0
157 171 0
144 156 0
153 166 0
153 167 0
145 155 0
142 156 0
154 167 0
142 151 0
149 161 0
143 155 0
151 162 0
147 157 0
147 159 0
155 168 0
144 150 0
153 165 0
150 161 0
148 158 0
149 156 0
145 156 0
142 153 0
150 157 0
145 151 0
157 165 0
152 161 0
150 159 0
153 165 0
150 158 0
150 159 0
147 154 0
153 163 0
146 151 0
153 163 0
146 152 0
151 159 0
153 162 0
145 150 0
145 151 0
148 155 0
152 161 0
150 156 0
155 164 0
143 148 0
153 160 0
154 159 0
152 162 0
154 162 0
154 160 0
154 163 0
150 156 0
152 158 0
151 159 0
154 161 0
155 165 0
151 160 0
152 161 0
159 167 0
149 154 0
156 167 0
149 155 0
152 160 0
154 163 0
156 165 0
155 163 0
156 163 0
164 174 0
159 166 0
158 164 0
148 153 0
161 172 0
157 164 0
153 161 0
156 164 0
162 171 0
156 163 0
151 158 0
157 166 0
160 170 0
151 159 0
172 195 0
175 198 0
174 197 0
168 189 0
169 192 0
168 190 0
172 194 0
171 193 0
173 195 0
169 191 0
167 189 0
172 194 0
170 193 0
171 193 0
170 191 0
170 193 0
175 197 0
168 190 0
167 190 0
173 195 0
164 187 0
169 192 0
171 194 0
168 191 0
170 192 0
167 189 0
166 188 0
170 191 0
171 193 0
164 186 0
168 190 0
164 187 0
166 188 0
171 193 0
168 189 0
170 192 0
168 191 0
168 190 0
171 192 0
171 192 0
169 192 0
170 193 0
168 190 0
165 187 0
171 193 0
165 188 0
167 190 0
170 193 0
163 186 0
168 190 0
163 186 0
165 187 0
167 189 0
168 191 0
166 190 0
161 185 0
165 188 0
163 186 0
169 190 0
159 181 0
164 187 0
165 188 0
166 189 0
162 184 0
163 186 0
164 187 0
159 181 0
163 186 0
170 192 0
160 182 0
155 177 0
162 185 0
162 185 0
164 186 0
165 187 0
163 186 0
162 185 0
165 187 0
162 186 0
162 185 0
159 181 0
165 188 0
159 182 0
160 182 0
156 178 0
165 187 0
161 184 0
158 181 0
160 182 0
162 185 0
161 184 0
162 185 0
159 182 0
159 181 0
155 177 0
159 181 0
160 183 0
150 174 0
158 180 0
154 177 0
156 178 0
162 183 0
157 179 0
157 179 0
161 184 0
157 179 0
161 182 0
156 178 0
157 180 0
162 185 0
160 183 0
160 184 0
153 176 0
159 181 0
153 176 0
160 182 0
151 174 0
153 175 0
153 175 0
155 179 0
158 180 0
160 182 0
153 176 0
151 174 0
162 184 0
152 173 0
156 178 0
146 169 0
152 176 0
154 176 0
152 176 0
155 177 0
155 178 0
157 179 0
159 182 0
153 176 0
156 179 0
151 173 0
157 180 0
159 181 0
152 175 0
157 179 0
153 175 0
152 174 0
152 174 0
156 178 0
153 175 0
146 168 0
159 182 0
145 167 0
150 171 0
151 174 0
155 175 0
157 180 0
153 175 0
154 176 0
145 167 0
154 177 0
145 167 0
149 171 0
151 171 0
151 173 0
148 170 0
156 178 0
150 172 0
153 174 0
157 178 0
152 173 0
141 163 0
148 170 0
148 170 0
151 173 0
144 166 0
153 174 0
152 174 0
153 175 0
151 172 0
146 167 0
146 167 0
156 177 0
150 171 0
147 167 0
151 172 0
145 167 0
151 172 0
148 169 0
150 171 0
148 170 0
153 175 0
140 161 0
145 166 0
152 173 0
149 170 0
149 170 0
144 165 0
141 162 0
148 169 0
141 162 0
143 163 0
149 170 0
140 162 0
144 164 0
149 172 0
145 165 0
139 160 0
147 169 0
150 170 0
143 163 0
143 164 0
144 164 0
139 159 0
142 162 0
148 167 0
143 161 0
142 159 0
145 164 0
134 155 0
148 169 0
147 167 0
138 157 0
145 167 0
148 168 0
150 169 0
144 163 0
140 159 0
149 167 0
142 162 0
145 165 0
143 162 0
144 164 0
150 171 0
147 168 0
149 169 0
147 168 0
143 162 0
147 167 0
143 161 0
143 162 0
148 168 0
145 165 0
148 168 0
152 172 0
145 163 0
147 165 0
147 163 0
152 171 0
143 162 0
144 165 0
145 166 0
147 166 0
144 162 0
152 171 0
142 161 0
142 159 0
144 164 0
143 162 0
152 172 0
147 165 0
144 164 0
156 174 0
138 156 0
154 173 0
148 166 0
148 166 0
144 162 0
149 168 0
143 162 0
149 167 0
144 163 0
146 163 0
139 155 0
147 164 0
156 174 0
134 151 0
151 169 0
147 164 0
144 162 0
145 162 0
146 163 0
143 162 0
146 164 0
146 162 0
149 167 0
145 161 0
148 166 0
153 170 0
149 165 0
143 159 0
151 168 0
145 161 0
151 167 0
157 173 0
150 169 0
146 162 0
152 169 0
149 166 0
149 167 0
148 162 0
150 166 0
144 159 0
148 163 0
137 150 0
157 174 0
152 168 0
148 162 0
146 159 0
146 161 0
144 157 0
149 164 0
147 161 0
144 157 0
146 159 0
151 167 0
156 169 0
146 159 0
154 166 0
155 170 0
140 149 0
148 158 0
146 159 0
155 171 0
147 160 0
145 157 0
155 170 0
145 154 0
150 165 0
144 153 0
152 162 0
148 159 0
154 168 0
153 167 0
148 159 0
151 164 0
151 163 0
154 166 0
145 155 0
144 156 0
150 161 0
156 169 0
147 155 0
149 158 0
149 158 0
156 167 0
157 169 0
148 154 0
150 159 0
149 158 0
153 160 0
144 151 0
151 163 0
154 164 0
153 161 0
144 150 0
157 169 0
153 161 0
145 151 0
151 159 0
145 156 0
154 162 0
154 165 0
144 148 0
149 158 0
153 163 0
157 167 0
148 154 0
149 155 0
156 162 0
146 152 0
159 167 0
149 155 0
155 161 0
153 162 0
147 154 0
154 161 0
154 161 0
154 162 0
160 170 0
153 162 0
152 159 0
157 166 0
152 159 0
155 166 0
152 160 0
159 167 0
155 160 0
151 159 0
153 157 0
153 160 0
153 162 0
155 159 0
159 170 0
152 159 0
157 164 0
158 169 0
154 161 0
159 169 0
158 170 0
159 169 0
156 164 0
160 172 0
170 192 0
173 195 0
170 193 0
171 195 0
170 192 0
172 195 0
170 193 0
172 194 0
169 191 0
171 193 0
172 195 0
171 193 0
168 190 0
173 194 0
170 193 0
173 196 0
173 196 0
170 192 0
172 195 0
168 190 0
170 192 0
168 190 0
168 190 0
169 192 0
168 190 0
167 190 0
165 186 0
173 195 0
171 193 0
167 191 0
171 193 0
170 192 0
169 191 0
164 187 0
166 188 0
167 189 0
164 187 0
166 188 0
170 192 0
166 187 0
167 190 0
169 191 0
164 186 0
165 187 0
170 193 0
168 190 0
159 182 0
165 188 0
165 188 0
165 188 0
169 192 0
164 186 0
167 189 0
168 190 0
167 189 0
164 186 0
162 185 0
162 185 0
170 192 0
168 190 0
160 182 0
167 189 0
164 187 0
165 188 0
158 181 0
166 189 0
167 189 0
165 187 0
165 187 0
160 182 0
163 186 0
160 182 0
169 190 0
167 190 0
163 185 0
161 183 0
155 176 0
160 183 0
165 187 0
161 184 0
163 184 0
162 184 0
158 181 0
159 181 0
162 185 0
156 178 0
161 184 0
161 183 0
159 181 0
163 187 0
160 184 0
157 180 0
157 179 0
161 184 0
154 177 0
156 179 0
151 174 0
156 180 0
162 184 0
151 174 0
157 180 0
158 181 0
154 177 0
165 188 0
157 179 0
160 183 0
155 177 0
157 180 0
158 180 0
158 181 0
157 180 0
158 181 0
163 185 0
159 182 0
160 182 0
157 180 0
153 174 0
165 188 0
154 177 0
159 181 0
162 184 0
151 174 0
157 179 0
162 184 0
153 176 0
157 179 0
152 175 0
161 184 0
152 174 0
150 172 0
152 175 0
159 180 0
154 176 0
159 182 0
163 185 0
150 171 0
154 177 0
155 179 0
151 172 0
156 178 0
158 181 0
150 172 0
157 179 0
152 175 0
158 181 0
149 171 0
151 174 0
153 175 0
147 170 0
156 178 0
146 170 0
156 178 0
142 164 0
149 170 0
152 175 0
154 176 0
153 175 0
146 168 0
145 167 0
146 167 0
144 166 0
150 172 0
154 176 0
159 181 0
143 164 0
148 171 0
150 171 0
145 166 0
154 176 0
140 162 0
138 161 0
142 164 0
142 165 0
144 165 0
145 168 0
146 168 0
155 175 0
153 175 0
150 171 0
146 168 0
147 169 0
146 167 0
143 165 0
146 167 0
149 170 0
142 163 0
151 173 0
156 177 0
147 167 0
153 175 0
143 164 0
146 166 0
153 173 0
150 171 0
149 169 0
148 169 0
147 167 0
148 169 0
149 171 0
147 166 0
136 156 0
152 173 0
152 173 0
144 164 0
145 166 0
145 167 0
151 173 0
147 166 0
149 171 0
145 166 0
148 169 0
145 166 0
141 162 0
148 169 0
148 168 0
142 163 0
143 163 0
152 174 0
140 160 0
140 162 0
147 167 0
147 166 0
153 174 0
147 167 0
144 164 0
153 174 0
144 164 0
146 167 0
146 168 0
144 164 0
149 169 0
140 161 0
148 170 0
152 173 0
150 170 0
144 163 0
148 168 0
147 167 0
144 164 0
148 168 0
142 161 0
153 174 0
143 163 0
152 173 0
149 168 0
140 161 0
139 159 0
144 163 0
141 159 0
145 164 0
147 167 0
143 163 0
147 165 0
146 165 0
141 159 0
151 170 0
143 161 0
141 159 0
143 163 0
151 169 0
134 151 0
147 164 0
151 170 0
150 172 0
150 169 0
149 167 0
151 171 0
151 170 0
149 167 0
146 164 0
145 162 0
157 176 0
146 164 0
152 171 0
151 169 0
149 165 0
144 162 0
139 156 0
152 168 0
141 157 0
152 171 0
149 166 0
153 167 0
151 166 0
155 173 0
147 163 0
148 166 0
151 168 0
144 159 0
152 170 0
154 171 0
152 166 0
144 158 0
146 161 0
150 164 0
153 169 0
148 165 0
153 171 0
148 163 0
144 159 0
148 164 0
147 163 0
155 172 0
143 158 0
144 158 0
150 163 0
143 159 0
147 161 0
150 165 0
151 166 0
143 159 0
144 158 0
150 162 0
142 158 0
152 166 0
143 160 0
144 156 0
151 167 0
149 165 0
146 161 0
148 161 0
153 167 0
152 165 0
147 159 0
150 162 0
146 161 0
151 166 0
145 158 0
149 163 0
150 162 0
149 164 0
154 167 0
148 158 0
148 161 0
148 158 0
151 164 0
152 165 0
144 155 0
145 156 0
158 170 0
154 167 0
145 155 0
153 162 0
150 160 0
151 162 0
159 172 0
150 161 0
140 148 0
156 167 0
151 160 0
153 164 0
153 161 0
150 162 0
156 167 0
157 165 0
143 148 0
152 160 0
150 158 0
153 162 0
152 160 0
154 163 0
156 165 0
152 159 0
150 159 0
153 160 0
152 160 0
153 160 0
153 163 0
153 159 0
152 162 0
150 155 0
154 165 0
157 166 0
155 164 0
155 160 0
150 157 0
155 165 0
153 161 0
154 162 0
148 157 0
159 169 0
151 159 0
151 159 0
158 169 0
153 163 0
148 155 0
156 167 0
153 159 0
151 161 0
163 173 0
156 162 0
155 161 0
153 160 0
159 167 0
154 161 0
156 164 0
154 163 0
156 161 0
157 167 0
150 156 0
169 191 0
173 194 0
170 192 0
173 195 0
172 195 0
173 194 0
170 192 0
170 191 0
169 192 0
169 191 0
170 193 0
171 194 0
166 188 0
171 192 0
171 194 0
170 193 0
172 194 0
172 195 0
171 193 0
167 189 0
165 187 0
167 189 0
167 190 0
169 192 0
170 193 0
168 191 0
166 188 0
173 194 0
167 189 0
168 190 0
169 192 0
167 189 0
169 192 0
170 192 0
169 192 0
167 189 0
167 189 0
166 189 0
169 191 0
166 189 0
169 190 0
174 195 0
168 190 0
171 193 0
166 189 0
161 183 0
165 188 0
163 186 0
165 187 0
167 189 0
160 182 0
164 186 0
160 182 0
167 190 0
169 192 0
167 190 0
159 182 0
161 183 0
165 187 0
167 189 0
167 191 0
159 183 0
163 185 0
167 190 0
164 186 0
163 185 0
161 185 0
163 185 0
158 181 0
167 190 0
159 182 0
167 190 0
163 184 0
162 184 0
164 186 0
163 185 0
165 188 0
167 189 0
164 186 0
152 175 0
159 182 0
160 183 0
168 190 0
163 185 0
157 180 0
161 184 0
155 178 0
161 184 0
162 185 0
158 181 0
160 184 0
158 181 0
162 185 0
156 178 0
156 179 0
159 181 0
165 187 0
162 185 0
154 177 0
161 184 0
161 184 0
162 184 0
157 181 0
158 181 0
163 185 0
158 182 0
164 187 0
159 182 0
163 187 0
156 178 0
160 183 0
155 177 0
157 180 0
165 188 0
160 183 0
154 177 0
157 180 0
157 181 0
152 174 0
159 183 0
162 185 0
161 183 0
155 178 0
158 180 0
160 181 0
157 180 0
151 173 0
160 182 0
156 178 0
152 174 0
159 182 0
158 181 0
155 179 0
153 174 0
159 182 0
155 178 0
155 178 0
152 174 0
151 173 0
155 178 0
164 186 0
162 183 0
155 177 0
153 176 0
143 164 0
149 171 0
157 179 0
154 175 0
152 175 0
154 176 0
152 173 0
148 172 0
145 167 0
157 179 0
146 167 0
154 175 0
148 170 0
149 170 0
151 173 0
152 174 0
143 165 0
157 180 0
152 172 0
153 176 0
159 180 0
153 175 0
149 172 0
151 171 0
157 178 0
144 166 0
149 171 0
152 174 0
148 171 0
149 170 0
148 169 0
147 167 0
147 167 0
153 174 0
149 170 0
153 174 0
150 171 0
151 172 0
144 167 0
153 174 0
145 166 0
151 171 0
141 162 0
151 171 0
148 169 0
153 176 0
148 168 0
147 168 0
143 164 0
153 175 0
143 164 0
147 168 0
148 169 0
146 166 0
145 166 0
151 171 0
150 170 0
147 166 0
143 164 0
150 171 0
145 167 0
141 162 0
143 163 0
150 170 0
152 172 0
150 171 0
144 164 0
146 166 0
139 157 0
147 169 0
146 167 0
149 171 0
145 165 0
147 168 0
146 165 0
149 171 0
145 166 0
143 163 0
142 163 0
145 163 0
148 168 0
146 168 0
142 162 0
152 171 0
150 171 0
149 170 0
151 170 0
147 168 0
148 168 0
155 175 0
151 171 0
152 172 0
147 167 0
147 165 0
145 164 0
148 166 0
144 164 0
142 161 0
149 168 0
156 178 0
144 163 0
142 161 0
148 169 0
146 163 0
149 169 0
145 163 0
151 170 0
154 174 0
150 171 0
154 171 0
157 176 0
150 167 0
143 159 0
150 169 0
148 167 0
146 164 0
149 168 0
146 164 0
148 168 0
151 168 0
154 173 0
156 176 0
140 158 0
145 165 0
147 166 0
142 160 0
152 171 0
153 175 0
154 174 0
147 166 0
151 167 0
150 169 0
145 163 0
154 173 0
144 162 0
147 165 0
153 173 0
149 167 0
145 161 0
150 166 0
152 170 0
142 158 0
148 165 0
150 167 0
149 164 0
151 166 0
146 161 0
153 168 0
150 168 0
151 168 0
150 167 0
151 168 0
150 166 0
151 168 0
141 157 0
147 164 0
150 165 0
151 169 0
155 171 0
148 164 0
148 165 0
150 166 0
150 163 0
148 163 0
147 164 0
146 162 0
154 169 0
153 169 0
154 168 0
145 160 0
150 165 0
155 173 0
156 169 0
148 162 0
152 167 0
142 155 0
151 165 0
146 161 0
151 165 0
142 156 0
155 168 0
152 168 0
151 165 0
142 157 0
155 168 0
149 163 0
146 160 0
151 164 0
157 170 0
146 158 0
153 165 0
148 161 0
151 164 0
149 161 0
158 171 0
150 163 0
150 162 0
151 163 0
151 162 0
147 155 0
149 160 0
151 158 0
159 171 0
154 165 0
150 162 0
155 165 0
150 161 0
155 165 0
140 148 0
158 169 0
149 157 0
148 159 0
152 161 0
144 149 0
148 157 0
151 162 0
151 163 0
153 162 0
152 159 0
148 155 0
157 165 0
159 170 0
155 167 0
157 169 0
152 160 0
155 166 0
151 159 0
156 167 0
151 158 0
153 157 0
148 156 0
159 168 0
155 164 0
154 165 0
157 165 0
154 162 0
150 155 0
154 163 0
157 163 0
157 165 0
161 170 0
153 159 0
157 166 0
162 171 0
151 157 0
157 169 0
156 163 0
156 163 0
153 161 0
153 158 0
155 161 0
161 172 0
157 165 0
155 162 0
154 164 0
156 166 0
171 194 0
171 194 0
169 192 0
174 195 0
171 194 0
169 191 0
167 189 0
174 197 0
172 193 0
172 194 0
168 190 0
173 195 0
169 191 0
170 192 0
168 190 0
166 188 0
170 193 0
168 191 0
171 193 0
170 192 0
171 194 0
170 193 0
168 191 0
167 189 0
172 195 0
166 187 0
167 189 0
160 182 0
169 191 0
167 188 0
170 193 0
169 192 0
169 192 0
164 186 0
167 189 0
170 192 0
166 188 0
160 183 0
167 190 0
167 190 0
164 187 0
171 193 0
164 187 0
170 192 0
166 188 0
165 187 0
162 184 0
166 189 0
164 187 0
162 185 0
162 185 0
168 191 0
165 187 0
164 186 0
168 191 0
165 188 0
165 187 0
162 184 0
161 183 0
162 184 0
162 185 0
165 186 0
163 187 0
164 186 0
163 185 0
158 180 0
166 188 0
162 185 0
162 185 0
167 189 0
166 189 0
167 190 0
165 187 0
158 181 0
163 185 0
163 187 0
164 186 0
163 186 0
167 190 0
168 191 0
160 183 0
162 186 0
162 185 0
162 185 0
159 181 0
163 187 0
160 183 0
162 184 0
160 182 0
156 179 0
160 182 0
157 180 0
160 183 0
164 186 0
160 182 0
168 190 0
161 184 0
160 183 0
164 186 0
159 182 0
161 183 0
157 180 0
154 177 0
158 181 0
156 179 0
162 185 0
157 179 0
153 176 0
160 182 0
157 180 0
157 181 0
156 179 0
159 181 0
157 180 0
158 181 0
167 191 0
164 186 0
154 177 0
157 180 0
159 182 0
153 174 0
158 181 0
156 178 0
155 178 0
152 173 0
155 178 0
159 182 0
161 184 0
155 177 0
157 179 0
156 178 0
157 179 0
154 177 0
151 173 0
159 181 0
152 175 0
157 179 0
151 174 0
147 168 0
156 178 0
152 174 0
156 179 0
153 176 0
159 181 0
149 170 0
152 173 0
153 177 0
151 173 0
144 166 0
149 172 0
154 177 0
150 173 0
150 172 0
151 174 0
149 172 0
149 170 0
148 169 0
150 171 0
154 176 0
149 171 0
145 168 0
152 174 0
158 180 0
149 171 0
153 175 0
159 180 0
150 173 0
153 175 0
146 168 0
150 171 0
152 174 0
155 176 0
147 169 0
155 177 0
155 177 0
153 175 0
157 179 0
153 175 0
151 173 0
147 169 0
152 175 0
143 165 0
141 162 0
151 172 0
144 166 0
153 175 0
141 163 0
144 163 0
141 162 0
147 168 0
152 173 0
138 158 0
147 169 0
140 162 0
143 163 0
145 167 0
158 179 0
144 165 0
145 166 0
147 167 0
144 165 0
145 166 0
143 164 0
144 166 0
138 158 0
149 170 0
152 174 0
143 163 0
150 172 0
149 170 0
149 168 0
152 173 0
148 167 0
145 166 0
153 176 0
140 161 0
146 166 0
152 174 0
146 167 0
142 163 0
154 175 0
141 161 0
145 164 0
147 167 0
143 162 0
148 169 0
142 162 0
145 164 0
146 166 0
142 163 0
149 169 0
146 165 0
149 166 0
147 169 0
140 159 0
150 170 0
145 167 0
141 161 0
147 167 0
149 167 0
139 159 0
146 165 0
145 164 0
147 167 0
141 161 0
149 168 0
144 165 0
146 166 0
148 166 0
143 163 0
150 170 0
151 171 0
150 171 0
148 168 0
147 165 0
143 160 0
143 161 0
150 169 0
147 166 0
144 163 0
150 169 0
141 160 0
145 163 0
141 161 0
151 171 0
149 167 0
147 164 0
150 169 0
154 170 0
152 172 0
149 165 0
150 167 0
145 161 0
148 167 0
154 173 0
144 162 0
154 174 0
146 167 0
144 160 0
146 164 0
151 169 0
149 167 0
147 165 0
151 168 0
151 169 0
149 169 0
152 169 0
153 168 0
150 166 0
144 158 0
146 162 0
149 167 0
140 157 0
145 162 0
147 161 0
150 166 0
143 158 0
150 167 0
147 164 0
155 172 0
155 172 0
140 156 0
148 163 0
141 158 0
160 178 0
149 161 0
149 164 0
146 161 0
149 165 0
160 178 0
152 166 0
145 159 0
154 167 0
157 173 0
154 170 0
145 161 0
144 159 0
145 159 0
148 162 0
143 157 0
153 170 0
148 164 0
147 161 0
150 163 0
153 167 0
148 160 0
143 153 0
144 156 0
149 159 0
153 170 0
157 170 0
155 170 0
150 164 0
148 157 0
149 157 0
146 157 0
156 170 0
156 168 0
152 163 0
146 158 0
152 163 0
155 166 0
148 159 0
155 165 0
148 157 0
149 157 0
152 161 0
153 165 0
143 154 0
149 160 0
147 158 0
152 165 0
158 171 0
151 159 0
157 167 0
147 154 0
146 154 0
152 161 0
151 157 0
153 164 0
155 163 0
150 158 0
149 158 0
154 165 0
159 169 0
151 161 0
150 163 0
155 166 0
153 162 0
144 154 0
157 168 0
162 173 0
157 167 0
157 165 0
154 161 0
155 161 0
154 161 0
158 169 0
155 162 0
156 165 0
154 165 0
155 165 0
154 166 0
156 166 0
153 163 0
157 166 0
159 169 0
157 167 0
158 170 0
156 164 0
154 164 0
150 159 0
160 168 0
154 162 0
157 166 0
154 162 0
158 168 0
157 165 0
154 162 0
156 165 0
170 192 0
170 192 0
170 192 0
170 193 0
169 191 0
169 191 0
172 194 0
174 196 0
170 192 0
169 191 0
168 190 0
166 188 0
169 192 0
175 197 0
167 190 0
173 196 0
170 193 0
167 189 0
172 195 0
171 194 0
170 192 0
169 191 0
169 192 0
170 193 0
170 192 0
167 190 0
166 188 0
171 193 0
166 189 0
169 191 0
164 187 0
166 189 0
171 193 0
164 186 0
164 186 0
166 188 0
161 183 0
169 192 0
168 191 0
172 194 0
167 190 0
169 190 0
169 192 0
169 191 0
168 191 0
167 189 0
170 192 0
163 184 0
161 183 0
163 186 0
165 188 0
163 186 0
164 187 0
161 184 0
161 184 0
165 188 0
163 185 0
161 184 0
165 188 0
166 188 0
166 189 0
165 187 0
159 182 0
161 184 0
162 185 0
160 183 0
156 180 0
166 188 0
162 185 0
162 185 0
160 182 0
162 183 0
167 189 0
162 185 0
161 183 0
164 187 0
161 183 0
159 182 0
159 181 0
162 183 0
162 186 0
163 185 0
164 188 0
164 186 0
162 185 0
160 182 0
159 181 0
154 176 0
156 179 0
166 188 0
156 179 0
158 180 0
155 178 0
166 187 0
163 186 0
162 184 0
163 187 0
159 182 0
155 176 0
169 190 0
153 176 0
165 188 0
167 190 0
157 180 0
158 179 0
158 180 0
163 186 0
158 181 0
155 178 0
161 183 0
157 179 0
159 182 0
163 184 0
158 181 0
156 177 0
159 182 0
157 179 0
161 183 0
156 178 0
152 175 0
156 179 0
150 174 0
153 175 0
160 183 0
160 182 0
157 179 0
162 183 0
157 180 0
151 174 0
149 172 0
157 179 0
156 178 0
156 179 0
156 178 0
158 180 0
154 176 0
149 172 0
158 180 0
141 164 0
151 175 0
147 169 0
160 183 0
158 181 0
152 176 0
158 180 0
153 175 0
154 176 0
157 179 0
155 178 0
155 177 0
151 174 0
151 173 0
154 175 0
147 169 0
152 173 0
147 170 0
156 178 0
151 174 0
154 177 0
154 176 0
151 173 0
156 178 0
158 180 0
154 177 0
149 170 0
150 173 0
143 166 0
153 176 0
153 175 0
152 173 0
151 172 0
137 159 0
148 169 0
154 175 0
155 176 0
154 176 0
147 168 0
149 171 0
145 167 0
145 166 0
151 172 0
150 171 0
150 173 0
147 167 0
148 168 0
147 169 0
150 171 0
149 170 0
147 167 0
145 167 0
153 175 0
150 173 0
143 164 0
148 169 0
147 169 0
147 169 0
144 165 0
149 170 0
140 160 0
150 170 0
149 169 0
146 166 0
150 170 0
143 164 0
149 170 0
152 173 0
146 167 0
138 159 0
147 168 0
158 179 0
148 168 0
148 168 0
148 170 0
156 177 0
136 156 0
150 171 0
144 164 0
151 170 0
145 165 0
149 170 0
144 166 0
138 158 0
146 166 0
148 170 0
151 171 0
149 171 0
154 175 0
155 175 0
150 171 0
150 171 0
148 167 0
145 166 0
145 166 0
149 168 0
143 161 0
147 168 0
147 166 0
140 159 0
148 168 0
147 168 0
151 171 0
145 165 0
149 169 0
135 154 0
151 171 0
142 160 0
153 175 0
155 172 0
150 171 0
148 167 0
142 163 0
146 166 0
148 168 0
144 164 0
144 163 0
139 158 0
146 166 0
144 163 0
158 177 0
152 170 0
151 171 0
141 160 0
145 163 0
151 169 0
147 166 0
151 172 0
143 161 0
142 161 0
147 166 0
149 166 0
146 162 0
142 157 0
142 160 0
148 166 0
145 164 0
146 163 0
145 163 0
148 165 0
152 169 0
155 174 0
153 173 0
145 164 0
152 173 0
144 159 0
147 164 0
152 169 0
146 165 0
148 166 0
151 169 0
147 166 0
151 168 0
153 172 0
150 168 0
148 166 0
150 168 0
148 165 0
152 169 0
151 165 0
148 163 0
156 172 0
158 177 0
149 165 0
148 165 0
150 166 0
145 160 0
152 169 0
154 170 0
152 167 0
148 164 0
152 170 0
152 168 0
150 165 0
146 160 0
151 163 0
146 159 0
146 161 0
158 173 0
154 172 0
144 158 0
151 164 0
152 167 0
153 166 0
149 164 0
146 160 0
150 163 0
145 157 0
150 164 0
152 166 0
147 157 0
148 162 0
159 175 0
153 166 0
149 161 0
143 152 0
151 164 0
149 162 0
151 167 0
147 161 0
151 164 0
155 168 0
154 170 0
158 172 0
153 163 0
151 162 0
157 169 0
157 167 0
154 167 0
154 164 0
153 163 0
148 158 0
154 165 0
154 167 0
153 165 0
146 154 0
152 164 0
161 174 0
154 166 0
147 156 0
150 160 0
153 165 0
152 159 0
151 157 0
158 168 0
152 162 0
156 167 0
150 157 0
148 157 0
151 160 0
154 167 0
156 167 0
154 162 0
156 166 0
151 160 0
158 170 0
155 165 0
155 167 0
158 169 0
155 163 0
152 161 0
157 168 0
157 166 0
156 168 0
150 155 0
156 164 0
157 167 0
155 165 0
162 174 0
153 162 0
148 153 0
155 166 0
158 169 0
158 171 0
157 167 0
156 166 0
161 173 0
154 166 0
161 170 0
152 160 0
156 165 0
154 164 0
169 192 0
170 192 0
167 190 0
166 188 0
173 195 0
168 190 0
172 195 0
172 194 0
170 193 0
168 191 0
168 191 0
167 190 0
172 194 0
172 195 0
169 191 0
168 191 0
168 191 0
170 192 0
166 187 0
172 194 0
167 190 0
170 193 0
170 192 0
167 190 0
172 194 0
170 193 0
169 190 0
169 191 0
166 188 0
171 194 0
170 193 0
168 190 0
167 189 0
164 186 0
166 190 0
164 186 0
164 186 0
164 187 0
168 190 0
167 189 0
167 189 0
169 192 0
167 189 0
167 190 0
168 189 0
157 180 0
171 193 0
162 184 0
166 189 0
167 190 0
165 188 0
164 186 0
166 189 0
163 184 0
169 192 0
166 189 0
164 187 0
166 188 0
161 184 0
164 187 0
162 184 0
166 189 0
159 180 0
160 182 0
162 185 0
164 187 0
160 182 0
162 185 0
161 184 0
158 181 0
163 185 0
161 182 0
168 192 0
167 189 0
151 174 0
161 183 0
163 186 0
165 188 0
160 183 0
161 185 0
159 182 0
161 183 0
157 179 0
163 187 0
163 186 0
160 183 0
159 181 0
161 185 0
163 186 0
164 187 0
154 177 0
159 181 0
164 186 0
158 180 0
161 185 0
157 179 0
164 187 0
159 182 0
157 178 0
155 179 0
159 182 0
161 184 0
163 185 0
154 176 0
164 187 0
157 180 0
162 185 0
157 179 0
161 185 0
156 179 0
161 184 0
160 183 0
159 182 0
155 177 0
161 183 0
157 180 0
160 183 0
155 178 0
151 173 0
155 178 0
161 184 0
159 181 0
159 182 0
154 176 0
155 177 0
156 179 0
146 167 0
158 181 0
153 176 0
160 182 0
155 177 0
154 176 0
154 177 0
153 177 0
157 178 0
154 178 0
157 179 0
154 177 0
158 180 0
152 174 0
153 176 0
154 176 0
145 167 0
154 177 0
157 180 0
149 172 0
154 177 0
147 169 0
156 179 0
157 180 0
152 175 0
151 173 0
149 171 0
153 175 0
146 167 0
150 172 0
149 172 0
150 172 0
147 170 0
154 177 0
147 169 0
154 177 0
149 171 0
150 172 0
151 172 0
148 171 0
147 169 0
150 172 0
150 172 0
150 172 0
151 174 0
149 168 0
155 176 0
147 168 0
155 177 0
144 166 0
145 166 0
155 177 0
137 159 0
141 164 0
154 176 0
147 170 0
149 171 0
153 174 0
144 166 0
151 172 0
153 175 0
141 162 0
150 173 0
149 171 0
153 175 0
146 167 0
145 166 0
151 171 0
147 167 0
153 175 0
149 169 0
153 174 0
150 171 0
141 162 0
147 168 0
153 174 0
150 171 0
149 171 0
149 171 0
143 165 0
150 171 0
148 168 0
140 160 0
149 171 0
151 173 0
144 163 0
148 169 0
150 171 0
151 171 0
149 170 0
146 166 0
148 169 0
141 162 0
148 170 0
144 164 0
149 172 0
150 171 0
142 164 0
152 172 0
147 168 0
151 171 0
152 173 0
147 168 0
153 174 0
148 167 0
150 169 0
148 169 0
155 177 0
144 164 0
148 167 0
150 171 0
154 174 0
151 172 0
139 159 0
152 172 0
143 164 0
155 175 0
152 172 0
140 161 0
148 167 0
146 166 0
146 164 0
145 166 0
143 161 0
159 181 0
140 159 0
147 168 0
143 163 0
151 171 0
144 163 0
149 168 0
149 168 0
141 161 0
152 170 0
141 160 0
146 164 0
139 158 0
149 169 0
152 169 0
139 156 0
151 169 0
154 174 0
148 166 0
149 167 0
154 172 0
154 173 0
151 169 0
149 167 0
154 173 0
156 174 0
154 171 0
147 164 0
150 168 0
146 164 0
148 166 0
150 168 0
145 164 0
149 168 0
151 171 0
145 161 0
146 163 0
150 170 0
152 171 0
152 168 0
152 171 0
155 173 0
148 164 0
149 168 0
147 162 0
150 167 0
147 163 0
153 172 0
144 162 0
153 171 0
152 170 0
153 171 0
151 166 0
149 167 0
149 164 0
151 169 0
145 158 0
154 169 0
149 163 0
158 174 0
150 166 0
147 158 0
151 169 0
153 169 0
150 167 0
150 165 0
152 167 0
154 172 0
153 170 0
150 164 0
154 170 0
154 171 0
150 165 0
149 161 0
156 171 0
148 163 0
151 165 0
149 166 0
150 164 0
157 171 0
150 162 0
147 160 0
146 158 0
145 159 0
145 156 0
157 169 0
160 174 0
153 167 0
153 165 0
148 159 0
151 163 0
146 159 0
146 157 0
154 168 0
159 174 0
152 166 0
156 169 0
150 161 0
158 170 0
150 160 0
149 160 0
152 164 0
156 167 0
149 161 0
154 168 0
152 162 0
151 162 0
149 157 0
153 164 0
155 167 0
151 160 0
151 161 0
152 163 0
151 160 0
155 165 0
151 161 0
157 167 0
158 171 0
156 167 0
157 166 0
154 163 0
156 165 0
153 163 0
152 162 0
158 170 0
154 168 0
152 159 0
156 166 0
160 170 0
157 166 0
161 170 0
151 161 0
153 163 0
156 166 0
157 164 0
155 163 0
154 164 0
153 160 0
152 164 0
149 157 0
149 155 0
157 166 0
154 164 0
158 168 0
159 169 0
163 175 0
159 170 0
158 168 0
156 168 0
160 171 0
172 195 0
173 195 0
171 193 0
174 195 0
166 189 0
171 193 0
172 195 0
170 192 0
173 195 0
169 191 0
167 191 0
168 191 0
165 187 0
171 193 0
170 192 0
171 194 0
168 191 0
171 193 0
169 191 0
169 192 0
169 191 0
170 193 0
166 190 0
168 191 0
171 193 0
172 194 0
168 191 0
167 189 0
163 185 0
165 188 0
172 193 0
167 190 0
170 193 0
170 192 0
166 188 0
168 191 0
164 187 0
166 189 0
168 191 0
163 186 0
163 185 0
166 189 0
166 189 0
166 188 0
159 182 0
165 187 0
162 185 0
165 187 0
168 190 0
163 185 0
166 188 0
166 189 0
165 188 0
168 190 0
164 187 0
167 190 0
162 185 0
164 187 0
163 186 0
162 185 0
158 180 0
166 188 0
168 190 0
168 191 0
166 188 0
167 189 0
159 182 0
165 188 0
166 188 0
165 188 0
160 184 0
165 188 0
160 182 0
163 185 0
162 185 0
164 186 0
166 188 0
162 184 0
163 185 0
160 183 0
156 179 0
163 186 0
162 184 0
162 185 0
163 186 0
161 184 0
158 180 0
166 189 0
158 181 0
160 181 0
165 188 0
163 185 0
166 189 0
162 184 0
163 186 0
157 179 0
159 181 0
154 176 0
157 179 0
160 184 0
156 178 0
155 177 0
160 184 0
161 184 0
161 184 0
162 185 0
163 186 0
163 186 0
162 185 0
156 180 0
157 179 0
158 180 0
156 179 0
157 180 0
155 178 0
159 182 0
158 181 0
158 181 0
156 178 0
154 176 0
161 182 0
155 178 0
158 180 0
157 181 0
159 182 0
154 178 0
162 184 0
162 184 0
159 183 0
159 181 0
152 175 0
155 178 0
151 173 0
160 182 0
155 177 0
151 173 0
158 179 0
160 182 0
155 176 0
157 178 0
157 180 0
160 182 0
153 175 0
148 171 0
150 173 0
151 173 0
149 172 0
153 175 0
154 176 0
149 170 0
151 173 0
149 172 0
156 178 0
155 177 0
155 176 0
142 165 0
150 172 0
151 174 0
151 172 0
150 173 0
156 178 0
151 174 0
154 176 0
149 172 0
153 175 0
154 175 0
150 172 0
149 170 0
148 170 0
149 172 0
152 174 0
144 166 0
156 177 0
158 180 0
152 174 0
150 172 0
155 177 0
152 173 0
153 176 0
149 172 0
154 177 0
151 172 0
150 172 0
152 172 0
149 171 0
152 173 0
153 174 0
153 174 0
147 168 0
151 174 0
149 169 0
145 167 0
156 178 0
149 170 0
150 173 0
147 168 0
148 168 0
152 174 0
149 170 0
149 169 0
145 166 0
154 176 0
145 167 0
146 166 0
143 165 0
144 165 0
155 177 0
149 171 0
148 171 0
147 169 0
138 158 0
146 168 0
152 173 0
147 168 0
151 172 0
140 160 0
145 167 0
149 170 0
148 168 0
145 167 0
143 165 0
150 170 0
151 170 0
147 169 0
148 168 0
146 167 0
148 167 0
149 168 0
147 167 0
147 166 0
153 172 0
146 166 0
146 166 0
145 166 0
149 171 0
137 155 0
147 168 0
150 171 0
145 165 0
145 165 0
148 168 0
146 168 0
151 169 0
150 168 0
149 169 0
137 156 0
145 166 0
146 167 0
144 164 0
146 165 0
147 167 0
148 168 0
149 169 0
151 171 0
146 168 0
158 176 0
152 171 0
145 164 0
139 157 0
145 165 0
147 164 0
154 175 0
143 161 0
144 164 0
148 167 0
151 171 0
148 166 0
149 165 0
153 172 0
151 168 0
152 173 0
143 162 0
150 170 0
153 173 0
145 162 0
155 174 0
153 171 0
149 167 0
142 160 0
142 160 0
149 169 0
154 173 0
157 176 0
155 172 0
147 164 0
141 160 0
153 172 0
151 168 0
143 161 0
159 176 0
150 165 0
152 171 0
154 173 0
150 169 0
148 163 0
158 174 0
154 174 0
151 169 0
153 171 0
152 170 0
149 165 0
147 165 0
157 175 0
149 164 0
145 160 0
152 170 0
149 163 0
150 165 0
151 168 0
143 158 0
152 168 0
144 163 0
150 166 0
153 171 0
148 164 0
147 163 0
153 168 0
149 162 0
156 173 0
153 169 0
152 167 0
148 164 0
153 167 0
151 166 0
156 171 0
153 168 0
159 176 0
151 163 0
154 169 0
155 168 0
150 166 0
151 166 0
147 160 0
150 164 0
151 165 0
154 167 0
151 167 0
153 165 0
148 159 0
148 161 0
151 163 0
152 167 0
160 175 0
158 171 0
150 165 0
157 168 0
157 169 0
158 172 0
149 161 0
155 169 0
150 163 0
153 164 0
152 163 0
152 164 0
153 164 0
153 167 0
149 160 0
154 164 0
151 163 0
158 171 0
154 166 0
158 169 0
154 163 0
149 158 0
153 163 0
152 160 0
155 164 0
154 164 0
152 160 0
161 172 0
151 162 0
156 166 0
154 163 0
156 168 0
151 158 0
154 162 0
152 157 0
160 171 0
158 168 0
156 168 0
155 162 0
157 167 0
154 163 0
156 170 0
160 169 0
157 169 0
156 169 0
160 171 0
158 166 0
161 172 0
155 167 0
154 164 0
156 166 0
160 168 0
157 168 0
155 164 0
157 166 0
156 164 0
159 169 0
159 169 0
169 191 0
175 197 0
172 196 0
173 195 0
170 193 0
171 193 0
170 194 0
172 194 0
168 190 0
163 185 0
167 189 0
165 187 0
168 190 0
169 192 0
163 186 0
168 190 0
170 193 0
163 185 0
164 188 0
168 191 0
167 190 0
173 195 0
166 188 0
168 190 0
162 184 0
168 191 0
166 189 0
173 195 0
171 194 0
164 186 0
161 183 0
164 186 0
167 189 0
168 190 0
163 185 0
168 191 0
166 188 0
167 189 0
167 189 0
165 187 0
163 186 0
163 186 0
171 194 0
165 188 0
166 188 0
167 190 0
171 193 0
169 191 0
164 187 0
162 185 0
164 187 0
161 184 0
166 188 0
160 183 0
162 185 0
163 186 0
161 185 0
166 188 0
163 187 0
164 186 0
163 187 0
159 183 0
164 187 0
165 187 0
161 183 0
166 189 0
163 185 0
159 182 0
168 191 0
163 186 0
164 188 0
159 181 0
160 183 0
157 179 0
163 186 0
160 183 0
162 185 0
164 186 0
162 185 0
165 187 0
161 184 0
164 187 0
163 186 0
162 184 0
155 177 0
167 189 0
157 180 0
160 182 0
166 188 0
157 179 0
158 181 0
158 180 0
157 179 0
157 179 0
161 184 0
159 180 0
164 187 0
154 177 0
164 186 0
155 178 0
153 176 0
159 182 0
160 183 0
147 169 0
156 178 0
157 178 0
160 182 0
157 180 0
157 180 0
154 177 0
158 182 0
158 180 0
158 181 0
158 181 0
158 181 0
160 184 0
167 190 0
151 175 0
157 181 0
165 187 0
154 176 0
157 180 0
164 187 0
160 182 0
154 176 0
156 179 0
153 176 0
153 175 0
158 180 0
157 180 0
155 177 0
154 177 0
159 182 0
159 181 0
157 178 0
156 179 0
155 176 0
164 186 0
159 182 0
158 180 0
150 173 0
157 179 0
154 177 0
162 185 0
155 177 0
151 172 0
156 179 0
155 176 0
163 185 0
150 172 0
156 179 0
148 170 0
149 171 0
155 177 0
157 178 0
154 176 0
154 175 0
151 174 0
151 173 0
156 177 0
154 175 0
155 176 0
158 181 0
154 175 0
158 180 0
150 173 0
155 177 0
153 175 0
154 176 0
156 177 0
145 168 0
154 176 0
157 180 0
150 172 0
152 175 0
151 174 0
149 170 0
158 180 0
154 176 0
146 166 0
152 174 0
152 172 0
152 174 0
150 171 0
148 168 0
149 169 0
150 172 0
153 174 0
149 170 0
152 173 0
143 164 0
148 169 0
148 170 0
154 175 0
147 169 0
147 168 0
148 169 0
152 173 0
148 170 0
150 171 0
145 167 0
158 180 0
150 170 0
152 173 0
147 168 0
149 170 0
152 171 0
151 171 0
154 177 0
151 171 0
148 167 0
151 172 0
156 177 0
147 169 0
157 179 0
145 165 0
150 171 0
146 167 0
152 172 0
150 172 0
143 164 0
151 173 0
142 162 0
152 173 0
149 171 0
148 167 0
153 174 0
148 170 0
146 166 0
148 167 0
141 160 0
152 172 0
151 170 0
150 172 0
150 171 0
150 172 0
148 168 0
143 164 0
144 166 0
153 172 0
153 171 0
140 159 0
153 172 0
147 165 0
141 160 0
151 172 0
149 167 0
148 167 0
148 168 0
151 172 0
148 170 0
143 164 0
148 167 0
140 159 0
150 170 0
148 169 0
147 166 0
150 170 0
152 172 0
146 163 0
149 169 0
143 162 0
156 175 0
154 172 0
149 169 0
150 170 0
150 167 0
135 153 0
148 169 0
145 164 0
150 168 0
152 171 0
148 167 0
155 174 0
153 172 0
152 169 0
142 161 0
146 165 0
155 172 0
146 164 0
151 170 0
149 167 0
150 168 0
146 165 0
154 173 0
153 173 0
150 167 0
156 176 0
147 164 0
155 171 0
147 163 0
147 166 0
144 160 0
154 173 0
152 168 0
147 165 0
146 161 0
147 163 0
155 174 0
143 158 0
152 167 0
155 172 0
152 165 0
141 156 0
152 170 0
151 171 0
150 165 0
150 165 0
148 165 0
159 176 0
156 171 0
156 171 0
153 167 0
148 164 0
153 169 0
149 165 0
150 167 0
152 168 0
150 164 0
158 176 0
151 167 0
152 167 0
161 177 0
156 173 0
157 174 0
153 167 0
158 174 0
151 167 0
151 164 0
154 167 0
153 167 0
156 171 0
156 173 0
158 174 0
153 168 0
153 165 0
154 167 0
154 170 0
150 162 0
151 164 0
158 172 0
162 176 0
151 166 0
156 168 0
151 166 0
149 160 0
150 159 0
153 166 0
150 158 0
151 164 0
147 159 0
156 168 0
155 167 0
153 164 0
155 169 0
147 158 0
151 161 0
152 163 0
153 164 0
154 168 0
153 166 0
158 171 0
150 160 0
150 160 0
149 158 0
154 165 0
156 168 0
156 169 0
151 159 0
149 162 0
155 167 0
157 171 0
153 162 0
157 166 0
154 163 0
152 164 0
161 175 0
156 167 0
158 170 0
156 165 0
154 163 0
155 163 0
153 160 0
159 170 0
154 163 0
152 163 0
156 163 0
159 169 0
157 168 0
156 164 0
156 167 0
155 164 0
151 162 0
154 162 0
152 163 0
158 168 0
158 167 0
155 164 0
158 166 0
153 158 0
168 191 0
172 195 0
168 190 0
171 192 0
172 194 0
169 191 0
166 189 0
169 193 0
168 191 0
169 192 0
166 189 0
167 190 0
166 189 0
166 190 0
167 189 0
167 190 0
166 188 0
168 190 0
170 193 0
172 194 0
168 191 0
165 188 0
168 191 0
165 188 0
166 190 0
160 183 0
172 194 0
168 191 0
163 186 0
166 188 0
166 188 0
167 190 0
168 191 0
168 191 0
169 192 0
167 190 0
170 192 0
167 190 0
172 194 0
171 194 0
161 184 0
164 186 0
171 193 0
164 186 0
164 186 0
170 192 0
162 185 0
162 183 0
160 183 0
161 184 0
158 181 0
164 187 0
168 191 0
166 189 0
162 184 0
165 187 0
159 181 0
167 189 0
168 191 0
163 186 0
168 191 0
165 187 0
162 185 0
168 190 0
169 192 0
167 189 0
169 191 0
163 186 0
165 187 0
162 185 0
161 184 0
163 186 0
169 192 0
162 184 0
157 180 0
161 184 0
170 192 0
161 183 0
162 185 0
162 185 0
166 189 0
157 180 0
163 186 0
160 183 0
157 180 0
157 179 0
159 181 0
168 191 0
160 184 0
155 179 0
159 183 0
152 176 0
157 179 0
158 180 0
160 183 0
155 178 0
156 179 0
159 181 0
155 177 0
163 186 0
159 182 0
156 179 0
159 182 0
163 186 0
162 184 0
161 184 0
158 181 0
162 185 0
164 187 0
154 177 0
157 180 0
160 184 0
162 184 0
154 176 0
160 182 0
156 179 0
160 183 0
158 180 0
155 178 0
160 183 0
157 180 0
158 180 0
164 188 0
157 179 0
160 183 0
163 187 0
159 184 0
161 184 0
151 174 0
152 174 0
157 179 0
151 174 0
158 181 0
152 174 0
153 175 0
158 181 0
156 179 0
150 173 0
156 177 0
154 177 0
158 180 0
155 177 0
153 176 0
151 174 0
149 171 0
154 176 0
153 176 0
154 176 0
157 180 0
155 178 0
152 175 0
155 178 0
148 169 0
154 175 0
153 176 0
161 182 0
151 173 0
156 178 0
153 175 0
154 175 0
159 181 0
155 176 0
152 175 0
158 180 0
148 171 0
155 177 0
152 175 0
154 176 0
156 177 0
154 177 0
152 175 0
156 177 0
156 178 0
156 179 0
154 176 0
145 167 0
149 171 0
149 171 0
152 172 0
149 171 0
149 171 0
155 177 0
151 171 0
153 175 0
153 175 0
152 174 0
152 173 0
151 171 0
148 170 0
144 163 0
154 176 0
151 172 0
147 169 0
146 167 0
145 166 0
150 171 0
143 164 0
155 175 0
143 163 0
149 171 0
150 173 0
144 166 0
145 167 0
144 165 0
149 171 0
148 170 0
147 169 0
151 172 0
147 169 0
152 172 0
157 177 0
144 164 0
146 167 0
145 166 0
146 168 0
153 174 0
151 172 0
153 173 0
146 167 0
153 173 0
147 167 0
154 175 0
149 168 0
149 170 0
155 175 0
158 180 0
147 167 0
148 168 0
155 175 0
142 161 0
154 176 0
146 167 0
148 167 0
148 169 0
151 171 0
155 175 0
152 173 0
144 164 0
145 166 0
152 175 0
154 175 0
147 167 0
148 167 0
147 168 0
152 172 0
147 167 0
136 154 0
150 171 0
152 174 0
150 170 0
155 176 0
138 157 0
152 171 0
145 164 0
154 173 0
150 171 0
147 167 0
140 160 0
148 167 0
151 171 0
151 170 0
152 171 0
148 168 0
151 171 0
149 167 0
149 169 0
150 169 0
158 180 0
152 173 0
147 165 0
150 169 0
147 166 0
147 167 0
149 168 0
157 177 0
151 167 0
148 166 0
149 168 0
153 171 0
155 174 0
151 171 0
152 169 0
150 168 0
149 167 0
146 161 0
152 170 0
148 164 0
150 168 0
149 167 0
154 172 0
156 175 0
150 170 0
155 171 0
150 169 0
148 164 0
153 171 0
156 173 0
149 168 0
150 168 0
151 166 0
150 166 0
149 165 0
152 170 0
154 171 0
152 167 0
154 171 0
148 167 0
147 160 0
144 160 0
148 163 0
148 163 0
153 171 0
148 165 0
144 160 0
146 164 0
149 161 0
150 166 0
150 166 0
154 170 0
146 159 0
152 168 0
154 168 0
149 164 0
156 170 0
155 172 0
147 161 0
147 163 0
153 167 0
150 164 0
154 171 0
148 160 0
154 168 0
145 159 0
160 174 0
154 167 0
146 159 0
151 168 0
151 164 0
148 162 0
154 167 0
151 164 0
150 160 0
151 167 0
157 169 0
157 171 0
155 166 0
151 164 0
147 159 0
149 162 0
148 157 0
152 166 0
153 165 0
153 166 0
155 167 0
156 168 0
159 173 0
159 175 0
155 168 0
151 162 0
155 166 0
154 165 0
154 167 0
156 168 0
156 167 0
152 160 0
156 170 0
159 170 0
159 171 0
152 162 0
153 163 0
152 164 0
154 165 0
150 159 0
153 163 0
147 152 0
161 174 0
153 163 0
151 163 0
154 165 0
155 165 0
153 164 0
157 170 0
159 169 0
158 169 0
158 171 0
155 164 0
154 163 0
154 161 0
156 165 0
160 172 0
156 166 0
159 169 0
157 170 0
154 162 0
158 169 0
155 167 0
156 167 0
157 167 0
158 170 0
160 169 0
172 194 0
171 194 0
166 190 0
170 192 0
170 192 0
168 192 0
173 195 0
171 194 0
163 186 0
171 193 0
171 194 0
170 192 0
168 191 0
163 186 0
165 188 0
165 188 0
167 189 0
163 185 0
169 192 0
164 187 0
168 191 0
166 189 0
165 187 0
168 191 0
164 186 0
166 189 0
168 191 0
171 194 0
166 188 0
168 190 0
163 186 0
162 185 0
167 190 0
165 188 0
167 190 0
167 190 0
165 187 0
166 189 0
167 190 0
166 188 0
167 191 0
166 190 0
166 189 0
166 189 0
157 180 0
162 185 0
165 188 0
169 190 0
161 184 0
162 184 0
160 183 0
166 189 0
167 191 0
164 186 0
164 187 0
166 190 0
163 185 0
163 185 0
161 186 0
159 182 0
159 183 0
156 178 0
168 191 0
167 189 0
159 182 0
168 190 0
167 188 0
159 183 0
164 187 0
160 182 0
166 189 0
166 189 0
164 187 0
164 186 0
158 181 0
161 183 0
160 182 0
158 181 0
161 184 0
162 185 0
159 182 0
161 184 0
160 184 0
162 185 0
163 186 0
160 182 0
160 183 0
162 185 0
162 185 0
164 186 0
159 182 0
159 182 0
161 182 0
159 182 0
163 187 0
165 188 0
157 178 0
161 183 0
154 177 0
159 180 0
161 184 0
161 183 0
156 179 0
159 182 0
162 185 0
162 185 0
159 181 0
160 184 0
159 182 0
162 185 0
162 185 0
166 189 0
159 181 0
163 186 0
163 186 0
157 180 0
156 179 0
158 180 0
159 182 0
163 185 0
159 183 0
158 180 0
157 180 0
156 178 0
159 182 0
144 166 0
159 182 0
159 182 0
156 179 0
156 179 0
157 179 0
158 180 0
156 179 0
162 184 0
160 181 0
158 180 0
161 183 0
153 176 0
158 180 0
156 179 0
154 176 0
144 166 0
153 176 0
157 179 0
153 177 0
151 173 0
150 172 0
150 173 0
150 172 0
160 182 0
153 176 0
141 163 0
150 172 0
156 179 0
160 183 0
155 176 0
154 176 0
156 178 0
144 165 0
157 179 0
153 176 0
153 176 0
149 172 0
159 182 0
154 176 0
155 177 0
155 177 0
146 167 0
151 172 0
156 178 0
152 174 0
157 179 0
155 178 0
147 170 0
145 167 0
157 179 0
146 168 0
156 179 0
153 174 0
155 177 0
155 177 0
150 172 0
152 175 0
150 172 0
152 173 0
151 172 0
152 173 0
154 176 0
152 173 0
157 179 0
149 171 0
152 175 0
146 166 0
155 176 0
150 171 0
151 173 0
145 166 0
148 169 0
149 170 0
153 174 0
147 166 0
152 173 0
151 172 0
150 172 0
150 170 0
142 165 0
148 170 0
149 171 0
149 167 0
147 168 0
150 171 0
149 170 0
153 173 0
144 165 0
150 170 0
155 176 0
147 168 0
140 162 0
149 170 0
150 170 0
151 173 0
148 168 0
149 171 0
146 168 0
149 169 0
148 167 0
150 170 0
152 171 0
154 175 0
147 168 0
153 173 0
152 171 0
151 169 0
148 166 0
139 159 0
157 180 0
141 160 0
151 171 0
148 168 0
149 169 0
148 169 0
155 174 0
147 168 0
148 167 0
150 170 0
149 169 0
151 171 0
148 166 0
143 162 0
153 174 0
149 169 0
152 172 0
151 172 0
150 170 0
146 165 0
148 168 0
152 171 0
149 165 0
150 170 0
152 172 0
150 169 0
148 167 0
154 172 0
147 167 0
154 172 0
154 175 0
155 173 0
150 168 0
148 167 0
146 164 0
149 167 0
144 160 0
148 166 0
154 172 0
150 170 0
143 162 0
151 169 0
147 167 0
150 168 0
155 172 0
139 157 0
157 176 0
151 170 0
143 160 0
148 165 0
145 161 0
156 173 0
151 167 0
147 166 0
153 172 0
154 174 0
146 164 0
156 174 0
150 166 0
142 160 0
154 173 0
149 167 0
152 170 0
158 178 0
148 165 0
154 174 0
148 165 0
146 161 0
149 165 0
150 166 0
154 169 0
159 175 0
146 162 0
150 165 0
146 160 0
157 175 0
148 162 0
154 172 0
150 165 0
155 172 0
155 172 0
158 176 0
142 157 0
152 170 0
149 164 0
147 162 0
145 159 0
149 165 0
149 162 0
157 174 0
152 167 0
153 167 0
146 160 0
155 171 0
144 158 0
152 167 0
152 166 0
157 171 0
157 172 0
152 167 0
154 169 0
142 153 0
154 167 0
158 170 0
150 166 0
140 151 0
149 160 0
157 173 0
154 167 0
149 165 0
152 167 0
156 170 0
145 156 0
155 168 0
150 163 0
151 163 0
152 163 0
151 165 0
153 164 0
155 168 0
149 161 0
153 167 0
150 164 0
157 170 0
154 168 0
150 161 0
156 169 0
151 162 0
159 173 0
153 163 0
147 159 0
158 169 0
160 172 0
153 163 0
153 162 0
159 171 0
150 160 0
149 159 0
154 164 0
157 171 0
156 166 0
149 161 0
155 168 0
151 158 0
153 165 0
157 167 0
156 170 0
154 165 0
152 165 0
150 158 0
157 166 0
154 165 0
158 171 0
154 163 0
159 168 0
151 161 0
154 163 0
157 169 0
155 163 0
158 165 0
161 172 0
154 164 0
160 171 0
158 172 0
158 169 0
171 192 0
171 193 0
172 194 0
168 190 0
172 195 0
166 189 0
165 187 0
169 191 0
170 192 0
172 194 0
171 194 0
167 190 0
167 189 0
165 188 0
168 190 0
165 188 0
170 192 0
167 189 0
169 192 0
172 195 0
165 187 0
167 190 0
167 190 0
165 188 0
165 188 0
164 188 0
167 190 0
162 185 0
162 184 0
165 188 0
166 188 0
167 189 0
164 186 0
163 186 0
166 189 0
168 189 0
167 190 0
165 188 0
172 194 0
166 188 0
169 191 0
163 185 0
166 188 0
168 190 0
167 189 0
166 188 0
164 187 0
158 181 0
159 182 0
159 182 0
163 185 0
160 183 0
164 186 0
163 186 0
167 190 0
165 188 0
163 185 0
168 191 0
164 186 0
162 184 0
158 181 0
166 188 0
161 184 0
162 183 0
166 189 0
167 191 0
158 180 0
167 190 0
164 186 0
169 192 0
166 190 0
167 189 0
160 183 0
160 184 0
166 189 0
163 185 0
159 182 0
163 187 0
152 174 0
156 179 0
157 181 0
162 185 0
161 184 0
163 185 0
162 185 0
164 187 0
164 188 0
159 182 0
157 179 0
165 188 0
159 182 0
160 183 0
161 184 0
162 184 0
161 184 0
156 179 0
162 185 0
159 182 0
164 187 0
158 181 0
160 183 0
158 182 0
152 175 0
166 189 0
156 179 0
162 184 0
162 184 0
160 182 0
155 178 0
155 177 0
156 178 0
161 185 0
159 182 0
163 186 0
163 187 0
155 178 0
160 182 0
158 181 0
160 182 0
160 182 0
160 183 0
158 180 0
155 177 0
157 180 0
156 179 0
162 185 0
161 185 0
150 173 0
156 178 0
158 180 0
160 184 0
153 175 0
156 179 0
161 183 0
156 179 0
156 178 0
158 180 0
151 172 0
159 180 0
160 183 0
157 178 0
157 179 0
150 173 0
153 175 0
153 175 0
157 179 0
152 175 0
156 178 0
151 172 0
155 178 0
149 171 0
161 184 0
156 177 0
150 172 0
157 181 0
155 176 0
159 181 0
156 178 0
157 178 0
156 178 0
151 173 0
153 176 0
154 175 0
146 168 0
152 173 0
154 175 0
155 177 0
154 176 0
149 170 0
148 171 0
141 163 0
151 173 0
151 174 0
156 177 0
148 170 0
157 179 0
148 169 0
152 173 0
151 173 0
157 179 0
147 169 0
153 175 0
148 170 0
155 178 0
157 178 0
148 169 0
159 181 0
150 171 0
148 170 0
154 176 0
152 174 0
153 173 0
146 166 0
147 170 0
149 171 0
156 179 0
147 167 0
149 172 0
143 164 0
157 179 0
148 169 0
142 164 0
156 178 0
151 171 0
144 164 0
147 170 0
146 167 0
148 170 0
151 171 0
151 173 0
153 174 0
150 172 0
147 167 0
155 175 0
149 172 0
148 170 0
147 169 0
148 169 0
154 174 0
153 173 0
158 180 0
153 175 0
152 173 0
150 169 0
144 164 0
159 179 0
147 168 0
149 169 0
154 175 0
142 163 0
152 172 0
158 179 0
152 174 0
150 170 0
146 166 0
150 172 0
148 168 0
149 169 0
150 169 0
139 159 0
153 175 0
154 174 0
153 172 0
153 174 0
151 173 0
149 170 0
148 167 0
151 172 0
154 174 0
149 168 0
153 174 0
151 171 0
148 170 0
151 170 0
154 174 0
149 167 0
153 174 0
150 169 0
150 171 0
154 174 0
150 170 0
148 169 0
155 173 0
153 173 0
156 175 0
147 166 0
154 175 0
154 172 0
143 161 0
154 174 0
144 163 0
155 175 0
156 177 0
146 165 0
160 179 0
159 180 0
147 163 0
150 169 0
154 173 0
145 162 0
153 170 0
154 174 0
144 163 0
160 179 0
148 166 0
153 171 0
155 173 0
147 165 0
150 166 0
152 170 0
149 167 0
153 171 0
148 166 0
152 170 0
147 163 0
152 169 0
146 166 0
150 167 0
154 173 0
151 167 0
146 161 0
149 164 0
151 169 0
157 175 0
155 173 0
150 168 0
153 170 0
155 171 0
155 171 0
153 169 0
151 166 0
155 172 0
153 171 0
155 172 0
150 169 0
143 157 0
151 165 0
152 170 0
150 168 0
152 167 0
153 169 0
152 167 0
154 171 0
158 172 0
147 163 0
150 167 0
152 167 0
151 165 0
153 166 0
152 171 0
151 167 0
156 170 0
150 162 0
152 167 0
153 164 0
155 168 0
153 168 0
151 166 0
152 167 0
151 168 0
145 160 0
153 168 0
151 165 0
147 162 0
150 169 0
154 169 0
155 169 0
155 171 0
143 156 0
156 169 0
155 169 0
151 165 0
146 157 0
151 164 0
148 159 0
155 168 0
156 169 0
148 162 0
154 167 0
155 166 0
157 169 0
155 167 0
158 171 0
154 167 0
154 164 0
157 168 0
161 176 0
154 167 0
154 165 0
153 166 0
151 160 0
156 170 0
157 171 0
154 163 0
158 171 0
151 162 0
155 167 0
153 162 0
151 162 0
157 168 0
160 173 0
159 171 0
155 166 0
159 172 0
158 170 0
160 172 0
159 171 0
156 166 0
152 163 0
155 165 0
157 168 0
157 166 0
151 158 0
159 170 0
154 165 0
160 173 0
159 171 0
160 173 0
156 163 0
161 171 0
168 191 0
168 191 0
171 193 0
167 189 0
169 192 0
168 191 0
168 191 0
165 187 0
169 192 0
164 186 0
171 193 0
166 189 0
166 187 0
171 193 0
167 189 0
173 195 0
167 189 0
167 190 0
167 189 0
169 190 0
169 190 0
165 188 0
165 188 0
166 190 0
174 197 0
162 185 0
167 189 0
166 190 0
170 193 0
164 187 0
168 190 0
162 185 0
170 193 0
170 193 0
163 187 0
161 184 0
168 190 0
166 188 0
166 189 0
169 192 0
163 186 0
165 187 0
165 187 0
169 191 0
161 183 0
164 187 0
161 183 0
150 172 0
165 187 0
163 186 0
162 184 0
164 187 0
158 182 0
164 187 0
164 187 0
160 183 0
167 189 0
167 188 0
160 183 0
174 196 0
162 184 0
166 189 0
161 184 0
161 183 0
162 184 0
163 185 0
166 189 0
164 187 0
164 186 0
158 182 0
160 183 0
162 185 0
161 185 0
166 187 0
163 185 0
158 181 0
163 185 0
158 181 0
158 182 0
165 187 0
154 177 0
156 179 0
167 190 0
161 183 0
159 181 0
157 179 0
163 186 0
163 187 0
157 181 0
164 187 0
159 182 0
160 182 0
163 185 0
160 183 0
160 183 0
162 185 0
156 177 0
163 185 0
158 180 0
161 185 0
163 186 0
161 184 0
160 183 0
154 176 0
160 183 0
160 183 0
164 186 0
156 179 0
160 183 0
153 176 0
151 174 0
156 180 0
163 186 0
157 180 0
162 185 0
159 183 0
164 187 0
156 178 0
160 183 0
164 187 0
161 184 0
160 183 0
156 179 0
154 177 0
160 183 0
158 181 0
151 174 0
164 187 0
154 176 0
155 178 0
149 172 0
151 174 0
159 181 0
157 180 0
156 179 0
155 177 0
160 183 0
158 181 0
156 179 0
156 179 0
160 182 0
149 172 0
153 175 0
154 177 0
157 180 0
160 182 0
153 173 0
152 175 0
156 178 0
157 179 0
154 176 0
159 182 0
157 178 0
157 180 0
153 175 0
146 169 0
162 183 0
153 175 0
155 177 0
156 178 0
153 175 0
151 173 0
147 168 0
156 179 0
154 176 0
157 178 0
153 174 0
155 178 0
143 166 0
147 168 0
153 174 0
152 175 0
154 177 0
159 180 0
154 176 0
152 173 0
154 176 0
153 174 0
153 177 0
150 171 0
155 177 0
141 161 0
151 173 0
151 174 0
153 175 0
149 171 0
153 175 0
153 174 0
142 162 0
152 173 0
150 172 0
153 175 0
155 175 0
156 179 0
145 165 0
154 175 0
148 169 0
146 168 0
158 180 0
143 164 0
154 175 0
151 172 0
156 176 0
144 164 0
154 176 0
156 178 0
151 171 0
147 169 0
155 175 0
154 176 0
152 175 0
150 170 0
152 172 0
147 168 0
152 173 0
152 172 0
150 171 0
148 168 0
151 172 0
161 181 0
143 162 0
155 176 0
155 177 0
144 165 0
146 167 0
151 171 0
156 178 0
155 175 0
149 170 0
156 176 0
151 170 0
150 172 0
151 172 0
150 170 0
148 168 0
149 170 0
156 176 0
155 177 0
153 174 0
150 171 0
153 173 0
152 173 0
149 170 0
148 169 0
158 177 0
148 168 0
147 165 0
146 165 0
156 176 0
153 174 0
151 169 0
150 171 0
150 169 0
151 171 0
147 166 0
154 174 0
147 167 0
145 164 0
149 167 0
143 163 0
151 169 0
149 169 0
153 173 0
153 173 0
150 169 0
159 179 0
157 177 0
152 171 0
144 163 0
154 174 0
146 164 0
152 172 0
154 174 0
152 170 0
152 171 0
154 173 0
148 168 0
150 169 0
144 161 0
155 177 0
150 168 0
155 174 0
157 177 0
155 174 0
146 167 0
157 176 0
149 168 0
150 168 0
153 172 0
154 171 0
153 171 0
154 174 0
153 171 0
147 165 0
157 174 0
157 176 0
147 165 0
149 167 0
145 162 0
149 168 0
157 174 0
154 175 0
151 169 0
151 170 0
154 172 0
145 161 0
150 168 0
157 173 0
148 165 0
152 169 0
151 169 0
147 162 0
148 166 0
156 171 0
147 163 0
150 165 0
157 175 0
145 161 0
155 170 0
152 168 0
148 163 0
149 164 0
151 167 0
155 170 0
157 174 0
152 170 0
155 171 0
157 173 0
159 176 0
152 166 0
151 166 0
149 165 0
142 157 0
155 173 0
154 167 0
154 169 0
157 172 0
157 174 0
156 173 0
153 168 0
155 171 0
158 173 0
156 172 0
154 167 0
154 168 0
154 170 0
145 157 0
154 167 0
160 174 0
153 168 0
152 164 0
155 165 0
158 173 0
157 172 0
155 169 0
157 172 0
144 159 0
155 169 0
150 161 0
154 167 0
159 174 0
151 166 0
157 169 0
155 167 0
150 162 0
151 161 0
156 166 0
158 170 0
161 174 0
148 161 0
154 164 0
161 175 0
153 164 0
159 171 0
153 166 0
156 169 0
159 169 0
147 154 0
155 165 0
157 169 0
159 172 0
159 173 0
149 158 0
152 164 0
159 171 0
157 170 0
151 161 0
158 170 0
159 171 0
161 173 0
157 169 0
160 170 0
159 172 0
158 170 0
156 166 0
158 166 0
159 172 0
158 168 0
162 174 0
159 170 0
169 193 0
167 190 0
171 194 0
164 187 0
169 192 0
172 194 0
166 189 0
168 191 0
170 192 0
170 192 0
167 189 0
166 189 0
171 194 0
166 190 0
168 191 0
169 191 0
168 191 0
169 191 0
167 190 0
168 191 0
168 190 0
168 192 0
169 192 0
165 188 0
165 188 0
167 190 0
161 184 0
165 188 0
167 190 0
162 186 0
164 187 0
166 189 0
167 190 0
167 189 0
159 181 0
165 188 0
163 185 0
165 188 0
171 193 0
162 185 0
165 187 0
164 187 0
169 192 0
165 188 0
169 191 0
169 190 0
165 188 0
163 186 0
159 183 0
168 191 0
168 191 0
166 188 0
163 186 0
162 184 0
163 186 0
159 182 0
166 189 0
160 184 0
162 185 0
164 187 0
163 186 0
157 179 0
166 189 0
161 183 0
164 187 0
161 183 0
168 191 0
162 185 0
160 184 0
158 181 0
164 188 0
162 185 0
163 186 0
154 177 0
164 187 0
162 184 0
158 180 0
154 177 0
165 188 0
164 185 0
160 183 0
160 182 0
165 188 0
159 181 0
164 187 0
163 185 0
163 184 0
162 185 0
156 179 0
164 186 0
159 182 0
162 184 0
163 186 0
164 187 0
164 186 0
158 181 0
155 178 0
162 185 0
164 187 0
159 180 0
164 187 0
165 188 0
156 180 0
161 184 0
160 182 0
159 182 0
154 177 0
160 183 0
158 181 0
159 182 0
159 180 0
157 180 0
159 182 0
154 178 0
154 177 0
156 179 0
156 178 0
164 188 0
162 185 0
162 185 0
156 180 0
152 174 0
164 186 0
155 177 0
157 181 0
156 178 0
153 177 0
155 177 0
164 186 0
156 180 0
152 174 0
158 181 0
151 173 0
153 176 0
150 172 0
153 176 0
154 176 0
161 183 0
158 182 0
159 180 0
157 179 0
152 174 0
158 179 0
148 170 0
158 182 0
160 183 0
157 179 0
162 185 0
158 180 0
155 177 0
155 179 0
156 177 0
150 173 0
153 174 0
154 176 0
152 174 0
152 175 0
157 179 0
152 174 0
157 179 0
151 173 0
152 174 0
152 174 0
156 178 0
152 174 0
153 174 0
154 177 0
152 176 0
160 183 0
149 171 0
156 177 0
152 174 0
152 174 0
157 179 0
159 181 0
157 179 0
150 173 0
155 177 0
148 170 0
152 173 0
152 173 0
155 178 0
146 168 0
156 178 0
144 163 0
147 169 0
142 164 0
148 170 0
160 182 0
156 178 0
150 171 0
142 163 0
154 176 0
150 171 0
146 167 0
147 169 0
149 170 0
150 171 0
151 173 0
155 177 0
153 175 0
151 172 0
148 169 0
145 168 0
141 162 0
148 168 0
154 175 0
146 168 0
143 165 0
146 168 0
149 170 0
158 178 0
143 165 0
153 176 0
151 172 0
150 171 0
149 171 0
150 171 0
152 173 0
156 178 0
152 172 0
152 174 0
157 178 0
144 165 0
149 169 0
143 163 0
145 165 0
156 175 0
154 176 0
148 168 0
152 173 0
146 165 0
150 171 0
148 167 0
150 170 0
148 168 0
140 161 0
156 176 0
158 179 0
151 170 0
154 175 0
151 172 0
155 176 0
153 172 0
151 172 0
150 171 0
149 169 0
154 174 0
153 173 0
151 171 0
145 167 0
148 169 0
146 165 0
148 167 0
150 169 0
157 177 0
147 168 0
146 165 0
147 166 0
147 167 0
156 176 0
148 168 0
155 174 0
151 171 0
147 165 0
147 167 0
149 168 0
150 170 0
146 167 0
145 164 0
153 172 0
154 175 0
150 167 0
153 173 0
158 176 0
154 173 0
144 161 0
141 161 0
156 175 0
160 181 0
145 163 0
151 168 0
152 170 0
149 169 0
156 175 0
151 170 0
151 169 0
148 167 0
150 166 0
156 175 0
151 170 0
151 169 0
152 169 0
157 176 0
158 176 0
146 164 0
159 175 0
147 164 0
151 170 0
147 164 0
151 168 0
150 164 0
146 167 0
154 174 0
151 169 0
154 172 0
154 171 0
158 175 0
151 168 0
155 172 0
153 170 0
161 178 0
153 170 0
150 167 0
159 177 0
151 167 0
156 174 0
155 171 0
155 172 0
152 169 0
154 169 0
149 164 0
152 167 0
151 168 0
157 173 0
155 170 0
158 176 0
154 170 0
152 167 0
154 170 0
150 166 0
152 168 0
156 173 0
152 169 0
153 168 0
152 166 0
154 169 0
154 166 0
150 166 0
147 162 0
150 166 0
152 167 0
156 170 0
146 157 0
150 166 0
150 165 0
158 175 0
149 162 0
154 170 0
150 163 0
161 176 0
146 159 0
160 174 0
160 175 0
159 171 0
158 171 0
161 177 0
154 170 0
156 168 0
151 163 0
152 165 0
153 167 0
153 164 0
160 175 0
160 172 0
152 163 0
155 166 0
150 162 0
157 171 0
154 168 0
155 165 0
156 169 0
156 171 0
157 169 0
160 173 0
157 167 0
153 164 0
160 176 0
156 169 0
153 165 0
151 161 0
155 167 0
158 170 0
157 170 0
145 156 0
148 158 0
157 166 0
156 166 0
152 162 0
165 179 0
156 167 0
160 171 0
157 166 0
158 170 0
155 164 0
155 166 0
157 171 0
150 159 0
155 166 0
153 163 0
165 188 0
166 188 0
167 188 0
165 187 0
168 191 0
170 192 0
170 192 0
170 193 0
168 191 0
165 187 0
168 191 0
167 189 0
164 186 0
169 191 0
163 185 0
164 187 0
168 190 0
167 190 0
169 192 0
166 188 0
165 186 0
169 191 0
168 192 0
166 189 0
165 188 0
168 191 0
166 189 0
165 188 0
165 188 0
167 189 0
168 190 0
166 189 0
166 189 0
162 185 0
171 194 0
166 189 0
167 190 0
172 194 0
164 188 0
164 187 0
156 179 0
168 191 0
163 186 0
158 181 0
162 184 0
161 184 0
163 185 0
165 188 0
165 188 0
168 190 0
164 186 0
160 184 0
164 187 0
165 187 0
162 185 0
164 186 0
164 187 0
167 189 0
162 184 0
160 183 0
166 188 0
163 185 0
158 181 0
165 188 0
164 188 0
166 189 0
162 185 0
160 183 0
159 181 0
164 188 0
162 185 0
158 181 0
167 190 0
163 186 0
161 182 0
160 184 0
167 190 0
160 183 0
162 186 0
158 181 0
164 187 0
161 184 0
160 184 0
159 182 0
159 182 0
155 177 0
163 186 0
160 183 0
155 177 0
165 188 0
157 181 0
160 183 0
165 187 0
161 183 0
160 183 0
162 185 0
154 177 0
163 186 0
160 183 0
163 185 0
164 187 0
163 185 0
166 189 0
167 189 0
158 180 0
158 181 0
159 183 0
159 181 0
156 178 0
165 187 0
160 184 0
160 184 0
161 184 0
156 178 0
156 179 0
154 177 0
160 183 0
149 172 0
157 180 0
154 176 0
160 183 0
161 184 0
156 180 0
156 178 0
158 182 0
149 173 0
158 182 0
158 182 0
161 183 0
150 173 0
155 176 0
161 183 0
159 181 0
152 175 0
145 168 0
159 181 0
151 173 0
158 181 0
155 177 0
161 184 0
159 182 0
158 180 0
153 176 0
157 181 0
156 178 0
161 184 0
155 178 0
156 178 0
144 166 0
145 167 0
155 176 0
154 176 0
151 173 0
149 171 0
154 176 0
160 182 0
157 179 0
156 178 0
159 181 0
161 184 0
154 178 0
151 172 0
154 175 0
161 183 0
154 176 0
156 178 0
148 171 0
158 180 0
148 170 0
155 177 0
156 178 0
146 168 0
150 172 0
151 171 0
151 171 0
154 177 0
145 165 0
152 174 0
154 175 0
152 174 0
149 170 0
147 169 0
162 183 0
152 173 0
151 173 0
151 172 0
154 176 0
156 178 0
150 173 0
145 167 0
159 179 0
157 178 0
144 167 0
154 176 0
151 174 0
145 166 0
148 170 0
148 169 0
139 161 0
153 175 0
148 171 0
146 168 0
153 175 0
144 165 0
154 176 0
154 174 0
155 177 0
152 174 0
154 176 0
153 175 0
142 164 0
152 173 0
153 175 0
156 177 0
151 170 0
145 167 0
151 172 0
148 167 0
146 167 0
148 169 0
142 163 0
149 172 0
148 169 0
149 170 0
150 170 0
151 171 0
143 162 0
152 172 0
154 176 0
148 168 0
147 169 0
154 174 0
147 168 0
149 171 0
151 172 0
142 163 0
144 164 0
149 170 0
157 179 0
154 174 0
143 162 0
150 169 0
158 179 0
153 172 0
148 169 0
154 173 0
151 169 0
151 170 0
155 175 0
153 173 0
154 173 0
148 167 0
149 169 0
156 177 0
154 175 0
150 167 0
150 172 0
159 179 0
152 173 0
149 169 0
139 159 0
152 173 0
152 171 0
148 168 0
159 177 0
152 172 0
155 175 0
145 162 0
152 172 0
153 175 0
146 165 0
153 172 0
154 173 0
143 162 0
153 171 0
153 173 0
152 170 0
156 176 0
152 171 0
150 168 0
144 163 0
153 171 0
150 167 0
152 171 0
151 171 0
156 175 0
156 174 0
152 170 0
150 169 0
156 173 0
150 168 0
152 168 0
153 172 0
148 166 0
152 171 0
153 171 0
158 176 0
152 171 0
154 173 0
150 167 0
150 170 0
155 174 0
151 169 0
145 163 0
152 169 0
153 173 0
149 165 0
152 169 0
156 171 0
162 182 0
152 170 0
157 175 0
152 168 0
150 167 0
158 174 0
146 162 0
159 176 0
155 172 0
150 166 0
151 168 0
148 166 0
160 176 0
154 170 0
150 165 0
151 167 0
154 171 0
150 166 0
152 168 0
151 167 0
156 172 0
153 168 0
160 174 0
155 169 0
155 172 0
152 165 0
152 167 0
158 173 0
150 168 0
151 166 0
149 164 0
152 169 0
153 168 0
154 168 0
156 169 0
154 168 0
157 173 0
153 165 0
155 169 0
150 164 0
157 169 0
158 174 0
154 170 0
155 166 0
156 172 0
152 165 0
156 171 0
151 162 0
152 167 0
155 167 0
155 169 0
151 163 0
158 171 0
154 168 0
148 157 0
156 169 0
150 163 0
155 165 0
159 172 0
158 172 0
156 169 0
153 163 0
159 172 0
152 164 0
153 167 0
153 166 0
152 165 0
151 161 0
153 165 0
155 167 0
156 169 0
153 164 0
160 173 0
161 171 0
154 164 0
155 168 0
159 170 0
154 167 0
154 164 0
160 171 0
153 161 0
157 170 0
154 165 0
157 170 0
157 170 0
159 174 0
157 171 0
158 168 0
156 169 0
157 169 0
158 168 0
165 188 0
167 190 0
171 194 0
169 192 0
170 193 0
165 188 0
170 193 0
171 195 0
165 189 0
162 185 0
167 190 0
167 190 0
165 188 0
169 192 0
169 192 0
167 190 0
167 190 0
163 186 0
171 194 0
170 192 0
167 189 0
168 190 0
166 189 0
164 188 0
164 188 0
169 192 0
168 192 0
167 190 0
166 189 0
164 187 0
163 186 0
164 187 0
169 192 0
163 187 0
164 188 0
164 186 0
167 189 0
164 187 0
161 184 0
167 188 0
165 188 0
168 191 0
166 188 0
161 185 0
171 193 0
162 185 0
169 192 0
166 188 0
166 189 0
165 187 0
165 188 0
169 192 0
164 188 0
160 182 0
166 189 0
165 188 0
164 188 0
163 186 0
167 190 0
168 190 0
162 185 0
166 189 0
160 183 0
166 188 0
164 186 0
164 187 0
164 186 0
159 182 0
161 184 0
159 182 0
166 189 0
162 185 0
159 183 0
164 187 0
168 189 0
163 186 0
154 177 0
160 182 0
161 184 0
162 184 0
165 187 0
156 180 0
163 186 0
163 185 0
162 185 0
163 186 0
163 185 0
161 184 0
161 184 0
163 187 0
163 185 0
163 186 0
164 187 0
168 190 0
159 182 0
165 188 0
160 181 0
159 182 0
158 181 0
158 181 0
162 185 0
158 181 0
161 184 0
157 179 0
157 179 0
157 180 0
160 182 0
161 184 0
163 186 0
161 183 0
164 186 0
153 175 0
163 186 0
160 181 0
159 182 0
159 181 0
158 181 0
158 181 0
161 185 0
156 180 0
158 180 0
163 186 0
159 182 0
158 180 0
154 178 0
161 183 0
155 178 0
153 176 0
155 176 0
154 177 0
158 181 0
152 175 0
155 178 0
157 179 0
154 177 0
159 181 0
157 180 0
154 176 0
157 180 0
160 183 0
157 179 0
167 190 0
162 185 0
159 182 0
158 180 0
156 178 0
154 175 0
157 179 0
155 178 0
152 173 0
155 178 0
160 182 0
157 179 0
155 178 0
154 177 0
147 171 0
158 181 0
148 170 0
162 184 0
146 167 0
153 176 0
151 174 0
149 171 0
155 176 0
154 176 0
146 167 0
155 175 0
160 182 0
157 178 0
159 182 0
151 172 0
147 169 0
156 177 0
156 177 0
152 176 0
153 176 0
150 171 0
154 177 0
144 165 0
158 178 0
156 178 0
161 182 0
150 172 0
147 168 0
159 181 0
147 170 0
155 176 0
152 175 0
156 176 0
158 179 0
147 168 0
157 178 0
153 174 0
150 172 0
153 175 0
156 178 0
145 166 0
148 169 0
161 184 0
150 171 0
149 170 0
153 176 0
150 171 0
151 171 0
152 174 0
145 165 0
152 173 0
154 175 0
144 165 0
156 177 0
155 175 0
147 168 0
157 179 0
143 162 0
151 172 0
154 176 0
149 169 0
145 166 0
160 181 0
151 172 0
147 169 0
149 171 0
156 177 0
151 173 0
148 169 0
153 176 0
155 176 0
151 171 0
146 167 0
151 172 0
154 174 0
149 168 0
148 169 0
152 172 0
148 169 0
153 174 0
151 171 0
144 166 0
152 173 0
150 171 0
150 170 0
148 167 0
152 171 0
152 172 0
151 172 0
152 173 0
149 168 0
150 170 0
148 167 0
152 171 0
154 174 0
152 173 0
151 171 0
149 168 0
154 175 0
154 172 0
148 169 0
144 165 0
141 162 0
149 168 0
156 175 0
156 175 0
159 178 0
152 174 0
149 169 0
153 172 0
145 165 0
157 179 0
152 172 0
145 163 0
151 171 0
148 166 0
147 165 0
161 181 0
156 174 0
155 174 0
154 174 0
152 172 0
151 171 0
153 171 0
157 178 0
153 171 0
154 173 0
150 170 0
148 165 0
158 179 0
154 172 0
151 170 0
144 162 0
151 168 0
153 172 0
153 172 0
151 170 0
147 166 0
152 170 0
147 165 0
152 171 0
156 176 0
154 172 0
156 175 0
152 169 0
155 173 0
155 172 0
157 176 0
143 158 0
151 168 0
156 174 0
151 169 0
155 171 0
155 171 0
155 172 0
148 163 0
156 174 0
151 168 0
153 171 0
156 175 0
155 171 0
149 167 0
153 168 0
158 174 0
155 173 0
153 169 0
150 167 0
150 168 0
163 180 0
156 174 0
156 172 0
152 170 0
158 172 0
154 171 0
153 170 0
154 170 0
150 166 0
163 179 0
155 172 0
153 167 0
155 170 0
151 165 0
154 170 0
155 170 0
145 161 0
155 172 0
156 171 0
158 170 0
153 168 0
157 171 0
157 173 0
148 161 0
155 170 0
154 167 0
160 175 0
151 167 0
150 163 0
149 164 0
153 168 0
148 161 0
157 170 0
154 169 0
153 164 0
155 167 0
157 175 0
154 168 0
156 172 0
154 167 0
150 164 0
163 176 0
164 178 0
152 164 0
152 163 0
154 167 0
154 163 0
154 168 0
161 175 0
153 166 0
158 171 0
156 168 0
155 168 0
156 170 0
157 171 0
156 169 0
156 166 0
155 170 0
154 166 0
160 174 0
153 165 0
157 169 0
156 168 0
153 164 0
158 171 0
157 169 0
159 170 0
160 171 0
162 176 0
160 174 0
156 169 0
152 161 0
160 174 0
157 171 0
157 168 0
161 173 0
170 192 0
167 189 0
170 193 0
165 188 0
166 189 0
170 193 0
168 190 0
170 192 0
169 191 0
167 190 0
164 186 0
169 190 0
168 191 0
167 189 0
167 191 0
168 191 0
169 192 0
168 191 0
165 189 0
166 188 0
169 192 0
167 190 0
163 186 0
165 189 0
170 193 0
168 190 0
168 191 0
161 184 0
167 190 0
165 188 0
167 190 0
164 187 0
168 191 0
165 187 0
167 189 0
163 186 0
165 188 0
163 186 0
161 185 0
163 185 0
168 190 0
163 186 0
164 187 0
164 187 0
167 190 0
162 186 0
165 189 0
159 182 0
166 189 0
167 191 0
164 186 0
164 187 0
164 188 0
162 185 0
167 189 0
164 188 0
161 183 0
166 189 0
167 190 0
164 187 0
167 190 0
166 190 0
158 180 0
160 183 0
159 181 0
164 187 0
159 181 0
165 188 0
166 189 0
156 180 0
157 180 0
162 185 0
162 185 0
162 185 0
167 190 0
161 184 0
155 177 0
162 185 0
161 183 0
157 178 0
163 187 0
168 190 0
165 188 0
166 189 0
163 186 0
164 188 0
159 182 0
161 186 0
159 182 0
159 183 0
162 186 0
163 185 0
160 183 0
158 180 0
156 179 0
167 190 0
160 183 0
159 183 0
158 180 0
156 177 0
156 179 0
159 182 0
160 183 0
162 184 0
159 182 0
155 176 0
161 183 0
163 186 0
154 177 0
156 179 0
164 188 0
160 183 0
162 186 0
161 184 0
156 179 0
158 179 0
163 186 0
162 185 0
159 182 0
160 182 0
162 185 0
159 181 0
163 185 0
153 175 0
152 175 0
158 181 0
157 180 0
157 179 0
159 182 0
155 178 0
161 184 0
159 181 0
160 183 0
157 179 0
160 183 0
157 179 0
156 178 0
158 181 0
155 176 0
156 179 0
160 182 0
164 186 0
160 183 0
160 182 0
158 181 0
161 183 0
158 180 0
163 184 0
155 178 0
151 173 0
157 180 0
155 176 0
162 184 0
153 174 0
157 179 0
152 176 0
158 180 0
156 178 0
153 174 0
153 174 0
151 174 0
153 174 0
151 174 0
154 176 0
158 181 0
151 173 0
154 177 0
157 178 0
157 180 0
156 178 0
155 177 0
159 182 0
159 181 0
154 176 0
155 178 0
153 175 0
155 175 0
152 173 0
155 177 0
158 180 0
157 179 0
153 174 0
152 174 0
148 169 0
153 175 0
149 170 0
150 172 0
157 179 0
154 175 0
155 177 0
144 165 0
158 181 0
154 176 0
156 178 0
159 180 0
147 167 0
141 162 0
155 178 0
148 170 0
153 174 0
148 169 0
144 165 0
158 181 0
152 174 0
153 175 0
146 167 0
151 172 0
157 179 0
148 169 0
152 173 0
151 170 0
152 171 0
154 173 0
158 181 0
150 170 0
157 179 0
155 177 0
153 174 0
153 174 0
154 175 0
151 172 0
151 173 0
162 183 0
152 174 0
161 181 0
154 176 0
151 172 0
144 165 0
150 170 0
154 177 0
145 166 0
148 167 0
156 177 0
145 164 0
147 168 0
151 171 0
152 173 0
149 171 0
149 169 0
145 164 0
154 175 0
155 177 0
151 170 0
150 171 0
152 171 0
158 179 0
153 173 0
147 168 0
154 175 0
145 165 0
152 173 0
150 171 0
151 170 0
153 175 0
148 169 0
151 172 0
154 172 0
149 169 0
153 175 0
154 174 0
155 174 0
152 170 0
155 176 0
149 169 0
156 176 0
156 176 0
151 170 0
148 165 0
154 174 0
148 168 0
156 176 0
157 176 0
157 176 0
154 172 0
151 172 0
151 169 0
152 172 0
151 170 0
152 173 0
151 171 0
155 174 0
151 169 0
147 166 0
150 170 0
153 170 0
145 162 0
156 175 0
155 173 0
149 168 0
156 175 0
152 171 0
151 169 0
149 169 0
154 172 0
153 171 0
157 174 0
149 165 0
157 176 0
150 169 0
156 176 0
154 172 0
155 173 0
152 170 0
155 172 0
156 172 0
152 170 0
151 169 0
156 174 0
156 173 0
159 177 0
150 167 0
148 165 0
153 171 0
149 166 0
153 167 0
151 168 0
146 163 0
158 179 0
150 169 0
157 174 0
152 169 0
151 167 0
157 175 0
156 170 0
151 168 0
151 167 0
152 169 0
155 174 0
151 165 0
157 173 0
156 173 0
158 173 0
159 176 0
152 167 0
150 168 0
151 169 0
153 165 0
152 167 0
155 170 0
161 176 0
154 167 0
154 165 0
159 175 0
149 163 0
155 171 0
151 167 0
154 169 0
154 167 0
153 169 0
156 170 0
153 166 0
154 172 0
154 168 0
159 175 0
155 168 0
155 170 0
153 164 0
155 170 0
161 175 0
157 170 0
158 170 0
152 166 0
156 171 0
156 170 0
155 169 0
155 171 0
153 164 0
156 171 0
150 165 0
158 171 0
158 173 0
158 172 0
156 172 0
154 166 0
155 165 0
155 168 0
154 163 0
159 173 0
153 167 0
158 173 0
154 168 0
153 166 0
152 164 0
154 167 0
159 171 0
156 167 0
154 166 0
163 176 0
158 172 0
160 172 0
155 168 0
162 178 0
156 167 0
156 166 0
158 171 0
157 170 0
150 162 0
156 170 0
158 169 0
158 168 0
168 191 0
168 190 0
169 192 0
169 191 0
169 192 0
168 191 0
171 193 0
168 191 0
171 194 0
168 191 0
164 187 0
170 193 0
170 192 0
164 186 0
164 187 0
169 191 0
165 188 0
170 192 0
172 194 0
167 190 0
167 191 0
168 191 0
159 182 0
164 186 0
165 188 0
164 187 0
167 190 0
166 188 0
166 190 0
168 191 0
161 184 0
166 189 0
170 193 0
167 189 0
163 186 0
169 191 0
164 186 0
168 191 0
164 186 0
161 184 0
166 189 0
166 187 0
162 185 0
166 189 0
163 186 0
167 190 0
164 187 0
163 186 0
166 188 0
164 186 0
164 186 0
164 188 0
156 178 0
165 188 0
163 186 0
163 186 0
165 188 0
166 188 0
163 187 0
160 184 0
167 190 0
166 189 0
159 181 0
154 177 0
167 190 0
162 185 0
165 187 0
164 187 0
157 179 0
166 190 0
165 186 0
159 182 0
165 188 0
166 189 0
163 185 0
164 187 0
162 185 0
163 186 0
163 186 0
164 187 0
166 190 0
166 189 0
163 185 0
159 181 0
162 186 0
160 183 0
164 187 0
160 183 0
164 186 0
158 181 0
164 187 0
158 181 0
162 185 0
160 183 0
164 186 0
155 177 0
162 185 0
156 180 0
161 184 0
163 185 0
161 182 0
163 185 0
159 182 0
159 181 0
161 184 0
155 177 0
159 181 0
163 186 0
155 179 0
160 183 0
155 176 0
157 182 0
154 177 0
158 181 0
160 182 0
155 179 0
156 178 0
165 187 0
152 175 0
161 184 0
165 187 0
157 180 0
159 182 0
154 177 0
159 181 0
157 180 0
159 182 0
156 178 0
156 179 0
156 179 0
158 180 0
157 181 0
158 180 0
154 177 0
165 188 0
156 178 0
158 180 0
158 181 0
160 182 0
149 172 0
157 180 0
158 180 0
149 171 0
150 173 0
158 180 0
157 180 0
158 181 0
149 170 0
158 181 0
161 184 0
142 165 0
158 181 0
156 179 0
164 186 0
149 172 0
148 171 0
155 177 0
157 180 0
152 174 0
154 175 0
152 175 0
158 180 0
152 175 0
154 175 0
151 174 0
153 176 0
153 177 0
155 176 0
149 173 0
146 168 0
155 176 0
147 169 0
156 178 0
153 175 0
151 174 0
151 171 0
155 177 0
152 174 0
148 171 0
154 177 0
159 181 0
152 173 0
160 181 0
141 163 0
155 176 0
153 175 0
160 183 0
151 173 0
153 174 0
149 171 0
158 181 0
156 179 0
153 175 0
150 171 0
154 175 0
154 176 0
153 174 0
152 174 0
156 179 0
145 166 0
154 175 0
156 177 0
155 178 0
155 176 0
145 168 0
154 175 0
151 172 0
152 176 0
144 164 0
153 173 0
151 170 0
151 170 0
149 172 0
157 179 0
152 174 0
146 168 0
163 185 0
154 176 0
152 175 0
157 178 0
156 176 0
149 170 0
148 169 0
143 165 0
147 168 0
149 170 0
154 176 0
146 166 0
146 167 0
152 173 0
154 175 0
151 174 0
142 161 0
155 176 0
148 170 0
148 168 0
154 176 0
151 172 0
146 167 0
148 168 0
148 168 0
147 167 0
147 169 0
154 176 0
149 171 0
150 171 0
156 177 0
158 179 0
147 166 0
160 182 0
155 176 0
154 175 0
148 167 0
147 167 0
148 168 0
155 173 0
154 173 0
152 172 0
159 180 0
156 177 0
149 168 0
153 174 0
153 173 0
147 165 0
152 172 0
145 163 0
153 173 0
145 163 0
156 177 0
152 171 0
153 173 0
152 173 0
150 172 0
145 164 0
152 173 0
152 173 0
145 164 0
151 171 0
153 172 0
155 175 0
151 171 0
155 175 0
148 167 0
151 168 0
155 175 0
160 180 0
156 175 0
144 160 0
156 175 0
145 163 0
155 175 0
154 175 0
148 167 0
158 176 0
152 169 0
150 167 0
155 173 0
153 170 0
151 170 0
150 168 0
148 162 0
154 173 0
150 165 0
156 173 0
149 166 0
155 173 0
151 169 0
144 161 0
153 169 0
149 164 0
149 166 0
149 165 0
152 168 0
150 168 0
151 169 0
154 172 0
152 170 0
155 172 0
156 173 0
152 169 0
156 174 0
155 171 0
154 171 0
146 163 0
155 170 0
157 176 0
155 171 0
153 168 0
153 168 0
152 168 0
156 175 0
152 168 0
152 168 0
148 163 0
153 169 0
158 174 0
158 174 0
150 164 0
151 164 0
156 171 0
152 165 0
156 170 0
147 162 0
157 172 0
158 174 0
153 168 0
156 170 0
159 172 0
153 169 0
150 164 0
160 175 0
154 169 0
155 173 0
159 173 0
158 171 0
154 168 0
156 170 0
156 172 0
156 171 0
152 164 0
146 159 0
149 163 0
149 164 0
152 163 0
156 167 0
151 164 0
159 175 0
156 170 0
158 175 0
149 164 0
158 170 0
156 171 0
155 167 0
163 178 0
156 170 0
156 166 0
156 170 0
159 172 0
159 173 0
157 168 0
154 167 0
160 173 0
159 172 0
156 170 0
162 177 0
159 174 0
157 170 0
156 166 0
158 171 0
160 172 0
156 167 0
157 172 0
159 172 0
159 169 0
161 175 0
157 168 0
159 173 0
160 172 0
156 168 0
160 176 0
165 187 0
168 191 0
171 193 0
168 191 0
165 189 0
172 194 0
168 190 0
166 188 0
170 193 0
168 191 0
164 186 0
167 190 0
168 190 0
166 189 0
169 191 0
165 188 0
165 189 0
171 194 0
167 191 0
169 192 0
159 182 0
165 188 0
168 191 0
166 189 0
166 189 0
164 187 0
163 187 0
171 194 0
169 192 0
162 185 0
165 188 0
166 189 0
169 191 0
162 184 0
172 195 0
166 189 0
161 184 0
163 185 0
165 187 0
165 188 0
165 189 0
167 189 0
165 188 0
167 190 0
166 190 0
167 190 0
161 182 0
171 194 0
163 186 0
163 187 0
161 184 0
163 186 0
160 182 0
163 185 0
163 185 0
166 188 0
161 183 0
163 186 0
165 189 0
164 186 0
165 188 0
162 186 0
164 186 0
165 188 0
166 189 0
162 185 0
165 188 0
165 187 0
161 185 0
164 188 0
167 190 0
163 186 0
167 189 0
160 183 0
157 179 0
161 184 0
164 187 0
165 188 0
161 184 0
161 184 0
162 186 0
163 186 0
163 186 0
163 186 0
162 186 0
164 186 0
161 184 0
160 184 0
162 184 0
165 187 0
163 187 0
165 188 0
158 180 0
156 178 0
160 183 0
165 186 0
163 187 0
154 178 0
163 186 0
161 184 0
165 188 0
158 181 0
162 185 0
161 183 0
157 179 0
161 183 0
155 178 0
162 185 0
159 182 0
157 180 0
157 179 0
160 184 0
157 180 0
159 182 0
163 185 0
161 184 0
152 174 0
159 182 0
161 184 0
154 177 0
154 177 0
162 185 0
154 177 0
156 179 0
157 179 0
162 186 0
157 179 0
154 178 0
155 177 0
155 178 0
156 178 0
153 176 0
157 180 0
154 175 0
160 183 0
151 173 0
154 176 0
159 182 0
158 180 0
163 185 0
155 179 0
156 179 0
160 182 0
159 181 0
156 178 0
157 179 0
154 176 0
157 178 0
156 179 0
158 180 0
156 177 0
155 177 0
152 173 0
156 178 0
152 175 0
156 178 0
158 181 0
158 180 0
154 177 0
149 172 0
156 179 0
150 172 0
148 171 0
146 168 0
158 180 0
150 173 0
157 179 0
153 175 0
156 177 0
155 177 0
157 178 0
156 178 0
156 179 0
155 177 0
152 174 0
144 167 0
151 172 0
151 174 0
153 175 0
151 173 0
162 184 0
155 175 0
156 178 0
152 173 0
151 173 0
155 177 0
152 174 0
149 171 0
155 177 0
159 181 0
149 170 0
163 185 0
149 170 0
156 178 0
150 171 0
150 172 0
154 175 0
153 176 0
153 174 0
156 178 0
153 175 0
146 166 0
147 168 0
151 173 0
148 169 0
151 174 0
147 170 0
148 168 0
150 170 0
144 166 0
154 176 0
153 174 0
158 179 0
155 177 0
151 173 0
152 173 0
139 161 0
155 177 0
156 178 0
158 179 0
151 172 0
158 179 0
151 172 0
151 173 0
143 164 0
150 170 0
154 175 0
146 167 0
154 175 0
151 172 0
151 171 0
158 180 0
152 172 0
149 170 0
150 171 0
148 170 0
153 171 0
150 170 0
155 176 0
148 168 0
141 162 0
151 173 0
147 167 0
151 172 0
153 173 0
147 167 0
159 180 0
150 171 0
150 172 0
165 185 0
151 172 0
154 172 0
148 168 0
152 173 0
155 176 0
148 168 0
150 170 0
150 170 0
148 167 0
153 174 0
154 173 0
146 167 0
152 171 0
156 177 0
146 165 0
155 175 0
149 169 0
155 174 0
153 173 0
153 174 0
149 169 0
149 168 0
156 175 0
152 171 0
152 173 0
150 171 0
155 175 0
151 170 0
154 174 0
152 173 0
151 170 0
153 171 0
158 177 0
157 175 0
150 170 0
155 175 0
155 174 0
147 166 0
155 173 0
156 175 0
160 179 0
152 170 0
148 168 0
148 168 0
143 161 0
155 173 0
158 177 0
153 172 0
151 169 0
150 169 0
156 175 0
153 170 0
157 177 0
151 169 0
152 171 0
151 168 0
145 163 0
157 175 0
150 167 0
151 170 0
155 175 0
153 169 0
156 175 0
152 170 0
151 168 0
152 171 0
156 175 0
152 169 0
149 166 0
155 173 0
156 173 0
151 170 0
159 176 0
159 177 0
153 170 0
154 169 0
157 176 0
152 168 0
152 169 0
158 174 0
154 172 0
150 168 0
151 168 0
155 171 0
150 169 0
155 173 0
156 173 0
153 169 0
158 173 0
154 169 0
153 168 0
153 169 0
157 175 0
158 174 0
152 167 0
155 170 0
155 168 0
149 164 0
154 169 0
161 177 0
159 173 0
159 172 0
150 165 0
152 166 0
148 164 0
148 160 0
155 172 0
156 169 0
158 173 0
151 164 0
157 171 0
154 166 0
158 172 0
153 166 0
153 165 0
149 160 0
160 176 0
152 165 0
159 176 0
147 159 0
158 174 0
151 164 0
158 174 0
154 164 0
159 172 0
160 174 0
160 175 0
158 172 0
156 169 0
152 166 0
158 170 0
161 175 0
156 167 0
159 173 0
159 175 0
154 167 0
156 168 0
159 172 0
152 167 0
161 172 0
156 168 0
157 170 0
157 170 0
157 168 0
159 173 0
161 177 0
164 177 0
155 165 0
157 165 0
161 174 0
167 190 0
168 191 0
169 191 0
167 191 0
161 185 0
169 192 0
169 192 0
168 191 0
169 192 0
172 194 0
169 192 0
167 190 0
167 189 0
162 184 0
169 191 0
169 192 0
163 186 0
170 194 0
166 189 0
170 193 0
169 192 0
167 190 0
165 188 0
166 189 0
164 186 0
166 188 0
163 186 0
171 194 0
163 185 0
167 190 0
166 189 0
165 187 0
169 192 0
163 186 0
166 189 0
157 180 0
161 183 0
166 189 0
168 191 0
168 191 0
166 189 0
162 185 0
164 187 0
166 188 0
165 188 0
165 188 0
162 185 0
168 190 0
167 190 0
164 187 0
162 185 0
158 180 0
157 180 0
155 178 0
159 182 0
163 186 0
158 181 0
158 182 0
163 185 0
162 185 0
159 182 0
166 188 0
162 185 0
167 189 0
169 192 0
159 181 0
157 182 0
163 187 0
159 182 0
155 178 0
163 185 0
163 186 0
161 184 0
158 181 0
166 188 0
164 188 0
160 183 0
164 186 0
158 181 0
156 180 0
164 188 0
161 184 0
160 184 0
163 185 0
163 186 0
165 188 0
158 181 0
159 182 0
156 179 0
160 182 0
165 188 0
164 186 0
158 181 0
163 186 0
157 179 0
166 189 0
160 183 0
152 174 0
149 172 0
157 180 0
157 180 0
159 182 0
158 180 0
160 183 0
156 178 0
155 178 0
157 181 0
160 183 0
157 179 0
161 183 0
160 183 0
158 180 0
154 178 0
155 177 0
154 178 0
161 184 0
158 180 0
163 185 0
161 184 0
162 185 0
158 180 0
158 182 0
161 185 0
153 176 0
160 182 0
158 181 0
158 181 0
151 174 0
164 186 0
161 184 0
163 185 0
160 182 0
158 181 0
151 174 0
157 180 0
157 179 0
156 178 0
158 180 0
163 186 0
156 178 0
159 181 0
161 184 0
159 180 0
159 182 0
153 175 0
154 177 0
152 175 0
159 181 0
159 182 0
155 178 0
161 182 0
161 182 0
157 181 0
159 181 0
154 178 0
160 183 0
153 176 0
152 174 0
156 179 0
151 171 0
150 172 0
158 181 0
156 177 0
155 177 0
158 179 0
153 175 0
147 169 0
149 168 0
152 174 0
154 177 0
152 173 0
154 177 0
156 179 0
159 182 0
151 173 0
148 171 0
150 173 0
156 177 0
151 174 0
152 173 0
152 173 0
155 177 0
152 172 0
151 173 0
161 183 0
155 176 0
150 172 0
158 179 0
155 178 0
157 179 0
153 174 0
147 169 0
156 178 0
148 169 0
154 176 0
150 171 0
157 178 0
154 176 0
163 185 0
160 183 0
153 174 0
154 175 0
146 166 0
152 174 0
156 177 0
152 175 0
155 178 0
150 172 0
151 172 0
155 176 0
156 178 0
153 173 0
155 178 0
148 168 0
153 173 0
152 175 0
152 173 0
148 169 0
143 163 0
163 185 0
151 172 0
153 173 0
135 154 0
147 168 0
151 173 0
151 173 0
154 174 0
159 180 0
151 173 0
152 173 0
152 174 0
149 170 0
152 172 0
149 170 0
153 175 0
149 170 0
150 172 0
156 178 0
154 176 0
152 174 0
156 176 0
159 180 0
151 170 0
153 173 0
153 173 0
157 179 0
156 177 0
149 168 0
152 172 0
159 181 0
156 175 0
150 172 0
148 167 0
151 171 0
149 171 0
153 172 0
155 177 0
160 181 0
151 171 0
153 174 0
151 171 0
150 170 0
146 167 0
149 170 0
152 172 0
148 168 0
148 169 0
151 171 0
151 172 0
150 170 0
149 169 0
148 166 0
149 169 0
146 165 0
145 163 0
154 173 0
154 174 0
151 171 0
154 175 0
154 172 0
154 173 0
150 169 0
150 168 0
144 163 0
155 174 0
157 176 0
151 169 0
152 173 0
158 178 0
151 170 0
160 177 0
158 179 0
154 174 0
156 175 0
149 167 0
151 169 0
151 168 0
152 173 0
153 172 0
155 174 0
156 176 0
150 170 0
153 172 0
155 173 0
153 173 0
150 169 0
160 180 0
158 176 0
155 171 0
151 169 0
155 171 0
157 175 0
146 165 0
158 176 0
151 168 0
162 180 0
153 169 0
155 173 0
150 167 0
156 174 0
146 163 0
147 164 0
159 178 0
152 168 0
155 172 0
153 168 0
154 171 0
156 172 0
151 170 0
153 171 0
155 171 0
160 178 0
161 178 0
151 167 0
150 167 0
157 172 0
161 179 0
151 165 0
159 174 0
147 164 0
152 169 0
160 177 0
152 166 0
157 173 0
152 167 0
158 175 0
152 167 0
158 173 0
157 174 0
154 170 0
156 170 0
160 176 0
153 168 0
153 167 0
151 167 0
160 173 0
161 178 0
153 166 0
155 170 0
159 174 0
154 167 0
152 164 0
154 170 0
155 170 0
152 165 0
156 170 0
142 155 0
153 167 0
158 173 0
156 170 0
160 176 0
160 172 0
155 170 0
154 170 0
152 165 0
158 172 0
158 172 0
162 179 0
158 174 0
162 176 0
157 172 0
155 169 0
152 165 0
157 174 0
156 168 0
161 177 0
164 179 0
155 168 0
159 172 0
158 170 0
157 171 0
158 170 0
150 163 0
159 172 0
159 172 0
155 164 0
158 167 0
156 169 0
161 176 0
155 166 0
166 189 0
167 189 0
167 189 0
169 192 0
166 188 0
168 191 0
170 193 0
171 194 0
172 194 0
169 192 0
165 188 0
172 194 0
167 190 0
170 192 0
167 190 0
166 188 0
169 192 0
173 195 0
167 191 0
171 193 0
166 188 0
168 191 0
164 187 0
169 192 0
166 189 0
167 191 0
167 189 0
165 187 0
163 186 0
163 185 0
165 188 0
170 193 0
168 191 0
168 191 0
172 194 0
162 186 0
166 187 0
165 189 0
168 189 0
166 189 0
161 184 0
161 184 0
169 192 0
161 185 0
168 190 0
166 189 0
165 188 0
163 186 0
159 183 0
163 186 0
160 183 0
165 188 0
163 187 0
168 191 0
164 187 0
164 188 0
166 189 0
165 188 0
166 189 0
165 188 0
161 184 0
162 186 0
165 189 0
163 186 0
162 184 0
162 185 0
165 187 0
165 188 0
162 185 0
164 188 0
166 189 0
164 187 0
162 186 0
163 186 0
163 186 0
166 189 0
161 184 0
158 180 0
164 186 0
161 183 0
167 189 0
162 185 0
158 181 0
163 186 0
161 184 0
163 186 0
159 183 0
157 180 0
154 177 0
158 181 0
165 188 0
162 184 0
163 186 0
164 187 0
162 185 0
161 184 0
166 189 0
158 181 0
156 178 0
159 183 0
154 177 0
155 177 0
154 177 0
158 181 0
155 177 0
159 182 0
157 179 0
163 186 0
162 185 0
157 180 0
163 185 0
159 182 0
156 179 0
161 184 0
157 181 0
156 179 0
158 180 0
159 183 0
159 182 0
162 184 0
158 179 0
160 182 0
155 178 0
160 182 0
154 176 0
160 182 0
158 180 0
158 181 0
157 180 0
153 174 0
155 178 0
158 181 0
159 181 0
154 177 0
158 182 0
153 175 0
156 178 0
156 178 0
160 182 0
156 181 0
157 180 0
163 185 0
150 172 0
157 180 0
158 181 0
160 183 0
150 172 0
155 177 0
151 173 0
157 179 0
156 180 0
151 173 0
154 176 0
154 176 0
161 184 0
150 174 0
156 179 0
152 174 0
157 178 0
157 180 0
157 179 0
154 177 0
154 175 0
152 175 0
151 172 0
150 173 0
160 182 0
155 177 0
156 178 0
154 176 0
156 178 0
152 174 0
157 177 0
154 176 0
151 174 0
152 175 0
151 173 0
158 180 0
159 179 0
158 180 0
153 174 0
161 184 0
156 178 0
152 174 0
161 183 0
151 173 0
153 174 0
144 164 0
158 180 0
160 183 0
157 180 0
153 176 0
155 177 0
154 177 0
152 175 0
148 171 0
158 179 0
148 169 0
159 180 0
159 182 0
156 177 0
153 174 0
146 168 0
150 171 0
155 176 0
152 173 0
153 175 0
155 177 0
152 174 0
155 176 0
159 181 0
155 176 0
156 176 0
156 176 0
149 171 0
150 170 0
150 172 0
158 180 0
157 178 0
155 176 0
158 180 0
159 180 0
149 170 0
146 168 0
149 170 0
150 172 0
155 177 0
150 172 0
155 176 0
153 175 0
150 172 0
151 172 0
153 173 0
153 174 0
155 176 0
158 179 0
155 175 0
148 170 0
148 167 0
151 172 0
156 177 0
151 172 0
155 176 0
151 172 0
155 177 0
155 176 0
150 172 0
159 181 0
153 175 0
156 176 0
150 172 0
157 177 0
149 171 0
155 174 0
150 168 0
150 170 0
152 171 0
150 170 0
148 167 0
148 168 0
153 173 0
154 174 0
154 174 0
150 172 0
150 170 0
156 177 0
160 179 0
155 175 0
155 177 0
149 169 0
149 169 0
157 173 0
151 171 0
151 171 0
154 175 0
154 174 0
155 176 0
148 168 0
154 173 0
149 169 0
153 171 0
150 169 0
154 173 0
152 171 0
152 171 0
153 171 0
152 169 0
160 180 0
152 172 0
148 168 0
156 173 0
151 168 0
158 176 0
156 173 0
144 163 0
153 173 0
155 173 0
154 176 0
154 174 0
158 177 0
156 174 0
153 171 0
159 178 0
155 173 0
150 170 0
151 171 0
148 166 0
156 174 0
154 170 0
153 170 0
156 173 0
153 171 0
154 172 0
150 167 0
157 176 0
159 175 0
152 170 0
153 170 0
150 168 0
152 169 0
148 165 0
153 170 0
147 165 0
150 168 0
149 166 0
148 164 0
160 177 0
151 169 0
156 174 0
151 168 0
154 169 0
148 165 0
152 170 0
158 173 0
152 168 0
157 176 0
156 174 0
156 174 0
157 177 0
153 168 0
157 173 0
156 173 0
155 171 0
156 173 0
159 177 0
154 170 0
158 175 0
159 175 0
159 177 0
151 169 0
157 172 0
156 172 0
152 165 0
156 171 0
160 177 0
158 174 0
159 175 0
160 176 0
160 178 0
154 170 0
157 171 0
157 171 0
153 167 0
158 173 0
157 174 0
158 174 0
152 165 0
159 173 0
153 169 0
158 172 0
159 173 0
158 173 0
153 166 0
157 171 0
157 171 0
155 170 0
157 171 0
153 165 0
153 168 0
159 173 0
161 175 0
152 166 0
163 178 0
157 172 0
157 172 0
157 171 0
162 177 0
162 177 0
159 173 0
157 169 0
159 171 0
150 162 0
151 163 0
158 167 0
163 176 0
153 164 0
158 171 0
158 172 0
160 174 0
158 170 0
168 191 0
168 190 0
165 188 0
163 186 0
167 189 0
167 190 0
164 187 0
163 185 0
166 190 0
163 186 0
166 189 0
169 192 0
163 186 0
166 189 0
168 191 0
167 191 0
170 193 0
167 190 0
167 190 0
165 189 0
165 188 0
166 189 0
164 186 0
168 189 0
168 191 0
160 183 0
164 188 0
164 187 0
166 189 0
166 189 0
165 187 0
167 189 0
167 190 0
168 191 0
159 181 0
166 188 0
165 187 0
164 187 0
165 188 0
163 186 0
168 190 0
162 184 0
162 185 0
162 184 0
162 185 0
160 183 0
164 187 0
168 191 0
164 187 0
165 187 0
165 188 0
165 187 0
162 185 0
159 183 0
159 181 0
164 187 0
166 189 0
159 182 0
164 186 0
167 189 0
162 185 0
164 187 0
165 187 0
157 181 0
164 187 0
165 187 0
162 186 0
162 185 0
159 182 0
165 187 0
166 189 0
162 184 0
167 190 0
161 184 0
159 180 0
158 182 0
160 183 0
163 186 0
158 182 0
162 185 0
160 183 0
158 182 0
158 182 0
159 182 0
161 183 0
158 181 0
164 186 0
158 182 0
161 184 0
162 185 0
159 182 0
157 180 0
165 188 0
163 186 0
163 185 0
160 183 0
156 179 0
163 186 0
162 185 0
158 180 0
162 184 0
159 182 0
168 190 0
162 185 0
159 182 0
162 185 0
163 186 0
159 182 0
162 185 0
149 172 0
157 180 0
158 181 0
156 180 0
159 182 0
163 185 0
162 184 0
164 187 0
155 179 0
161 184 0
158 180 0
160 181 0
166 188 0
158 180 0
158 180 0
155 178 0
158 179 0
160 182 0
159 182 0
163 186 0
159 182 0
164 187 0
154 177 0
159 181 0
155 178 0
154 177 0
154 176 0
153 176 0
154 176 0
154 176 0
159 182 0
159 181 0
160 182 0
155 178 0
159 181 0
161 184 0
160 182 0
154 176 0
154 177 0
159 181 0
159 181 0
156 177 0
157 180 0
157 179 0
157 179 0
155 177 0
153 175 0
157 180 0
154 177 0
160 183 0
152 174 0
151 173 0
153 176 0
153 175 0
158 180 0
157 180 0
154 177 0
155 177 0
158 181 0
152 174 0
153 175 0
152 175 0
150 172 0
160 183 0
157 179 0
154 176 0
157 179 0
151 174 0
151 172 0
154 175 0
154 174 0
149 171 0
151 174 0
153 175 0
150 171 0
154 176 0
156 179 0
150 170 0
153 174 0
158 180 0
149 170 0
152 174 0
150 173 0
152 173 0
152 174 0
151 172 0
159 181 0
160 182 0
154 176 0
155 176 0
159 179 0
154 176 0
160 183 0
147 170 0
147 167 0
150 170 0
153 174 0
152 174 0
150 173 0
151 172 0
157 178 0
147 168 0
150 172 0
152 173 0
152 175 0
157 178 0
150 172 0
152 174 0
155 175 0
156 178 0
151 171 0
160 182 0
154 176 0
152 172 0
149 169 0
157 179 0
152 172 0
146 168 0
161 184 0
153 175 0
154 174 0
158 179 0
155 176 0
151 170 0
152 173 0
150 170 0
150 170 0
148 169 0
155 176 0
156 179 0
160 181 0
151 173 0
150 170 0
148 169 0
151 173 0
156 177 0
150 172 0
150 168 0
150 170 0
155 175 0
150 170 0
151 172 0
153 175 0
148 169 0
145 168 0
154 176 0
156 175 0
154 175 0
155 177 0
153 173 0
152 173 0
150 170 0
154 173 0
150 171 0
146 167 0
159 179 0
148 168 0
150 171 0
158 179 0
155 177 0
151 170 0
154 173 0
151 170 0
144 164 0
156 177 0
151 171 0
158 179 0
148 166 0
152 171 0
154 172 0
148 168 0
157 176 0
155 176 0
156 175 0
155 175 0
156 177 0
153 173 0
157 175 0
150 168 0
156 176 0
149 167 0
153 174 0
152 171 0
154 172 0
158 178 0
149 169 0
141 162 0
159 179 0
154 172 0
154 174 0
154 172 0
151 171 0
149 166 0
160 178 0
148 166 0
150 168 0
151 169 0
155 173 0
157 177 0
156 174 0
154 174 0
149 166 0
158 176 0
153 172 0
154 174 0
154 172 0
155 172 0
152 169 0
157 175 0
159 178 0
154 172 0
148 165 0
155 173 0
152 169 0
153 171 0
154 171 0
154 168 0
152 170 0
153 170 0
159 178 0
161 179 0
156 174 0
156 174 0
155 173 0
159 177 0
157 173 0
148 164 0
158 174 0
161 178 0
161 177 0
157 174 0
147 163 0
155 172 0
156 171 0
153 168 0
156 171 0
153 169 0
156 173 0
147 161 0
155 171 0
156 172 0
159 176 0
158 173 0
160 175 0
153 168 0
156 173 0
160 176 0
157 170 0
147 158 0
152 165 0
153 169 0
159 175 0
155 167 0
157 172 0
164 179 0
154 170 0
161 178 0
156 170 0
159 174 0
155 170 0
153 166 0
153 168 0
154 170 0
153 165 0
149 162 0
158 172 0
159 173 0
159 174 0
153 166 0
160 174 0
152 166 0
160 175 0
156 169 0
161 176 0
155 166 0
158 173 0
160 174 0
160 176 0
157 173 0
162 176 0
157 172 0
159 173 0
159 173 0
163 179 0
159 174 0
160 175 0
157 172 0
157 170 0
158 170 0
157 170 0
157 173 0
171 193 0
166 188 0
169 192 0
171 193 0
166 189 0
164 187 0
171 192 0
168 190 0
167 191 0
164 186 0
169 192 0
162 186 0
169 192 0
167 190 0
167 190 0
162 185 0
163 186 0
170 193 0
169 192 0
167 189 0
165 188 0
165 188 0
164 186 0
167 190 0
160 184 0
165 188 0
168 191 0
166 187 0
168 191 0
167 190 0
160 183 0
162 185 0
166 189 0
165 188 0
169 191 0
165 187 0
171 193 0
161 184 0
167 189 0
161 185 0
164 188 0
164 187 0
167 188 0
164 186 0
165 187 0
164 186 0
167 189 0
157 180 0
165 189 0
165 188 0
167 191 0
161 184 0
168 190 0
166 189 0
163 185 0
167 189 0
165 188 0
160 182 0
166 188 0
161 183 0
164 187 0
165 188 0
164 187 0
162 184 0
159 183 0
158 181 0
170 193 0
162 185 0
159 182 0
161 184 0
165 188 0
163 186 0
163 185 0
165 187 0
164 187 0
160 184 0
161 183 0
156 178 0
160 182 0
156 179 0
160 182 0
160 183 0
162 184 0
161 184 0
161 184 0
157 180 0
164 187 0
166 190 0
162 185 0
162 186 0
166 188 0
159 181 0
163 186 0
160 184 0
165 188 0
160 182 0
166 188 0
157 180 0
156 178 0
162 185 0
163 186 0
157 178 0
160 182 0
155 179 0
162 186 0
159 181 0
161 183 0
156 180 0
158 180 0
155 178 0
161 184 0
156 179 0
163 186 0
158 181 0
157 179 0
154 177 0
157 179 0
161 183 0
159 183 0
155 178 0
157 180 0
153 175 0
158 181 0
162 185 0
158 181 0
159 181 0
150 172 0
165 188 0
161 184 0
150 172 0
161 184 0
159 181 0
155 178 0
158 181 0
160 182 0
159 182 0
157 179 0
154 176 0
152 175 0
155 176 0
158 180 0
155 178 0
160 183 0
155 177 0
157 179 0
155 178 0
157 180 0
158 181 0
154 176 0
155 176 0
153 176 0
155 178 0
162 185 0
153 174 0
158 180 0
154 176 0
150 172 0
156 178 0
161 183 0
156 179 0
159 180 0
146 169 0
155 178 0
152 174 0
149 172 0
151 173 0
151 173 0
151 173 0
156 179 0
153 175 0
155 177 0
156 178 0
160 183 0
153 176 0
152 174 0
156 179 0
159 182 0
155 177 0
159 182 0
149 171 0
161 184 0
157 180 0
148 170 0
159 179 0
155 177 0
159 180 0
159 180 0
157 179 0
152 174 0
154 176 0
151 171 0
154 175 0
157 178 0
155 177 0
150 173 0
146 167 0
155 178 0
154 175 0
155 178 0
154 175 0
150 171 0
149 172 0
150 171 0
149 171 0
154 176 0
151 172 0
153 175 0
162 184 0
149 168 0
154 176 0
155 176 0
158 178 0
151 173 0
147 168 0
158 179 0
154 176 0
156 178 0
152 174 0
148 168 0
155 176 0
155 177 0
153 176 0
153 175 0
153 175 0
155 177 0
151 173 0
159 180 0
156 178 0
152 174 0
147 167 0
154 173 0
156 177 0
149 169 0
156 177 0
154 175 0
147 167 0
150 171 0
154 174 0
151 171 0
149 171 0
153 174 0
158 178 0
147 167 0
150 170 0
154 175 0
158 178 0
155 174 0
154 175 0
160 183 0
159 180 0
152 171 0
156 178 0
152 172 0
153 173 0
160 180 0
157 178 0
161 182 0
155 175 0
150 171 0
150 170 0
147 166 0
155 177 0
155 174 0
160 180 0
154 175 0
159 179 0
147 167 0
153 172 0
150 170 0
148 167 0
161 184 0
155 174 0
149 169 0
154 174 0
160 181 0
156 177 0
153 174 0
153 173 0
155 173 0
154 174 0
152 171 0
148 163 0
152 172 0
148 168 0
157 179 0
161 180 0
151 169 0
152 172 0
148 166 0
143 160 0
157 175 0
151 171 0
154 174 0
155 174 0
150 169 0
152 170 0
157 175 0
151 171 0
151 171 0
150 168 0
154 173 0
150 169 0
150 166 0
156 176 0
149 167 0
154 174 0
150 166 0
157 176 0
158 176 0
154 173 0
158 177 0
158 178 0
158 177 0
159 180 0
144 161 0
154 172 0
150 167 0
152 172 0
157 175 0
152 170 0
156 175 0
159 175 0
151 168 0
153 171 0
150 165 0
153 169 0
158 176 0
159 177 0
161 180 0
157 176 0
154 172 0
156 175 0
151 169 0
153 168 0
158 176 0
154 171 0
151 166 0
151 167 0
152 165 0
156 168 0
155 171 0
159 174 0
155 171 0
154 170 0
154 170 0
154 171 0
155 172 0
157 172 0
157 175 0
156 173 0
158 172 0
152 168 0
159 177 0
150 165 0
154 168 0
154 169 0
152 167 0
164 178 0
151 164 0
151 168 0
156 171 0
156 170 0
157 170 0
155 171 0
155 169 0
160 174 0
158 174 0
157 173 0
153 168 0
155 172 0
152 166 0
154 168 0
160 175 0
157 173 0
155 172 0
154 168 0
152 166 0
154 167 0
161 177 0
158 173 0
154 168 0
159 173 0
160 173 0
157 171 0
158 171 0
154 165 0
156 172 0
158 176 0
155 169 0
162 178 0
153 166 0
154 166 0
152 164 0
153 165 0
155 170 0
159 172 0
161 173 0
162 176 0
156 170 0
163 177 0
166 189 0
170 193 0
166 189 0
166 189 0
165 189 0
161 184 0
170 193 0
172 195 0
163 185 0
169 191 0
170 193 0
161 184 0
166 189 0
166 189 0
166 189 0
166 190 0
170 193 0
167 190 0
164 186 0
167 190 0
169 191 0
165 188 0
168 191 0
165 189 0
168 191 0
169 192 0
157 181 0
161 185 0
172 194 0
167 190 0
168 190 0
164 187 0
166 189 0
171 194 0
169 192 0
164 187 0
163 186 0
163 187 0
165 188 0
165 188 0
163 186 0
163 187 0
164 186 0
159 182 0
164 187 0
161 184 0
158 182 0
164 187 0
167 190 0
165 188 0
157 179 0
163 185 0
166 189 0
162 185 0
163 188 0
163 186 0
159 182 0
163 186 0
160 183 0
165 188 0
165 187 0
165 188 0
163 186 0
161 184 0
158 182 0
163 186 0
157 180 0
165 188 0
162 185 0
160 183 0
161 185 0
157 179 0
159 182 0
158 181 0
166 189 0
163 186 0
164 187 0
161 185 0
165 188 0
164 187 0
165 189 0
162 186 0
166 190 0
165 188 0
161 186 0
162 185 0
159 181 0
157 181 0
158 182 0
161 184 0
158 182 0
164 188 0
160 182 0
165 187 0
159 183 0
159 181 0
165 189 0
167 190 0
161 185 0
163 186 0
162 184 0
164 186 0
164 187 0
157 180 0
159 182 0
158 181 0
164 187 0
157 180 0
156 179 0
152 176 0
158 182 0
164 186 0
158 181 0
156 178 0
158 181 0
162 184 0
149 172 0
161 184 0
160 182 0
163 186 0
159 182 0
158 181 0
152 176 0
155 177 0
157 180 0
155 178 0
156 179 0
159 182 0
150 173 0
161 182 0
158 181 0
156 179 0
161 184 0
155 178 0
161 184 0
160 182 0
150 173 0
165 187 0
159 181 0
157 180 0
163 186 0
156 179 0
152 174 0
155 178 0
156 179 0
152 174 0
153 176 0
156 179 0
161 183 0
155 179 0
155 177 0
156 178 0
154 175 0
159 181 0
159 181 0
163 185 0
156 178 0
164 187 0
155 176 0
156 177 0
161 184 0
150 172 0
150 173 0
150 171 0
153 173 0
155 177 0
149 170 0
153 175 0
150 173 0
157 180 0
155 177 0
160 181 0
153 175 0
160 182 0
156 179 0
161 182 0
151 172 0
152 175 0
154 176 0
156 179 0
158 181 0
157 180 0
151 175 0
157 179 0
158 181 0
150 171 0
156 178 0
153 175 0
153 176 0
154 176 0
149 170 0
155 177 0
161 184 0
155 176 0
154 175 0
147 168 0
154 176 0
146 168 0
154 176 0
156 177 0
157 178 0
157 177 0
162 184 0
151 172 0
154 175 0
159 181 0
155 178 0
155 177 0
155 176 0
150 170 0
160 181 0
153 175 0
151 171 0
153 174 0
150 172 0
150 171 0
148 169 0
156 177 0
156 178 0
154 175 0
161 184 0
150 173 0
159 179 0
153 174 0
158 179 0
154 176 0
154 175 0
147 168 0
157 179 0
152 172 0
157 178 0
156 177 0
148 169 0
157 179 0
153 174 0
149 170 0
148 169 0
154 174 0
155 177 0
146 166 0
154 177 0
157 178 0
156 177 0
148 168 0
151 171 0
156 175 0
150 168 0
158 177 0
154 173 0
150 171 0
152 172 0
152 172 0
148 169 0
149 168 0
148 167 0
157 178 0
151 171 0
153 174 0
149 170 0
153 175 0
146 167 0
153 173 0
150 170 0
148 167 0
151 172 0
148 166 0
157 178 0
156 177 0
156 177 0
160 180 0
149 167 0
158 180 0
156 174 0
153 173 0
155 175 0
160 180 0
148 167 0
152 173 0
155 174 0
158 178 0
155 176 0
154 175 0
148 169 0
155 175 0
153 173 0
157 178 0
151 170 0
153 173 0
159 179 0
158 178 0
159 181 0
154 173 0
155 174 0
156 174 0
158 177 0
155 172 0
154 174 0
160 181 0
152 170 0
153 174 0
149 168 0
153 171 0
162 183 0
152 170 0
155 173 0
153 172 0
162 180 0
155 171 0
152 171 0
155 172 0
149 166 0
156 178 0
151 168 0
157 175 0
156 174 0
150 167 0
155 172 0
149 166 0
160 178 0
153 172 0
154 173 0
151 169 0
157 174 0
150 167 0
162 179 0
154 169 0
154 173 0
158 175 0
158 176 0
154 169 0
153 171 0
157 173 0
156 173 0
157 175 0
158 176 0
162 178 0
151 167 0
148 164 0
158 177 0
155 168 0
155 172 0
153 172 0
154 171 0
154 172 0
149 165 0
154 173 0
158 174 0
154 166 0
153 170 0
150 165 0
158 172 0
155 172 0
151 167 0
155 171 0
161 177 0
155 170 0
154 170 0
154 170 0
154 170 0
157 170 0
153 168 0
160 178 0
158 173 0
150 165 0
155 171 0
160 175 0
154 170 0
154 168 0
156 172 0
153 167 0
156 169 0
157 171 0
157 173 0
157 174 0
156 171 0
154 167 0
150 164 0
160 175 0
160 176 0
152 166 0
156 169 0
157 174 0
156 170 0
157 172 0
157 170 0
162 180 0
157 169 0
155 167 0
157 172 0
157 171 0
153 168 0
160 174 0
156 168 0
160 173 0
152 165 0
157 172 0
150 165 0
159 172 0
159 171 0
156 170 0
